(Generated by PartKam Version 0.05)

G21 G90 G40

(bigholes)
G0 Z3
T0 M6
G17
M3
G0 X119.24815849631699 Y2.1165862331724665
G1 Z-0.24993649987299973 F500
G3 X119.57327914655829 Y2.1818643637287276 I0 J0.8509017018034036 F500
G3 X119.85013970027939 Y2.364744729489459 I-0.32512065024130044 J0.7848615697231394
G3 X120.03302006604014 Y2.6416052832105663 I-0.601981203962408 J0.601981203962408
G3 X120.09906019812038 Y2.966725933451867 I-0.7848615697231394 J0.32512065024130044
G3 X120.03302006604014 Y3.2918465836931676 I-0.8509017018034036 J0
G3 X119.85013970027939 Y3.5661671323342645 I-0.7848615697231394 J-0.32512065024130044
G3 X119.57327914655829 Y3.7515875031750063 I-0.601981203962408 J-0.601981203962408
G3 X119.24815849631699 Y3.81508763017526 I-0.32512065024130044 J-0.7848615697231394
G3 X118.9230378460757 Y3.7515875031750063 I0 J-0.8509017018034036
G3 X118.6461772923546 Y3.5661671323342645 I0.32512065024130044 J-0.7848615697231394
G3 X118.46329692659384 Y3.2918465836931676 I0.601981203962408 J-0.601981203962408
G3 X118.3972567945136 Y2.966725933451867 I0.7848615697231394 J-0.32512065024130044
G3 X118.46329692659384 Y2.6416052832105663 I0.8509017018034036 J0
G3 X118.6461772923546 Y2.364744729489459 I0.7848615697231394 J0.32512065024130044
G3 X118.9230378460757 Y2.1818643637287276 I0.601981203962408 J0.601981203962408
G3 X119.24815849631699 Y2.115824231648463 I0.32512065024130044 J0.7848615697231394
G1 Z-0.49987299974599947 F500
G3 X119.57327914655829 Y2.1818643637287276 I0 J0.8509017018034036 F500
G3 X119.85013970027939 Y2.364744729489459 I-0.32512065024130044 J0.7848615697231394
G3 X120.03302006604014 Y2.6416052832105663 I-0.601981203962408 J0.601981203962408
G3 X120.09906019812038 Y2.966725933451867 I-0.7848615697231394 J0.32512065024130044
G3 X120.03302006604014 Y3.2918465836931676 I-0.8509017018034036 J0
G3 X119.85013970027939 Y3.5661671323342645 I-0.7848615697231394 J-0.32512065024130044
G3 X119.57327914655829 Y3.7515875031750063 I-0.601981203962408 J-0.601981203962408
G3 X119.24815849631699 Y3.81508763017526 I-0.32512065024130044 J-0.7848615697231394
G3 X118.9230378460757 Y3.7515875031750063 I0 J-0.8509017018034036
G3 X118.6461772923546 Y3.5661671323342645 I0.32512065024130044 J-0.7848615697231394
G3 X118.46329692659384 Y3.2918465836931676 I0.601981203962408 J-0.601981203962408
G3 X118.3972567945136 Y2.966725933451867 I0.7848615697231394 J-0.32512065024130044
G3 X118.46329692659384 Y2.6416052832105663 I0.8509017018034036 J0
G3 X118.6461772923546 Y2.364744729489459 I0.7848615697231394 J0.32512065024130044
G3 X118.9230378460757 Y2.1818643637287276 I0.601981203962408 J0.601981203962408
G3 X119.24815849631699 Y2.115824231648463 I0.32512065024130044 J0.7848615697231394
G1 Z-0.7498094996189992 F500
G3 X119.57327914655829 Y2.1818643637287276 I0 J0.8509017018034036 F500
G3 X119.85013970027939 Y2.364744729489459 I-0.32512065024130044 J0.7848615697231394
G3 X120.03302006604014 Y2.6416052832105663 I-0.601981203962408 J0.601981203962408
G3 X120.09906019812038 Y2.966725933451867 I-0.7848615697231394 J0.32512065024130044
G3 X120.03302006604014 Y3.2918465836931676 I-0.8509017018034036 J0
G3 X119.85013970027939 Y3.5661671323342645 I-0.7848615697231394 J-0.32512065024130044
G3 X119.57327914655829 Y3.7515875031750063 I-0.601981203962408 J-0.601981203962408
G3 X119.24815849631699 Y3.81508763017526 I-0.32512065024130044 J-0.7848615697231394
G3 X118.9230378460757 Y3.7515875031750063 I0 J-0.8509017018034036
G3 X118.6461772923546 Y3.5661671323342645 I0.32512065024130044 J-0.7848615697231394
G3 X118.46329692659384 Y3.2918465836931676 I0.601981203962408 J-0.601981203962408
G3 X118.3972567945136 Y2.966725933451867 I0.7848615697231394 J-0.32512065024130044
G3 X118.46329692659384 Y2.6416052832105663 I0.8509017018034036 J0
G3 X118.6461772923546 Y2.364744729489459 I0.7848615697231394 J0.32512065024130044
G3 X118.9230378460757 Y2.1818643637287276 I0.601981203962408 J0.601981203962408
G3 X119.24815849631699 Y2.115824231648463 I0.32512065024130044 J0.7848615697231394
G1 Z-0.9997459994919989 F500
G3 X119.57327914655829 Y2.1818643637287276 I0 J0.8509017018034036 F500
G3 X119.85013970027939 Y2.364744729489459 I-0.32512065024130044 J0.7848615697231394
G3 X120.03302006604014 Y2.6416052832105663 I-0.601981203962408 J0.601981203962408
G3 X120.09906019812038 Y2.966725933451867 I-0.7848615697231394 J0.32512065024130044
G3 X120.03302006604014 Y3.2918465836931676 I-0.8509017018034036 J0
G3 X119.85013970027939 Y3.5661671323342645 I-0.7848615697231394 J-0.32512065024130044
G3 X119.57327914655829 Y3.7515875031750063 I-0.601981203962408 J-0.601981203962408
G3 X119.24815849631699 Y3.81508763017526 I-0.32512065024130044 J-0.7848615697231394
G3 X118.9230378460757 Y3.7515875031750063 I0 J-0.8509017018034036
G3 X118.6461772923546 Y3.5661671323342645 I0.32512065024130044 J-0.7848615697231394
G3 X118.46329692659384 Y3.2918465836931676 I0.601981203962408 J-0.601981203962408
G3 X118.3972567945136 Y2.966725933451867 I0.7848615697231394 J-0.32512065024130044
G3 X118.46329692659384 Y2.6416052832105663 I0.8509017018034036 J0
G3 X118.6461772923546 Y2.364744729489459 I0.7848615697231394 J0.32512065024130044
G3 X118.9230378460757 Y2.1818643637287276 I0.601981203962408 J0.601981203962408
G3 X119.24815849631699 Y2.115824231648463 I0.32512065024130044 J0.7848615697231394
G1 Z-1.2496824993649986 F500
G3 X119.57327914655829 Y2.1818643637287276 I0 J0.8509017018034036 F500
G3 X119.85013970027939 Y2.364744729489459 I-0.32512065024130044 J0.7848615697231394
G3 X120.03302006604014 Y2.6416052832105663 I-0.601981203962408 J0.601981203962408
G3 X120.09906019812038 Y2.966725933451867 I-0.7848615697231394 J0.32512065024130044
G3 X120.03302006604014 Y3.2918465836931676 I-0.8509017018034036 J0
G3 X119.85013970027939 Y3.5661671323342645 I-0.7848615697231394 J-0.32512065024130044
G3 X119.57327914655829 Y3.7515875031750063 I-0.601981203962408 J-0.601981203962408
G3 X119.24815849631699 Y3.81508763017526 I-0.32512065024130044 J-0.7848615697231394
G3 X118.9230378460757 Y3.7515875031750063 I0 J-0.8509017018034036
G3 X118.6461772923546 Y3.5661671323342645 I0.32512065024130044 J-0.7848615697231394
G3 X118.46329692659384 Y3.2918465836931676 I0.601981203962408 J-0.601981203962408
G3 X118.3972567945136 Y2.966725933451867 I0.7848615697231394 J-0.32512065024130044
G3 X118.46329692659384 Y2.6416052832105663 I0.8509017018034036 J0
G3 X118.6461772923546 Y2.364744729489459 I0.7848615697231394 J0.32512065024130044
G3 X118.9230378460757 Y2.1818643637287276 I0.601981203962408 J0.601981203962408
G3 X119.24815849631699 Y2.115824231648463 I0.32512065024130044 J0.7848615697231394
G1 Z-1.4996189992379985 F500
G3 X119.57327914655829 Y2.1818643637287276 I0 J0.8509017018034036 F500
G3 X119.85013970027939 Y2.364744729489459 I-0.32512065024130044 J0.7848615697231394
G3 X120.03302006604014 Y2.6416052832105663 I-0.601981203962408 J0.601981203962408
G3 X120.09906019812038 Y2.966725933451867 I-0.7848615697231394 J0.32512065024130044
G3 X120.03302006604014 Y3.2918465836931676 I-0.8509017018034036 J0
G3 X119.85013970027939 Y3.5661671323342645 I-0.7848615697231394 J-0.32512065024130044
G3 X119.57327914655829 Y3.7515875031750063 I-0.601981203962408 J-0.601981203962408
G3 X119.24815849631699 Y3.81508763017526 I-0.32512065024130044 J-0.7848615697231394
G3 X118.9230378460757 Y3.7515875031750063 I0 J-0.8509017018034036
G3 X118.6461772923546 Y3.5661671323342645 I0.32512065024130044 J-0.7848615697231394
G3 X118.46329692659384 Y3.2918465836931676 I0.601981203962408 J-0.601981203962408
G3 X118.3972567945136 Y2.966725933451867 I0.7848615697231394 J-0.32512065024130044
G3 X118.46329692659384 Y2.6416052832105663 I0.8509017018034036 J0
G3 X118.6461772923546 Y2.364744729489459 I0.7848615697231394 J0.32512065024130044
G3 X118.9230378460757 Y2.1818643637287276 I0.601981203962408 J0.601981203962408
G3 X119.24815849631699 Y2.115824231648463 I0.32512065024130044 J0.7848615697231394
G1 Z-1.7495554991109983 F500
G3 X119.57327914655829 Y2.1818643637287276 I0 J0.8509017018034036 F500
G3 X119.85013970027939 Y2.364744729489459 I-0.32512065024130044 J0.7848615697231394
G3 X120.03302006604014 Y2.6416052832105663 I-0.601981203962408 J0.601981203962408
G3 X120.09906019812038 Y2.966725933451867 I-0.7848615697231394 J0.32512065024130044
G3 X120.03302006604014 Y3.2918465836931676 I-0.8509017018034036 J0
G3 X119.85013970027939 Y3.5661671323342645 I-0.7848615697231394 J-0.32512065024130044
G3 X119.57327914655829 Y3.7515875031750063 I-0.601981203962408 J-0.601981203962408
G3 X119.24815849631699 Y3.81508763017526 I-0.32512065024130044 J-0.7848615697231394
G3 X118.9230378460757 Y3.7515875031750063 I0 J-0.8509017018034036
G3 X118.6461772923546 Y3.5661671323342645 I0.32512065024130044 J-0.7848615697231394
G3 X118.46329692659384 Y3.2918465836931676 I0.601981203962408 J-0.601981203962408
G3 X118.3972567945136 Y2.966725933451867 I0.7848615697231394 J-0.32512065024130044
G3 X118.46329692659384 Y2.6416052832105663 I0.8509017018034036 J0
G3 X118.6461772923546 Y2.364744729489459 I0.7848615697231394 J0.32512065024130044
G3 X118.9230378460757 Y2.1818643637287276 I0.601981203962408 J0.601981203962408
G3 X119.24815849631699 Y2.115824231648463 I0.32512065024130044 J0.7848615697231394
G1 Z-1.9994919989839979 F500
G3 X119.57327914655829 Y2.1818643637287276 I0 J0.8509017018034036 F500
G3 X119.85013970027939 Y2.364744729489459 I-0.32512065024130044 J0.7848615697231394
G3 X120.03302006604014 Y2.6416052832105663 I-0.601981203962408 J0.601981203962408
G3 X120.09906019812038 Y2.966725933451867 I-0.7848615697231394 J0.32512065024130044
G3 X120.03302006604014 Y3.2918465836931676 I-0.8509017018034036 J0
G3 X119.85013970027939 Y3.5661671323342645 I-0.7848615697231394 J-0.32512065024130044
G3 X119.57327914655829 Y3.7515875031750063 I-0.601981203962408 J-0.601981203962408
G3 X119.24815849631699 Y3.81508763017526 I-0.32512065024130044 J-0.7848615697231394
G3 X118.9230378460757 Y3.7515875031750063 I0 J-0.8509017018034036
G3 X118.6461772923546 Y3.5661671323342645 I0.32512065024130044 J-0.7848615697231394
G3 X118.46329692659384 Y3.2918465836931676 I0.601981203962408 J-0.601981203962408
G3 X118.3972567945136 Y2.966725933451867 I0.7848615697231394 J-0.32512065024130044
G3 X118.46329692659384 Y2.6416052832105663 I0.8509017018034036 J0
G3 X118.6461772923546 Y2.364744729489459 I0.7848615697231394 J0.32512065024130044
G3 X118.9230378460757 Y2.1818643637287276 I0.601981203962408 J0.601981203962408
G3 X119.24815849631699 Y2.115824231648463 I0.32512065024130044 J0.7848615697231394
G1 Z-2.249428498856998 F500
G3 X119.57327914655829 Y2.1818643637287276 I0 J0.8509017018034036 F500
G3 X119.85013970027939 Y2.364744729489459 I-0.32512065024130044 J0.7848615697231394
G3 X120.03302006604014 Y2.6416052832105663 I-0.601981203962408 J0.601981203962408
G3 X120.09906019812038 Y2.966725933451867 I-0.7848615697231394 J0.32512065024130044
G3 X120.03302006604014 Y3.2918465836931676 I-0.8509017018034036 J0
G3 X119.85013970027939 Y3.5661671323342645 I-0.7848615697231394 J-0.32512065024130044
G3 X119.57327914655829 Y3.7515875031750063 I-0.601981203962408 J-0.601981203962408
G3 X119.24815849631699 Y3.81508763017526 I-0.32512065024130044 J-0.7848615697231394
G3 X118.9230378460757 Y3.7515875031750063 I0 J-0.8509017018034036
G3 X118.6461772923546 Y3.5661671323342645 I0.32512065024130044 J-0.7848615697231394
G3 X118.46329692659384 Y3.2918465836931676 I0.601981203962408 J-0.601981203962408
G3 X118.3972567945136 Y2.966725933451867 I0.7848615697231394 J-0.32512065024130044
G3 X118.46329692659384 Y2.6416052832105663 I0.8509017018034036 J0
G3 X118.6461772923546 Y2.364744729489459 I0.7848615697231394 J0.32512065024130044
G3 X118.9230378460757 Y2.1818643637287276 I0.601981203962408 J0.601981203962408
G3 X119.24815849631699 Y2.115824231648463 I0.32512065024130044 J0.7848615697231394
G1 Z-2.4993649987299973 F500
G3 X119.57327914655829 Y2.1818643637287276 I0 J0.8509017018034036 F500
G3 X119.85013970027939 Y2.364744729489459 I-0.32512065024130044 J0.7848615697231394
G3 X120.03302006604014 Y2.6416052832105663 I-0.601981203962408 J0.601981203962408
G3 X120.09906019812038 Y2.966725933451867 I-0.7848615697231394 J0.32512065024130044
G3 X120.03302006604014 Y3.2918465836931676 I-0.8509017018034036 J0
G3 X119.85013970027939 Y3.5661671323342645 I-0.7848615697231394 J-0.32512065024130044
G3 X119.57327914655829 Y3.7515875031750063 I-0.601981203962408 J-0.601981203962408
G3 X119.24815849631699 Y3.81508763017526 I-0.32512065024130044 J-0.7848615697231394
G3 X118.9230378460757 Y3.7515875031750063 I0 J-0.8509017018034036
G3 X118.6461772923546 Y3.5661671323342645 I0.32512065024130044 J-0.7848615697231394
G3 X118.46329692659384 Y3.2918465836931676 I0.601981203962408 J-0.601981203962408
G3 X118.3972567945136 Y2.966725933451867 I0.7848615697231394 J-0.32512065024130044
G3 X118.46329692659384 Y2.6416052832105663 I0.8509017018034036 J0
G3 X118.6461772923546 Y2.364744729489459 I0.7848615697231394 J0.32512065024130044
G3 X118.9230378460757 Y2.1818643637287276 I0.601981203962408 J0.601981203962408
G3 X119.24815849631699 Y2.115824231648463 I0.32512065024130044 J0.7848615697231394
G1 Z-2.749301498602997 F500
G3 X119.57327914655829 Y2.1818643637287276 I0 J0.8509017018034036 F500
G3 X119.85013970027939 Y2.364744729489459 I-0.32512065024130044 J0.7848615697231394
G3 X120.03302006604014 Y2.6416052832105663 I-0.601981203962408 J0.601981203962408
G3 X120.09906019812038 Y2.966725933451867 I-0.7848615697231394 J0.32512065024130044
G3 X120.03302006604014 Y3.2918465836931676 I-0.8509017018034036 J0
G3 X119.85013970027939 Y3.5661671323342645 I-0.7848615697231394 J-0.32512065024130044
G3 X119.57327914655829 Y3.7515875031750063 I-0.601981203962408 J-0.601981203962408
G3 X119.24815849631699 Y3.81508763017526 I-0.32512065024130044 J-0.7848615697231394
G3 X118.9230378460757 Y3.7515875031750063 I0 J-0.8509017018034036
G3 X118.6461772923546 Y3.5661671323342645 I0.32512065024130044 J-0.7848615697231394
G3 X118.46329692659384 Y3.2918465836931676 I0.601981203962408 J-0.601981203962408
G3 X118.3972567945136 Y2.966725933451867 I0.7848615697231394 J-0.32512065024130044
G3 X118.46329692659384 Y2.6416052832105663 I0.8509017018034036 J0
G3 X118.6461772923546 Y2.364744729489459 I0.7848615697231394 J0.32512065024130044
G3 X118.9230378460757 Y2.1818643637287276 I0.601981203962408 J0.601981203962408
G3 X119.24815849631699 Y2.115824231648463 I0.32512065024130044 J0.7848615697231394
G1 Z-2.999237998475997 F500
G3 X119.57327914655829 Y2.1818643637287276 I0 J0.8509017018034036 F500
G3 X119.85013970027939 Y2.364744729489459 I-0.32512065024130044 J0.7848615697231394
G3 X120.03302006604014 Y2.6416052832105663 I-0.601981203962408 J0.601981203962408
G3 X120.09906019812038 Y2.966725933451867 I-0.7848615697231394 J0.32512065024130044
G3 X120.03302006604014 Y3.2918465836931676 I-0.8509017018034036 J0
G3 X119.85013970027939 Y3.5661671323342645 I-0.7848615697231394 J-0.32512065024130044
G3 X119.57327914655829 Y3.7515875031750063 I-0.601981203962408 J-0.601981203962408
G3 X119.24815849631699 Y3.81508763017526 I-0.32512065024130044 J-0.7848615697231394
G3 X118.9230378460757 Y3.7515875031750063 I0 J-0.8509017018034036
G3 X118.6461772923546 Y3.5661671323342645 I0.32512065024130044 J-0.7848615697231394
G3 X118.46329692659384 Y3.2918465836931676 I0.601981203962408 J-0.601981203962408
G3 X118.3972567945136 Y2.966725933451867 I0.7848615697231394 J-0.32512065024130044
G3 X118.46329692659384 Y2.6416052832105663 I0.8509017018034036 J0
G3 X118.6461772923546 Y2.364744729489459 I0.7848615697231394 J0.32512065024130044
G3 X118.9230378460757 Y2.1818643637287276 I0.601981203962408 J0.601981203962408
G3 X119.24815849631699 Y2.115824231648463 I0.32512065024130044 J0.7848615697231394
G1 Z-3 F500
G3 X119.57327914655829 Y2.1818643637287276 I0 J0.8509017018034036 F500
G3 X119.85013970027939 Y2.364744729489459 I-0.32512065024130044 J0.7848615697231394
G3 X120.03302006604014 Y2.6416052832105663 I-0.601981203962408 J0.601981203962408
G3 X120.09906019812038 Y2.966725933451867 I-0.7848615697231394 J0.32512065024130044
G3 X120.03302006604014 Y3.2918465836931676 I-0.8509017018034036 J0
G3 X119.85013970027939 Y3.5661671323342645 I-0.7848615697231394 J-0.32512065024130044
G3 X119.57327914655829 Y3.7515875031750063 I-0.601981203962408 J-0.601981203962408
G3 X119.24815849631699 Y3.81508763017526 I-0.32512065024130044 J-0.7848615697231394
G3 X118.9230378460757 Y3.7515875031750063 I0 J-0.8509017018034036
G3 X118.6461772923546 Y3.5661671323342645 I0.32512065024130044 J-0.7848615697231394
G3 X118.46329692659384 Y3.2918465836931676 I0.601981203962408 J-0.601981203962408
G3 X118.3972567945136 Y2.966725933451867 I0.7848615697231394 J-0.32512065024130044
G3 X118.46329692659384 Y2.6416052832105663 I0.8509017018034036 J0
G3 X118.6461772923546 Y2.364744729489459 I0.7848615697231394 J0.32512065024130044
G3 X118.9230378460757 Y2.1818643637287276 I0.601981203962408 J0.601981203962408
G3 X119.24815849631699 Y2.115824231648463 I0.32512065024130044 J0.7848615697231394
G0 Z3
G0 X119.24815849631699 Y51.01193802387605
G1 Z-0.24993649987299973 F500
G3 X119.57327914655829 Y51.076962153924306 I0 J0.8509017018034036 F500
G3 X119.85013970027939 Y51.25984251968504 I-0.32512065024130044 J0.7848615697231394
G3 X120.03302006604014 Y51.536703073406144 I-0.601981203962408 J0.601981203962408
G3 X120.09906019812038 Y51.86182372364745 I-0.7848615697231394 J0.32512065024130044
G3 X120.03302006604014 Y52.18694437388875 I-0.8509017018034036 J0
G3 X119.85013970027939 Y52.46380492760985 I-0.7848615697231394 J-0.32512065024130044
G3 X119.57327914655829 Y52.64668529337059 I-0.601981203962408 J-0.601981203962408
G3 X119.24815849631699 Y52.71272542545085 I-0.32512065024130044 J-0.7848615697231394
G3 X118.9230378460757 Y52.64668529337059 I0 J-0.8509017018034036
G3 X118.6461772923546 Y52.46380492760985 I0.32512065024130044 J-0.7848615697231394
G3 X118.46329692659384 Y52.18694437388875 I0.601981203962408 J-0.601981203962408
G3 X118.3972567945136 Y51.86182372364745 I0.7848615697231394 J-0.32512065024130044
G3 X118.46329692659384 Y51.536703073406144 I0.8509017018034036 J0
G3 X118.6461772923546 Y51.25984251968504 I0.7848615697231394 J0.32512065024130044
G3 X118.9230378460757 Y51.076962153924306 I0.601981203962408 J0.601981203962408
G3 X119.24815849631699 Y51.010922021844046 I0.32512065024130044 J0.7848615697231394
G1 Z-0.49987299974599947 F500
G3 X119.57327914655829 Y51.076962153924306 I0 J0.8509017018034036 F500
G3 X119.85013970027939 Y51.25984251968504 I-0.32512065024130044 J0.7848615697231394
G3 X120.03302006604014 Y51.536703073406144 I-0.601981203962408 J0.601981203962408
G3 X120.09906019812038 Y51.86182372364745 I-0.7848615697231394 J0.32512065024130044
G3 X120.03302006604014 Y52.18694437388875 I-0.8509017018034036 J0
G3 X119.85013970027939 Y52.46380492760985 I-0.7848615697231394 J-0.32512065024130044
G3 X119.57327914655829 Y52.64668529337059 I-0.601981203962408 J-0.601981203962408
G3 X119.24815849631699 Y52.71272542545085 I-0.32512065024130044 J-0.7848615697231394
G3 X118.9230378460757 Y52.64668529337059 I0 J-0.8509017018034036
G3 X118.6461772923546 Y52.46380492760985 I0.32512065024130044 J-0.7848615697231394
G3 X118.46329692659384 Y52.18694437388875 I0.601981203962408 J-0.601981203962408
G3 X118.3972567945136 Y51.86182372364745 I0.7848615697231394 J-0.32512065024130044
G3 X118.46329692659384 Y51.536703073406144 I0.8509017018034036 J0
G3 X118.6461772923546 Y51.25984251968504 I0.7848615697231394 J0.32512065024130044
G3 X118.9230378460757 Y51.076962153924306 I0.601981203962408 J0.601981203962408
G3 X119.24815849631699 Y51.010922021844046 I0.32512065024130044 J0.7848615697231394
G1 Z-0.7498094996189992 F500
G3 X119.57327914655829 Y51.076962153924306 I0 J0.8509017018034036 F500
G3 X119.85013970027939 Y51.25984251968504 I-0.32512065024130044 J0.7848615697231394
G3 X120.03302006604014 Y51.536703073406144 I-0.601981203962408 J0.601981203962408
G3 X120.09906019812038 Y51.86182372364745 I-0.7848615697231394 J0.32512065024130044
G3 X120.03302006604014 Y52.18694437388875 I-0.8509017018034036 J0
G3 X119.85013970027939 Y52.46380492760985 I-0.7848615697231394 J-0.32512065024130044
G3 X119.57327914655829 Y52.64668529337059 I-0.601981203962408 J-0.601981203962408
G3 X119.24815849631699 Y52.71272542545085 I-0.32512065024130044 J-0.7848615697231394
G3 X118.9230378460757 Y52.64668529337059 I0 J-0.8509017018034036
G3 X118.6461772923546 Y52.46380492760985 I0.32512065024130044 J-0.7848615697231394
G3 X118.46329692659384 Y52.18694437388875 I0.601981203962408 J-0.601981203962408
G3 X118.3972567945136 Y51.86182372364745 I0.7848615697231394 J-0.32512065024130044
G3 X118.46329692659384 Y51.536703073406144 I0.8509017018034036 J0
G3 X118.6461772923546 Y51.25984251968504 I0.7848615697231394 J0.32512065024130044
G3 X118.9230378460757 Y51.076962153924306 I0.601981203962408 J0.601981203962408
G3 X119.24815849631699 Y51.010922021844046 I0.32512065024130044 J0.7848615697231394
G1 Z-0.9997459994919989 F500
G3 X119.57327914655829 Y51.076962153924306 I0 J0.8509017018034036 F500
G3 X119.85013970027939 Y51.25984251968504 I-0.32512065024130044 J0.7848615697231394
G3 X120.03302006604014 Y51.536703073406144 I-0.601981203962408 J0.601981203962408
G3 X120.09906019812038 Y51.86182372364745 I-0.7848615697231394 J0.32512065024130044
G3 X120.03302006604014 Y52.18694437388875 I-0.8509017018034036 J0
G3 X119.85013970027939 Y52.46380492760985 I-0.7848615697231394 J-0.32512065024130044
G3 X119.57327914655829 Y52.64668529337059 I-0.601981203962408 J-0.601981203962408
G3 X119.24815849631699 Y52.71272542545085 I-0.32512065024130044 J-0.7848615697231394
G3 X118.9230378460757 Y52.64668529337059 I0 J-0.8509017018034036
G3 X118.6461772923546 Y52.46380492760985 I0.32512065024130044 J-0.7848615697231394
G3 X118.46329692659384 Y52.18694437388875 I0.601981203962408 J-0.601981203962408
G3 X118.3972567945136 Y51.86182372364745 I0.7848615697231394 J-0.32512065024130044
G3 X118.46329692659384 Y51.536703073406144 I0.8509017018034036 J0
G3 X118.6461772923546 Y51.25984251968504 I0.7848615697231394 J0.32512065024130044
G3 X118.9230378460757 Y51.076962153924306 I0.601981203962408 J0.601981203962408
G3 X119.24815849631699 Y51.010922021844046 I0.32512065024130044 J0.7848615697231394
G1 Z-1.2496824993649986 F500
G3 X119.57327914655829 Y51.076962153924306 I0 J0.8509017018034036 F500
G3 X119.85013970027939 Y51.25984251968504 I-0.32512065024130044 J0.7848615697231394
G3 X120.03302006604014 Y51.536703073406144 I-0.601981203962408 J0.601981203962408
G3 X120.09906019812038 Y51.86182372364745 I-0.7848615697231394 J0.32512065024130044
G3 X120.03302006604014 Y52.18694437388875 I-0.8509017018034036 J0
G3 X119.85013970027939 Y52.46380492760985 I-0.7848615697231394 J-0.32512065024130044
G3 X119.57327914655829 Y52.64668529337059 I-0.601981203962408 J-0.601981203962408
G3 X119.24815849631699 Y52.71272542545085 I-0.32512065024130044 J-0.7848615697231394
G3 X118.9230378460757 Y52.64668529337059 I0 J-0.8509017018034036
G3 X118.6461772923546 Y52.46380492760985 I0.32512065024130044 J-0.7848615697231394
G3 X118.46329692659384 Y52.18694437388875 I0.601981203962408 J-0.601981203962408
G3 X118.3972567945136 Y51.86182372364745 I0.7848615697231394 J-0.32512065024130044
G3 X118.46329692659384 Y51.536703073406144 I0.8509017018034036 J0
G3 X118.6461772923546 Y51.25984251968504 I0.7848615697231394 J0.32512065024130044
G3 X118.9230378460757 Y51.076962153924306 I0.601981203962408 J0.601981203962408
G3 X119.24815849631699 Y51.010922021844046 I0.32512065024130044 J0.7848615697231394
G1 Z-1.4996189992379985 F500
G3 X119.57327914655829 Y51.076962153924306 I0 J0.8509017018034036 F500
G3 X119.85013970027939 Y51.25984251968504 I-0.32512065024130044 J0.7848615697231394
G3 X120.03302006604014 Y51.536703073406144 I-0.601981203962408 J0.601981203962408
G3 X120.09906019812038 Y51.86182372364745 I-0.7848615697231394 J0.32512065024130044
G3 X120.03302006604014 Y52.18694437388875 I-0.8509017018034036 J0
G3 X119.85013970027939 Y52.46380492760985 I-0.7848615697231394 J-0.32512065024130044
G3 X119.57327914655829 Y52.64668529337059 I-0.601981203962408 J-0.601981203962408
G3 X119.24815849631699 Y52.71272542545085 I-0.32512065024130044 J-0.7848615697231394
G3 X118.9230378460757 Y52.64668529337059 I0 J-0.8509017018034036
G3 X118.6461772923546 Y52.46380492760985 I0.32512065024130044 J-0.7848615697231394
G3 X118.46329692659384 Y52.18694437388875 I0.601981203962408 J-0.601981203962408
G3 X118.3972567945136 Y51.86182372364745 I0.7848615697231394 J-0.32512065024130044
G3 X118.46329692659384 Y51.536703073406144 I0.8509017018034036 J0
G3 X118.6461772923546 Y51.25984251968504 I0.7848615697231394 J0.32512065024130044
G3 X118.9230378460757 Y51.076962153924306 I0.601981203962408 J0.601981203962408
G3 X119.24815849631699 Y51.010922021844046 I0.32512065024130044 J0.7848615697231394
G1 Z-1.7495554991109983 F500
G3 X119.57327914655829 Y51.076962153924306 I0 J0.8509017018034036 F500
G3 X119.85013970027939 Y51.25984251968504 I-0.32512065024130044 J0.7848615697231394
G3 X120.03302006604014 Y51.536703073406144 I-0.601981203962408 J0.601981203962408
G3 X120.09906019812038 Y51.86182372364745 I-0.7848615697231394 J0.32512065024130044
G3 X120.03302006604014 Y52.18694437388875 I-0.8509017018034036 J0
G3 X119.85013970027939 Y52.46380492760985 I-0.7848615697231394 J-0.32512065024130044
G3 X119.57327914655829 Y52.64668529337059 I-0.601981203962408 J-0.601981203962408
G3 X119.24815849631699 Y52.71272542545085 I-0.32512065024130044 J-0.7848615697231394
G3 X118.9230378460757 Y52.64668529337059 I0 J-0.8509017018034036
G3 X118.6461772923546 Y52.46380492760985 I0.32512065024130044 J-0.7848615697231394
G3 X118.46329692659384 Y52.18694437388875 I0.601981203962408 J-0.601981203962408
G3 X118.3972567945136 Y51.86182372364745 I0.7848615697231394 J-0.32512065024130044
G3 X118.46329692659384 Y51.536703073406144 I0.8509017018034036 J0
G3 X118.6461772923546 Y51.25984251968504 I0.7848615697231394 J0.32512065024130044
G3 X118.9230378460757 Y51.076962153924306 I0.601981203962408 J0.601981203962408
G3 X119.24815849631699 Y51.010922021844046 I0.32512065024130044 J0.7848615697231394
G1 Z-1.9994919989839979 F500
G3 X119.57327914655829 Y51.076962153924306 I0 J0.8509017018034036 F500
G3 X119.85013970027939 Y51.25984251968504 I-0.32512065024130044 J0.7848615697231394
G3 X120.03302006604014 Y51.536703073406144 I-0.601981203962408 J0.601981203962408
G3 X120.09906019812038 Y51.86182372364745 I-0.7848615697231394 J0.32512065024130044
G3 X120.03302006604014 Y52.18694437388875 I-0.8509017018034036 J0
G3 X119.85013970027939 Y52.46380492760985 I-0.7848615697231394 J-0.32512065024130044
G3 X119.57327914655829 Y52.64668529337059 I-0.601981203962408 J-0.601981203962408
G3 X119.24815849631699 Y52.71272542545085 I-0.32512065024130044 J-0.7848615697231394
G3 X118.9230378460757 Y52.64668529337059 I0 J-0.8509017018034036
G3 X118.6461772923546 Y52.46380492760985 I0.32512065024130044 J-0.7848615697231394
G3 X118.46329692659384 Y52.18694437388875 I0.601981203962408 J-0.601981203962408
G3 X118.3972567945136 Y51.86182372364745 I0.7848615697231394 J-0.32512065024130044
G3 X118.46329692659384 Y51.536703073406144 I0.8509017018034036 J0
G3 X118.6461772923546 Y51.25984251968504 I0.7848615697231394 J0.32512065024130044
G3 X118.9230378460757 Y51.076962153924306 I0.601981203962408 J0.601981203962408
G3 X119.24815849631699 Y51.010922021844046 I0.32512065024130044 J0.7848615697231394
G1 Z-2.249428498856998 F500
G3 X119.57327914655829 Y51.076962153924306 I0 J0.8509017018034036 F500
G3 X119.85013970027939 Y51.25984251968504 I-0.32512065024130044 J0.7848615697231394
G3 X120.03302006604014 Y51.536703073406144 I-0.601981203962408 J0.601981203962408
G3 X120.09906019812038 Y51.86182372364745 I-0.7848615697231394 J0.32512065024130044
G3 X120.03302006604014 Y52.18694437388875 I-0.8509017018034036 J0
G3 X119.85013970027939 Y52.46380492760985 I-0.7848615697231394 J-0.32512065024130044
G3 X119.57327914655829 Y52.64668529337059 I-0.601981203962408 J-0.601981203962408
G3 X119.24815849631699 Y52.71272542545085 I-0.32512065024130044 J-0.7848615697231394
G3 X118.9230378460757 Y52.64668529337059 I0 J-0.8509017018034036
G3 X118.6461772923546 Y52.46380492760985 I0.32512065024130044 J-0.7848615697231394
G3 X118.46329692659384 Y52.18694437388875 I0.601981203962408 J-0.601981203962408
G3 X118.3972567945136 Y51.86182372364745 I0.7848615697231394 J-0.32512065024130044
G3 X118.46329692659384 Y51.536703073406144 I0.8509017018034036 J0
G3 X118.6461772923546 Y51.25984251968504 I0.7848615697231394 J0.32512065024130044
G3 X118.9230378460757 Y51.076962153924306 I0.601981203962408 J0.601981203962408
G3 X119.24815849631699 Y51.010922021844046 I0.32512065024130044 J0.7848615697231394
G1 Z-2.4993649987299973 F500
G3 X119.57327914655829 Y51.076962153924306 I0 J0.8509017018034036 F500
G3 X119.85013970027939 Y51.25984251968504 I-0.32512065024130044 J0.7848615697231394
G3 X120.03302006604014 Y51.536703073406144 I-0.601981203962408 J0.601981203962408
G3 X120.09906019812038 Y51.86182372364745 I-0.7848615697231394 J0.32512065024130044
G3 X120.03302006604014 Y52.18694437388875 I-0.8509017018034036 J0
G3 X119.85013970027939 Y52.46380492760985 I-0.7848615697231394 J-0.32512065024130044
G3 X119.57327914655829 Y52.64668529337059 I-0.601981203962408 J-0.601981203962408
G3 X119.24815849631699 Y52.71272542545085 I-0.32512065024130044 J-0.7848615697231394
G3 X118.9230378460757 Y52.64668529337059 I0 J-0.8509017018034036
G3 X118.6461772923546 Y52.46380492760985 I0.32512065024130044 J-0.7848615697231394
G3 X118.46329692659384 Y52.18694437388875 I0.601981203962408 J-0.601981203962408
G3 X118.3972567945136 Y51.86182372364745 I0.7848615697231394 J-0.32512065024130044
G3 X118.46329692659384 Y51.536703073406144 I0.8509017018034036 J0
G3 X118.6461772923546 Y51.25984251968504 I0.7848615697231394 J0.32512065024130044
G3 X118.9230378460757 Y51.076962153924306 I0.601981203962408 J0.601981203962408
G3 X119.24815849631699 Y51.010922021844046 I0.32512065024130044 J0.7848615697231394
G1 Z-2.749301498602997 F500
G3 X119.57327914655829 Y51.076962153924306 I0 J0.8509017018034036 F500
G3 X119.85013970027939 Y51.25984251968504 I-0.32512065024130044 J0.7848615697231394
G3 X120.03302006604014 Y51.536703073406144 I-0.601981203962408 J0.601981203962408
G3 X120.09906019812038 Y51.86182372364745 I-0.7848615697231394 J0.32512065024130044
G3 X120.03302006604014 Y52.18694437388875 I-0.8509017018034036 J0
G3 X119.85013970027939 Y52.46380492760985 I-0.7848615697231394 J-0.32512065024130044
G3 X119.57327914655829 Y52.64668529337059 I-0.601981203962408 J-0.601981203962408
G3 X119.24815849631699 Y52.71272542545085 I-0.32512065024130044 J-0.7848615697231394
G3 X118.9230378460757 Y52.64668529337059 I0 J-0.8509017018034036
G3 X118.6461772923546 Y52.46380492760985 I0.32512065024130044 J-0.7848615697231394
G3 X118.46329692659384 Y52.18694437388875 I0.601981203962408 J-0.601981203962408
G3 X118.3972567945136 Y51.86182372364745 I0.7848615697231394 J-0.32512065024130044
G3 X118.46329692659384 Y51.536703073406144 I0.8509017018034036 J0
G3 X118.6461772923546 Y51.25984251968504 I0.7848615697231394 J0.32512065024130044
G3 X118.9230378460757 Y51.076962153924306 I0.601981203962408 J0.601981203962408
G3 X119.24815849631699 Y51.010922021844046 I0.32512065024130044 J0.7848615697231394
G1 Z-2.999237998475997 F500
G3 X119.57327914655829 Y51.076962153924306 I0 J0.8509017018034036 F500
G3 X119.85013970027939 Y51.25984251968504 I-0.32512065024130044 J0.7848615697231394
G3 X120.03302006604014 Y51.536703073406144 I-0.601981203962408 J0.601981203962408
G3 X120.09906019812038 Y51.86182372364745 I-0.7848615697231394 J0.32512065024130044
G3 X120.03302006604014 Y52.18694437388875 I-0.8509017018034036 J0
G3 X119.85013970027939 Y52.46380492760985 I-0.7848615697231394 J-0.32512065024130044
G3 X119.57327914655829 Y52.64668529337059 I-0.601981203962408 J-0.601981203962408
G3 X119.24815849631699 Y52.71272542545085 I-0.32512065024130044 J-0.7848615697231394
G3 X118.9230378460757 Y52.64668529337059 I0 J-0.8509017018034036
G3 X118.6461772923546 Y52.46380492760985 I0.32512065024130044 J-0.7848615697231394
G3 X118.46329692659384 Y52.18694437388875 I0.601981203962408 J-0.601981203962408
G3 X118.3972567945136 Y51.86182372364745 I0.7848615697231394 J-0.32512065024130044
G3 X118.46329692659384 Y51.536703073406144 I0.8509017018034036 J0
G3 X118.6461772923546 Y51.25984251968504 I0.7848615697231394 J0.32512065024130044
G3 X118.9230378460757 Y51.076962153924306 I0.601981203962408 J0.601981203962408
G3 X119.24815849631699 Y51.010922021844046 I0.32512065024130044 J0.7848615697231394
G1 Z-3 F500
G3 X119.57327914655829 Y51.076962153924306 I0 J0.8509017018034036 F500
G3 X119.85013970027939 Y51.25984251968504 I-0.32512065024130044 J0.7848615697231394
G3 X120.03302006604014 Y51.536703073406144 I-0.601981203962408 J0.601981203962408
G3 X120.09906019812038 Y51.86182372364745 I-0.7848615697231394 J0.32512065024130044
G3 X120.03302006604014 Y52.18694437388875 I-0.8509017018034036 J0
G3 X119.85013970027939 Y52.46380492760985 I-0.7848615697231394 J-0.32512065024130044
G3 X119.57327914655829 Y52.64668529337059 I-0.601981203962408 J-0.601981203962408
G3 X119.24815849631699 Y52.71272542545085 I-0.32512065024130044 J-0.7848615697231394
G3 X118.9230378460757 Y52.64668529337059 I0 J-0.8509017018034036
G3 X118.6461772923546 Y52.46380492760985 I0.32512065024130044 J-0.7848615697231394
G3 X118.46329692659384 Y52.18694437388875 I0.601981203962408 J-0.601981203962408
G3 X118.3972567945136 Y51.86182372364745 I0.7848615697231394 J-0.32512065024130044
G3 X118.46329692659384 Y51.536703073406144 I0.8509017018034036 J0
G3 X118.6461772923546 Y51.25984251968504 I0.7848615697231394 J0.32512065024130044
G3 X118.9230378460757 Y51.076962153924306 I0.601981203962408 J0.601981203962408
G3 X119.24815849631699 Y51.010922021844046 I0.32512065024130044 J0.7848615697231394
G0 Z3
G0 X3.0434340868681735 Y2.1165862331724665
G1 Z-0.24993649987299973 F500
G3 X3.3680467360934725 Y2.1818643637287276 I0 J0.8509017018034036 F500
G3 X3.6449072898145793 Y2.364744729489459 I-0.32512065024130044 J0.7848615697231394
G3 X3.827787655575311 Y2.6416052832105663 I-0.601981203962408 J0.601981203962408
G3 X3.8938277876555754 Y2.966725933451867 I-0.7848615697231394 J0.32512065024130044
G3 X3.827787655575311 Y3.2918465836931676 I-0.8509017018034036 J0
G3 X3.6449072898145793 Y3.5661671323342645 I-0.7848615697231394 J-0.32512065024130044
G3 X3.3680467360934725 Y3.7515875031750063 I-0.601981203962408 J-0.601981203962408
G3 X3.0429260858521716 Y3.81508763017526 I-0.32512065024130044 J-0.7848615697231394
G3 X2.717805435610871 Y3.7515875031750063 I0 J-0.8509017018034036
G3 X2.443484886969774 Y3.5661671323342645 I0.32512065024130044 J-0.7848615697231394
G3 X2.258064516129032 Y3.2918465836931676 I0.601981203962408 J-0.601981203962408
G3 X2.1945643891287783 Y2.966725933451867 I0.7848615697231394 J-0.32512065024130044
G3 X2.258064516129032 Y2.6416052832105663 I0.8509017018034036 J0
G3 X2.443484886969774 Y2.364744729489459 I0.7848615697231394 J0.32512065024130044
G3 X2.717805435610871 Y2.1818643637287276 I0.601981203962408 J0.601981203962408
G3 X3.0429260858521716 Y2.115824231648463 I0.32512065024130044 J0.7848615697231394
G1 Z-0.49987299974599947 F500
G3 X3.3680467360934725 Y2.1818643637287276 I0 J0.8509017018034036 F500
G3 X3.6449072898145793 Y2.364744729489459 I-0.32512065024130044 J0.7848615697231394
G3 X3.827787655575311 Y2.6416052832105663 I-0.601981203962408 J0.601981203962408
G3 X3.8938277876555754 Y2.966725933451867 I-0.7848615697231394 J0.32512065024130044
G3 X3.827787655575311 Y3.2918465836931676 I-0.8509017018034036 J0
G3 X3.6449072898145793 Y3.5661671323342645 I-0.7848615697231394 J-0.32512065024130044
G3 X3.3680467360934725 Y3.7515875031750063 I-0.601981203962408 J-0.601981203962408
G3 X3.0429260858521716 Y3.81508763017526 I-0.32512065024130044 J-0.7848615697231394
G3 X2.717805435610871 Y3.7515875031750063 I0 J-0.8509017018034036
G3 X2.443484886969774 Y3.5661671323342645 I0.32512065024130044 J-0.7848615697231394
G3 X2.258064516129032 Y3.2918465836931676 I0.601981203962408 J-0.601981203962408
G3 X2.1945643891287783 Y2.966725933451867 I0.7848615697231394 J-0.32512065024130044
G3 X2.258064516129032 Y2.6416052832105663 I0.8509017018034036 J0
G3 X2.443484886969774 Y2.364744729489459 I0.7848615697231394 J0.32512065024130044
G3 X2.717805435610871 Y2.1818643637287276 I0.601981203962408 J0.601981203962408
G3 X3.0429260858521716 Y2.115824231648463 I0.32512065024130044 J0.7848615697231394
G1 Z-0.7498094996189992 F500
G3 X3.3680467360934725 Y2.1818643637287276 I0 J0.8509017018034036 F500
G3 X3.6449072898145793 Y2.364744729489459 I-0.32512065024130044 J0.7848615697231394
G3 X3.827787655575311 Y2.6416052832105663 I-0.601981203962408 J0.601981203962408
G3 X3.8938277876555754 Y2.966725933451867 I-0.7848615697231394 J0.32512065024130044
G3 X3.827787655575311 Y3.2918465836931676 I-0.8509017018034036 J0
G3 X3.6449072898145793 Y3.5661671323342645 I-0.7848615697231394 J-0.32512065024130044
G3 X3.3680467360934725 Y3.7515875031750063 I-0.601981203962408 J-0.601981203962408
G3 X3.0429260858521716 Y3.81508763017526 I-0.32512065024130044 J-0.7848615697231394
G3 X2.717805435610871 Y3.7515875031750063 I0 J-0.8509017018034036
G3 X2.443484886969774 Y3.5661671323342645 I0.32512065024130044 J-0.7848615697231394
G3 X2.258064516129032 Y3.2918465836931676 I0.601981203962408 J-0.601981203962408
G3 X2.1945643891287783 Y2.966725933451867 I0.7848615697231394 J-0.32512065024130044
G3 X2.258064516129032 Y2.6416052832105663 I0.8509017018034036 J0
G3 X2.443484886969774 Y2.364744729489459 I0.7848615697231394 J0.32512065024130044
G3 X2.717805435610871 Y2.1818643637287276 I0.601981203962408 J0.601981203962408
G3 X3.0429260858521716 Y2.115824231648463 I0.32512065024130044 J0.7848615697231394
G1 Z-0.9997459994919989 F500
G3 X3.3680467360934725 Y2.1818643637287276 I0 J0.8509017018034036 F500
G3 X3.6449072898145793 Y2.364744729489459 I-0.32512065024130044 J0.7848615697231394
G3 X3.827787655575311 Y2.6416052832105663 I-0.601981203962408 J0.601981203962408
G3 X3.8938277876555754 Y2.966725933451867 I-0.7848615697231394 J0.32512065024130044
G3 X3.827787655575311 Y3.2918465836931676 I-0.8509017018034036 J0
G3 X3.6449072898145793 Y3.5661671323342645 I-0.7848615697231394 J-0.32512065024130044
G3 X3.3680467360934725 Y3.7515875031750063 I-0.601981203962408 J-0.601981203962408
G3 X3.0429260858521716 Y3.81508763017526 I-0.32512065024130044 J-0.7848615697231394
G3 X2.717805435610871 Y3.7515875031750063 I0 J-0.8509017018034036
G3 X2.443484886969774 Y3.5661671323342645 I0.32512065024130044 J-0.7848615697231394
G3 X2.258064516129032 Y3.2918465836931676 I0.601981203962408 J-0.601981203962408
G3 X2.1945643891287783 Y2.966725933451867 I0.7848615697231394 J-0.32512065024130044
G3 X2.258064516129032 Y2.6416052832105663 I0.8509017018034036 J0
G3 X2.443484886969774 Y2.364744729489459 I0.7848615697231394 J0.32512065024130044
G3 X2.717805435610871 Y2.1818643637287276 I0.601981203962408 J0.601981203962408
G3 X3.0429260858521716 Y2.115824231648463 I0.32512065024130044 J0.7848615697231394
G1 Z-1.2496824993649986 F500
G3 X3.3680467360934725 Y2.1818643637287276 I0 J0.8509017018034036 F500
G3 X3.6449072898145793 Y2.364744729489459 I-0.32512065024130044 J0.7848615697231394
G3 X3.827787655575311 Y2.6416052832105663 I-0.601981203962408 J0.601981203962408
G3 X3.8938277876555754 Y2.966725933451867 I-0.7848615697231394 J0.32512065024130044
G3 X3.827787655575311 Y3.2918465836931676 I-0.8509017018034036 J0
G3 X3.6449072898145793 Y3.5661671323342645 I-0.7848615697231394 J-0.32512065024130044
G3 X3.3680467360934725 Y3.7515875031750063 I-0.601981203962408 J-0.601981203962408
G3 X3.0429260858521716 Y3.81508763017526 I-0.32512065024130044 J-0.7848615697231394
G3 X2.717805435610871 Y3.7515875031750063 I0 J-0.8509017018034036
G3 X2.443484886969774 Y3.5661671323342645 I0.32512065024130044 J-0.7848615697231394
G3 X2.258064516129032 Y3.2918465836931676 I0.601981203962408 J-0.601981203962408
G3 X2.1945643891287783 Y2.966725933451867 I0.7848615697231394 J-0.32512065024130044
G3 X2.258064516129032 Y2.6416052832105663 I0.8509017018034036 J0
G3 X2.443484886969774 Y2.364744729489459 I0.7848615697231394 J0.32512065024130044
G3 X2.717805435610871 Y2.1818643637287276 I0.601981203962408 J0.601981203962408
G3 X3.0429260858521716 Y2.115824231648463 I0.32512065024130044 J0.7848615697231394
G1 Z-1.4996189992379985 F500
G3 X3.3680467360934725 Y2.1818643637287276 I0 J0.8509017018034036 F500
G3 X3.6449072898145793 Y2.364744729489459 I-0.32512065024130044 J0.7848615697231394
G3 X3.827787655575311 Y2.6416052832105663 I-0.601981203962408 J0.601981203962408
G3 X3.8938277876555754 Y2.966725933451867 I-0.7848615697231394 J0.32512065024130044
G3 X3.827787655575311 Y3.2918465836931676 I-0.8509017018034036 J0
G3 X3.6449072898145793 Y3.5661671323342645 I-0.7848615697231394 J-0.32512065024130044
G3 X3.3680467360934725 Y3.7515875031750063 I-0.601981203962408 J-0.601981203962408
G3 X3.0429260858521716 Y3.81508763017526 I-0.32512065024130044 J-0.7848615697231394
G3 X2.717805435610871 Y3.7515875031750063 I0 J-0.8509017018034036
G3 X2.443484886969774 Y3.5661671323342645 I0.32512065024130044 J-0.7848615697231394
G3 X2.258064516129032 Y3.2918465836931676 I0.601981203962408 J-0.601981203962408
G3 X2.1945643891287783 Y2.966725933451867 I0.7848615697231394 J-0.32512065024130044
G3 X2.258064516129032 Y2.6416052832105663 I0.8509017018034036 J0
G3 X2.443484886969774 Y2.364744729489459 I0.7848615697231394 J0.32512065024130044
G3 X2.717805435610871 Y2.1818643637287276 I0.601981203962408 J0.601981203962408
G3 X3.0429260858521716 Y2.115824231648463 I0.32512065024130044 J0.7848615697231394
G1 Z-1.7495554991109983 F500
G3 X3.3680467360934725 Y2.1818643637287276 I0 J0.8509017018034036 F500
G3 X3.6449072898145793 Y2.364744729489459 I-0.32512065024130044 J0.7848615697231394
G3 X3.827787655575311 Y2.6416052832105663 I-0.601981203962408 J0.601981203962408
G3 X3.8938277876555754 Y2.966725933451867 I-0.7848615697231394 J0.32512065024130044
G3 X3.827787655575311 Y3.2918465836931676 I-0.8509017018034036 J0
G3 X3.6449072898145793 Y3.5661671323342645 I-0.7848615697231394 J-0.32512065024130044
G3 X3.3680467360934725 Y3.7515875031750063 I-0.601981203962408 J-0.601981203962408
G3 X3.0429260858521716 Y3.81508763017526 I-0.32512065024130044 J-0.7848615697231394
G3 X2.717805435610871 Y3.7515875031750063 I0 J-0.8509017018034036
G3 X2.443484886969774 Y3.5661671323342645 I0.32512065024130044 J-0.7848615697231394
G3 X2.258064516129032 Y3.2918465836931676 I0.601981203962408 J-0.601981203962408
G3 X2.1945643891287783 Y2.966725933451867 I0.7848615697231394 J-0.32512065024130044
G3 X2.258064516129032 Y2.6416052832105663 I0.8509017018034036 J0
G3 X2.443484886969774 Y2.364744729489459 I0.7848615697231394 J0.32512065024130044
G3 X2.717805435610871 Y2.1818643637287276 I0.601981203962408 J0.601981203962408
G3 X3.0429260858521716 Y2.115824231648463 I0.32512065024130044 J0.7848615697231394
G1 Z-1.9994919989839979 F500
G3 X3.3680467360934725 Y2.1818643637287276 I0 J0.8509017018034036 F500
G3 X3.6449072898145793 Y2.364744729489459 I-0.32512065024130044 J0.7848615697231394
G3 X3.827787655575311 Y2.6416052832105663 I-0.601981203962408 J0.601981203962408
G3 X3.8938277876555754 Y2.966725933451867 I-0.7848615697231394 J0.32512065024130044
G3 X3.827787655575311 Y3.2918465836931676 I-0.8509017018034036 J0
G3 X3.6449072898145793 Y3.5661671323342645 I-0.7848615697231394 J-0.32512065024130044
G3 X3.3680467360934725 Y3.7515875031750063 I-0.601981203962408 J-0.601981203962408
G3 X3.0429260858521716 Y3.81508763017526 I-0.32512065024130044 J-0.7848615697231394
G3 X2.717805435610871 Y3.7515875031750063 I0 J-0.8509017018034036
G3 X2.443484886969774 Y3.5661671323342645 I0.32512065024130044 J-0.7848615697231394
G3 X2.258064516129032 Y3.2918465836931676 I0.601981203962408 J-0.601981203962408
G3 X2.1945643891287783 Y2.966725933451867 I0.7848615697231394 J-0.32512065024130044
G3 X2.258064516129032 Y2.6416052832105663 I0.8509017018034036 J0
G3 X2.443484886969774 Y2.364744729489459 I0.7848615697231394 J0.32512065024130044
G3 X2.717805435610871 Y2.1818643637287276 I0.601981203962408 J0.601981203962408
G3 X3.0429260858521716 Y2.115824231648463 I0.32512065024130044 J0.7848615697231394
G1 Z-2.249428498856998 F500
G3 X3.3680467360934725 Y2.1818643637287276 I0 J0.8509017018034036 F500
G3 X3.6449072898145793 Y2.364744729489459 I-0.32512065024130044 J0.7848615697231394
G3 X3.827787655575311 Y2.6416052832105663 I-0.601981203962408 J0.601981203962408
G3 X3.8938277876555754 Y2.966725933451867 I-0.7848615697231394 J0.32512065024130044
G3 X3.827787655575311 Y3.2918465836931676 I-0.8509017018034036 J0
G3 X3.6449072898145793 Y3.5661671323342645 I-0.7848615697231394 J-0.32512065024130044
G3 X3.3680467360934725 Y3.7515875031750063 I-0.601981203962408 J-0.601981203962408
G3 X3.0429260858521716 Y3.81508763017526 I-0.32512065024130044 J-0.7848615697231394
G3 X2.717805435610871 Y3.7515875031750063 I0 J-0.8509017018034036
G3 X2.443484886969774 Y3.5661671323342645 I0.32512065024130044 J-0.7848615697231394
G3 X2.258064516129032 Y3.2918465836931676 I0.601981203962408 J-0.601981203962408
G3 X2.1945643891287783 Y2.966725933451867 I0.7848615697231394 J-0.32512065024130044
G3 X2.258064516129032 Y2.6416052832105663 I0.8509017018034036 J0
G3 X2.443484886969774 Y2.364744729489459 I0.7848615697231394 J0.32512065024130044
G3 X2.717805435610871 Y2.1818643637287276 I0.601981203962408 J0.601981203962408
G3 X3.0429260858521716 Y2.115824231648463 I0.32512065024130044 J0.7848615697231394
G1 Z-2.4993649987299973 F500
G3 X3.3680467360934725 Y2.1818643637287276 I0 J0.8509017018034036 F500
G3 X3.6449072898145793 Y2.364744729489459 I-0.32512065024130044 J0.7848615697231394
G3 X3.827787655575311 Y2.6416052832105663 I-0.601981203962408 J0.601981203962408
G3 X3.8938277876555754 Y2.966725933451867 I-0.7848615697231394 J0.32512065024130044
G3 X3.827787655575311 Y3.2918465836931676 I-0.8509017018034036 J0
G3 X3.6449072898145793 Y3.5661671323342645 I-0.7848615697231394 J-0.32512065024130044
G3 X3.3680467360934725 Y3.7515875031750063 I-0.601981203962408 J-0.601981203962408
G3 X3.0429260858521716 Y3.81508763017526 I-0.32512065024130044 J-0.7848615697231394
G3 X2.717805435610871 Y3.7515875031750063 I0 J-0.8509017018034036
G3 X2.443484886969774 Y3.5661671323342645 I0.32512065024130044 J-0.7848615697231394
G3 X2.258064516129032 Y3.2918465836931676 I0.601981203962408 J-0.601981203962408
G3 X2.1945643891287783 Y2.966725933451867 I0.7848615697231394 J-0.32512065024130044
G3 X2.258064516129032 Y2.6416052832105663 I0.8509017018034036 J0
G3 X2.443484886969774 Y2.364744729489459 I0.7848615697231394 J0.32512065024130044
G3 X2.717805435610871 Y2.1818643637287276 I0.601981203962408 J0.601981203962408
G3 X3.0429260858521716 Y2.115824231648463 I0.32512065024130044 J0.7848615697231394
G1 Z-2.749301498602997 F500
G3 X3.3680467360934725 Y2.1818643637287276 I0 J0.8509017018034036 F500
G3 X3.6449072898145793 Y2.364744729489459 I-0.32512065024130044 J0.7848615697231394
G3 X3.827787655575311 Y2.6416052832105663 I-0.601981203962408 J0.601981203962408
G3 X3.8938277876555754 Y2.966725933451867 I-0.7848615697231394 J0.32512065024130044
G3 X3.827787655575311 Y3.2918465836931676 I-0.8509017018034036 J0
G3 X3.6449072898145793 Y3.5661671323342645 I-0.7848615697231394 J-0.32512065024130044
G3 X3.3680467360934725 Y3.7515875031750063 I-0.601981203962408 J-0.601981203962408
G3 X3.0429260858521716 Y3.81508763017526 I-0.32512065024130044 J-0.7848615697231394
G3 X2.717805435610871 Y3.7515875031750063 I0 J-0.8509017018034036
G3 X2.443484886969774 Y3.5661671323342645 I0.32512065024130044 J-0.7848615697231394
G3 X2.258064516129032 Y3.2918465836931676 I0.601981203962408 J-0.601981203962408
G3 X2.1945643891287783 Y2.966725933451867 I0.7848615697231394 J-0.32512065024130044
G3 X2.258064516129032 Y2.6416052832105663 I0.8509017018034036 J0
G3 X2.443484886969774 Y2.364744729489459 I0.7848615697231394 J0.32512065024130044
G3 X2.717805435610871 Y2.1818643637287276 I0.601981203962408 J0.601981203962408
G3 X3.0429260858521716 Y2.115824231648463 I0.32512065024130044 J0.7848615697231394
G1 Z-2.999237998475997 F500
G3 X3.3680467360934725 Y2.1818643637287276 I0 J0.8509017018034036 F500
G3 X3.6449072898145793 Y2.364744729489459 I-0.32512065024130044 J0.7848615697231394
G3 X3.827787655575311 Y2.6416052832105663 I-0.601981203962408 J0.601981203962408
G3 X3.8938277876555754 Y2.966725933451867 I-0.7848615697231394 J0.32512065024130044
G3 X3.827787655575311 Y3.2918465836931676 I-0.8509017018034036 J0
G3 X3.6449072898145793 Y3.5661671323342645 I-0.7848615697231394 J-0.32512065024130044
G3 X3.3680467360934725 Y3.7515875031750063 I-0.601981203962408 J-0.601981203962408
G3 X3.0429260858521716 Y3.81508763017526 I-0.32512065024130044 J-0.7848615697231394
G3 X2.717805435610871 Y3.7515875031750063 I0 J-0.8509017018034036
G3 X2.443484886969774 Y3.5661671323342645 I0.32512065024130044 J-0.7848615697231394
G3 X2.258064516129032 Y3.2918465836931676 I0.601981203962408 J-0.601981203962408
G3 X2.1945643891287783 Y2.966725933451867 I0.7848615697231394 J-0.32512065024130044
G3 X2.258064516129032 Y2.6416052832105663 I0.8509017018034036 J0
G3 X2.443484886969774 Y2.364744729489459 I0.7848615697231394 J0.32512065024130044
G3 X2.717805435610871 Y2.1818643637287276 I0.601981203962408 J0.601981203962408
G3 X3.0429260858521716 Y2.115824231648463 I0.32512065024130044 J0.7848615697231394
G1 Z-3 F500
G3 X3.3680467360934725 Y2.1818643637287276 I0 J0.8509017018034036 F500
G3 X3.6449072898145793 Y2.364744729489459 I-0.32512065024130044 J0.7848615697231394
G3 X3.827787655575311 Y2.6416052832105663 I-0.601981203962408 J0.601981203962408
G3 X3.8938277876555754 Y2.966725933451867 I-0.7848615697231394 J0.32512065024130044
G3 X3.827787655575311 Y3.2918465836931676 I-0.8509017018034036 J0
G3 X3.6449072898145793 Y3.5661671323342645 I-0.7848615697231394 J-0.32512065024130044
G3 X3.3680467360934725 Y3.7515875031750063 I-0.601981203962408 J-0.601981203962408
G3 X3.0429260858521716 Y3.81508763017526 I-0.32512065024130044 J-0.7848615697231394
G3 X2.717805435610871 Y3.7515875031750063 I0 J-0.8509017018034036
G3 X2.443484886969774 Y3.5661671323342645 I0.32512065024130044 J-0.7848615697231394
G3 X2.258064516129032 Y3.2918465836931676 I0.601981203962408 J-0.601981203962408
G3 X2.1945643891287783 Y2.966725933451867 I0.7848615697231394 J-0.32512065024130044
G3 X2.258064516129032 Y2.6416052832105663 I0.8509017018034036 J0
G3 X2.443484886969774 Y2.364744729489459 I0.7848615697231394 J0.32512065024130044
G3 X2.717805435610871 Y2.1818643637287276 I0.601981203962408 J0.601981203962408
G3 X3.0429260858521716 Y2.115824231648463 I0.32512065024130044 J0.7848615697231394
G0 Z3
G0 X3.0434340868681735 Y51.01193802387605
G1 Z-0.24993649987299973 F500
G3 X3.3680467360934725 Y51.076962153924306 I0 J0.8509017018034036 F500
G3 X3.6449072898145793 Y51.25984251968504 I-0.32512065024130044 J0.7848615697231394
G3 X3.827787655575311 Y51.536703073406144 I-0.601981203962408 J0.601981203962408
G3 X3.8938277876555754 Y51.86182372364745 I-0.7848615697231394 J0.32512065024130044
G3 X3.827787655575311 Y52.18694437388875 I-0.8509017018034036 J0
G3 X3.6449072898145793 Y52.46380492760985 I-0.7848615697231394 J-0.32512065024130044
G3 X3.3680467360934725 Y52.64668529337059 I-0.601981203962408 J-0.601981203962408
G3 X3.0429260858521716 Y52.71272542545085 I-0.32512065024130044 J-0.7848615697231394
G3 X2.717805435610871 Y52.64668529337059 I0 J-0.8509017018034036
G3 X2.443484886969774 Y52.46380492760985 I0.32512065024130044 J-0.7848615697231394
G3 X2.258064516129032 Y52.18694437388875 I0.601981203962408 J-0.601981203962408
G3 X2.1945643891287783 Y51.86182372364745 I0.7848615697231394 J-0.32512065024130044
G3 X2.258064516129032 Y51.536703073406144 I0.8509017018034036 J0
G3 X2.443484886969774 Y51.25984251968504 I0.7848615697231394 J0.32512065024130044
G3 X2.717805435610871 Y51.076962153924306 I0.601981203962408 J0.601981203962408
G3 X3.0429260858521716 Y51.010922021844046 I0.32512065024130044 J0.7848615697231394
G1 Z-0.49987299974599947 F500
G3 X3.3680467360934725 Y51.076962153924306 I0 J0.8509017018034036 F500
G3 X3.6449072898145793 Y51.25984251968504 I-0.32512065024130044 J0.7848615697231394
G3 X3.827787655575311 Y51.536703073406144 I-0.601981203962408 J0.601981203962408
G3 X3.8938277876555754 Y51.86182372364745 I-0.7848615697231394 J0.32512065024130044
G3 X3.827787655575311 Y52.18694437388875 I-0.8509017018034036 J0
G3 X3.6449072898145793 Y52.46380492760985 I-0.7848615697231394 J-0.32512065024130044
G3 X3.3680467360934725 Y52.64668529337059 I-0.601981203962408 J-0.601981203962408
G3 X3.0429260858521716 Y52.71272542545085 I-0.32512065024130044 J-0.7848615697231394
G3 X2.717805435610871 Y52.64668529337059 I0 J-0.8509017018034036
G3 X2.443484886969774 Y52.46380492760985 I0.32512065024130044 J-0.7848615697231394
G3 X2.258064516129032 Y52.18694437388875 I0.601981203962408 J-0.601981203962408
G3 X2.1945643891287783 Y51.86182372364745 I0.7848615697231394 J-0.32512065024130044
G3 X2.258064516129032 Y51.536703073406144 I0.8509017018034036 J0
G3 X2.443484886969774 Y51.25984251968504 I0.7848615697231394 J0.32512065024130044
G3 X2.717805435610871 Y51.076962153924306 I0.601981203962408 J0.601981203962408
G3 X3.0429260858521716 Y51.010922021844046 I0.32512065024130044 J0.7848615697231394
G1 Z-0.7498094996189992 F500
G3 X3.3680467360934725 Y51.076962153924306 I0 J0.8509017018034036 F500
G3 X3.6449072898145793 Y51.25984251968504 I-0.32512065024130044 J0.7848615697231394
G3 X3.827787655575311 Y51.536703073406144 I-0.601981203962408 J0.601981203962408
G3 X3.8938277876555754 Y51.86182372364745 I-0.7848615697231394 J0.32512065024130044
G3 X3.827787655575311 Y52.18694437388875 I-0.8509017018034036 J0
G3 X3.6449072898145793 Y52.46380492760985 I-0.7848615697231394 J-0.32512065024130044
G3 X3.3680467360934725 Y52.64668529337059 I-0.601981203962408 J-0.601981203962408
G3 X3.0429260858521716 Y52.71272542545085 I-0.32512065024130044 J-0.7848615697231394
G3 X2.717805435610871 Y52.64668529337059 I0 J-0.8509017018034036
G3 X2.443484886969774 Y52.46380492760985 I0.32512065024130044 J-0.7848615697231394
G3 X2.258064516129032 Y52.18694437388875 I0.601981203962408 J-0.601981203962408
G3 X2.1945643891287783 Y51.86182372364745 I0.7848615697231394 J-0.32512065024130044
G3 X2.258064516129032 Y51.536703073406144 I0.8509017018034036 J0
G3 X2.443484886969774 Y51.25984251968504 I0.7848615697231394 J0.32512065024130044
G3 X2.717805435610871 Y51.076962153924306 I0.601981203962408 J0.601981203962408
G3 X3.0429260858521716 Y51.010922021844046 I0.32512065024130044 J0.7848615697231394
G1 Z-0.9997459994919989 F500
G3 X3.3680467360934725 Y51.076962153924306 I0 J0.8509017018034036 F500
G3 X3.6449072898145793 Y51.25984251968504 I-0.32512065024130044 J0.7848615697231394
G3 X3.827787655575311 Y51.536703073406144 I-0.601981203962408 J0.601981203962408
G3 X3.8938277876555754 Y51.86182372364745 I-0.7848615697231394 J0.32512065024130044
G3 X3.827787655575311 Y52.18694437388875 I-0.8509017018034036 J0
G3 X3.6449072898145793 Y52.46380492760985 I-0.7848615697231394 J-0.32512065024130044
G3 X3.3680467360934725 Y52.64668529337059 I-0.601981203962408 J-0.601981203962408
G3 X3.0429260858521716 Y52.71272542545085 I-0.32512065024130044 J-0.7848615697231394
G3 X2.717805435610871 Y52.64668529337059 I0 J-0.8509017018034036
G3 X2.443484886969774 Y52.46380492760985 I0.32512065024130044 J-0.7848615697231394
G3 X2.258064516129032 Y52.18694437388875 I0.601981203962408 J-0.601981203962408
G3 X2.1945643891287783 Y51.86182372364745 I0.7848615697231394 J-0.32512065024130044
G3 X2.258064516129032 Y51.536703073406144 I0.8509017018034036 J0
G3 X2.443484886969774 Y51.25984251968504 I0.7848615697231394 J0.32512065024130044
G3 X2.717805435610871 Y51.076962153924306 I0.601981203962408 J0.601981203962408
G3 X3.0429260858521716 Y51.010922021844046 I0.32512065024130044 J0.7848615697231394
G1 Z-1.2496824993649986 F500
G3 X3.3680467360934725 Y51.076962153924306 I0 J0.8509017018034036 F500
G3 X3.6449072898145793 Y51.25984251968504 I-0.32512065024130044 J0.7848615697231394
G3 X3.827787655575311 Y51.536703073406144 I-0.601981203962408 J0.601981203962408
G3 X3.8938277876555754 Y51.86182372364745 I-0.7848615697231394 J0.32512065024130044
G3 X3.827787655575311 Y52.18694437388875 I-0.8509017018034036 J0
G3 X3.6449072898145793 Y52.46380492760985 I-0.7848615697231394 J-0.32512065024130044
G3 X3.3680467360934725 Y52.64668529337059 I-0.601981203962408 J-0.601981203962408
G3 X3.0429260858521716 Y52.71272542545085 I-0.32512065024130044 J-0.7848615697231394
G3 X2.717805435610871 Y52.64668529337059 I0 J-0.8509017018034036
G3 X2.443484886969774 Y52.46380492760985 I0.32512065024130044 J-0.7848615697231394
G3 X2.258064516129032 Y52.18694437388875 I0.601981203962408 J-0.601981203962408
G3 X2.1945643891287783 Y51.86182372364745 I0.7848615697231394 J-0.32512065024130044
G3 X2.258064516129032 Y51.536703073406144 I0.8509017018034036 J0
G3 X2.443484886969774 Y51.25984251968504 I0.7848615697231394 J0.32512065024130044
G3 X2.717805435610871 Y51.076962153924306 I0.601981203962408 J0.601981203962408
G3 X3.0429260858521716 Y51.010922021844046 I0.32512065024130044 J0.7848615697231394
G1 Z-1.4996189992379985 F500
G3 X3.3680467360934725 Y51.076962153924306 I0 J0.8509017018034036 F500
G3 X3.6449072898145793 Y51.25984251968504 I-0.32512065024130044 J0.7848615697231394
G3 X3.827787655575311 Y51.536703073406144 I-0.601981203962408 J0.601981203962408
G3 X3.8938277876555754 Y51.86182372364745 I-0.7848615697231394 J0.32512065024130044
G3 X3.827787655575311 Y52.18694437388875 I-0.8509017018034036 J0
G3 X3.6449072898145793 Y52.46380492760985 I-0.7848615697231394 J-0.32512065024130044
G3 X3.3680467360934725 Y52.64668529337059 I-0.601981203962408 J-0.601981203962408
G3 X3.0429260858521716 Y52.71272542545085 I-0.32512065024130044 J-0.7848615697231394
G3 X2.717805435610871 Y52.64668529337059 I0 J-0.8509017018034036
G3 X2.443484886969774 Y52.46380492760985 I0.32512065024130044 J-0.7848615697231394
G3 X2.258064516129032 Y52.18694437388875 I0.601981203962408 J-0.601981203962408
G3 X2.1945643891287783 Y51.86182372364745 I0.7848615697231394 J-0.32512065024130044
G3 X2.258064516129032 Y51.536703073406144 I0.8509017018034036 J0
G3 X2.443484886969774 Y51.25984251968504 I0.7848615697231394 J0.32512065024130044
G3 X2.717805435610871 Y51.076962153924306 I0.601981203962408 J0.601981203962408
G3 X3.0429260858521716 Y51.010922021844046 I0.32512065024130044 J0.7848615697231394
G1 Z-1.7495554991109983 F500
G3 X3.3680467360934725 Y51.076962153924306 I0 J0.8509017018034036 F500
G3 X3.6449072898145793 Y51.25984251968504 I-0.32512065024130044 J0.7848615697231394
G3 X3.827787655575311 Y51.536703073406144 I-0.601981203962408 J0.601981203962408
G3 X3.8938277876555754 Y51.86182372364745 I-0.7848615697231394 J0.32512065024130044
G3 X3.827787655575311 Y52.18694437388875 I-0.8509017018034036 J0
G3 X3.6449072898145793 Y52.46380492760985 I-0.7848615697231394 J-0.32512065024130044
G3 X3.3680467360934725 Y52.64668529337059 I-0.601981203962408 J-0.601981203962408
G3 X3.0429260858521716 Y52.71272542545085 I-0.32512065024130044 J-0.7848615697231394
G3 X2.717805435610871 Y52.64668529337059 I0 J-0.8509017018034036
G3 X2.443484886969774 Y52.46380492760985 I0.32512065024130044 J-0.7848615697231394
G3 X2.258064516129032 Y52.18694437388875 I0.601981203962408 J-0.601981203962408
G3 X2.1945643891287783 Y51.86182372364745 I0.7848615697231394 J-0.32512065024130044
G3 X2.258064516129032 Y51.536703073406144 I0.8509017018034036 J0
G3 X2.443484886969774 Y51.25984251968504 I0.7848615697231394 J0.32512065024130044
G3 X2.717805435610871 Y51.076962153924306 I0.601981203962408 J0.601981203962408
G3 X3.0429260858521716 Y51.010922021844046 I0.32512065024130044 J0.7848615697231394
G1 Z-1.9994919989839979 F500
G3 X3.3680467360934725 Y51.076962153924306 I0 J0.8509017018034036 F500
G3 X3.6449072898145793 Y51.25984251968504 I-0.32512065024130044 J0.7848615697231394
G3 X3.827787655575311 Y51.536703073406144 I-0.601981203962408 J0.601981203962408
G3 X3.8938277876555754 Y51.86182372364745 I-0.7848615697231394 J0.32512065024130044
G3 X3.827787655575311 Y52.18694437388875 I-0.8509017018034036 J0
G3 X3.6449072898145793 Y52.46380492760985 I-0.7848615697231394 J-0.32512065024130044
G3 X3.3680467360934725 Y52.64668529337059 I-0.601981203962408 J-0.601981203962408
G3 X3.0429260858521716 Y52.71272542545085 I-0.32512065024130044 J-0.7848615697231394
G3 X2.717805435610871 Y52.64668529337059 I0 J-0.8509017018034036
G3 X2.443484886969774 Y52.46380492760985 I0.32512065024130044 J-0.7848615697231394
G3 X2.258064516129032 Y52.18694437388875 I0.601981203962408 J-0.601981203962408
G3 X2.1945643891287783 Y51.86182372364745 I0.7848615697231394 J-0.32512065024130044
G3 X2.258064516129032 Y51.536703073406144 I0.8509017018034036 J0
G3 X2.443484886969774 Y51.25984251968504 I0.7848615697231394 J0.32512065024130044
G3 X2.717805435610871 Y51.076962153924306 I0.601981203962408 J0.601981203962408
G3 X3.0429260858521716 Y51.010922021844046 I0.32512065024130044 J0.7848615697231394
G1 Z-2.249428498856998 F500
G3 X3.3680467360934725 Y51.076962153924306 I0 J0.8509017018034036 F500
G3 X3.6449072898145793 Y51.25984251968504 I-0.32512065024130044 J0.7848615697231394
G3 X3.827787655575311 Y51.536703073406144 I-0.601981203962408 J0.601981203962408
G3 X3.8938277876555754 Y51.86182372364745 I-0.7848615697231394 J0.32512065024130044
G3 X3.827787655575311 Y52.18694437388875 I-0.8509017018034036 J0
G3 X3.6449072898145793 Y52.46380492760985 I-0.7848615697231394 J-0.32512065024130044
G3 X3.3680467360934725 Y52.64668529337059 I-0.601981203962408 J-0.601981203962408
G3 X3.0429260858521716 Y52.71272542545085 I-0.32512065024130044 J-0.7848615697231394
G3 X2.717805435610871 Y52.64668529337059 I0 J-0.8509017018034036
G3 X2.443484886969774 Y52.46380492760985 I0.32512065024130044 J-0.7848615697231394
G3 X2.258064516129032 Y52.18694437388875 I0.601981203962408 J-0.601981203962408
G3 X2.1945643891287783 Y51.86182372364745 I0.7848615697231394 J-0.32512065024130044
G3 X2.258064516129032 Y51.536703073406144 I0.8509017018034036 J0
G3 X2.443484886969774 Y51.25984251968504 I0.7848615697231394 J0.32512065024130044
G3 X2.717805435610871 Y51.076962153924306 I0.601981203962408 J0.601981203962408
G3 X3.0429260858521716 Y51.010922021844046 I0.32512065024130044 J0.7848615697231394
G1 Z-2.4993649987299973 F500
G3 X3.3680467360934725 Y51.076962153924306 I0 J0.8509017018034036 F500
G3 X3.6449072898145793 Y51.25984251968504 I-0.32512065024130044 J0.7848615697231394
G3 X3.827787655575311 Y51.536703073406144 I-0.601981203962408 J0.601981203962408
G3 X3.8938277876555754 Y51.86182372364745 I-0.7848615697231394 J0.32512065024130044
G3 X3.827787655575311 Y52.18694437388875 I-0.8509017018034036 J0
G3 X3.6449072898145793 Y52.46380492760985 I-0.7848615697231394 J-0.32512065024130044
G3 X3.3680467360934725 Y52.64668529337059 I-0.601981203962408 J-0.601981203962408
G3 X3.0429260858521716 Y52.71272542545085 I-0.32512065024130044 J-0.7848615697231394
G3 X2.717805435610871 Y52.64668529337059 I0 J-0.8509017018034036
G3 X2.443484886969774 Y52.46380492760985 I0.32512065024130044 J-0.7848615697231394
G3 X2.258064516129032 Y52.18694437388875 I0.601981203962408 J-0.601981203962408
G3 X2.1945643891287783 Y51.86182372364745 I0.7848615697231394 J-0.32512065024130044
G3 X2.258064516129032 Y51.536703073406144 I0.8509017018034036 J0
G3 X2.443484886969774 Y51.25984251968504 I0.7848615697231394 J0.32512065024130044
G3 X2.717805435610871 Y51.076962153924306 I0.601981203962408 J0.601981203962408
G3 X3.0429260858521716 Y51.010922021844046 I0.32512065024130044 J0.7848615697231394
G1 Z-2.749301498602997 F500
G3 X3.3680467360934725 Y51.076962153924306 I0 J0.8509017018034036 F500
G3 X3.6449072898145793 Y51.25984251968504 I-0.32512065024130044 J0.7848615697231394
G3 X3.827787655575311 Y51.536703073406144 I-0.601981203962408 J0.601981203962408
G3 X3.8938277876555754 Y51.86182372364745 I-0.7848615697231394 J0.32512065024130044
G3 X3.827787655575311 Y52.18694437388875 I-0.8509017018034036 J0
G3 X3.6449072898145793 Y52.46380492760985 I-0.7848615697231394 J-0.32512065024130044
G3 X3.3680467360934725 Y52.64668529337059 I-0.601981203962408 J-0.601981203962408
G3 X3.0429260858521716 Y52.71272542545085 I-0.32512065024130044 J-0.7848615697231394
G3 X2.717805435610871 Y52.64668529337059 I0 J-0.8509017018034036
G3 X2.443484886969774 Y52.46380492760985 I0.32512065024130044 J-0.7848615697231394
G3 X2.258064516129032 Y52.18694437388875 I0.601981203962408 J-0.601981203962408
G3 X2.1945643891287783 Y51.86182372364745 I0.7848615697231394 J-0.32512065024130044
G3 X2.258064516129032 Y51.536703073406144 I0.8509017018034036 J0
G3 X2.443484886969774 Y51.25984251968504 I0.7848615697231394 J0.32512065024130044
G3 X2.717805435610871 Y51.076962153924306 I0.601981203962408 J0.601981203962408
G3 X3.0429260858521716 Y51.010922021844046 I0.32512065024130044 J0.7848615697231394
G1 Z-2.999237998475997 F500
G3 X3.3680467360934725 Y51.076962153924306 I0 J0.8509017018034036 F500
G3 X3.6449072898145793 Y51.25984251968504 I-0.32512065024130044 J0.7848615697231394
G3 X3.827787655575311 Y51.536703073406144 I-0.601981203962408 J0.601981203962408
G3 X3.8938277876555754 Y51.86182372364745 I-0.7848615697231394 J0.32512065024130044
G3 X3.827787655575311 Y52.18694437388875 I-0.8509017018034036 J0
G3 X3.6449072898145793 Y52.46380492760985 I-0.7848615697231394 J-0.32512065024130044
G3 X3.3680467360934725 Y52.64668529337059 I-0.601981203962408 J-0.601981203962408
G3 X3.0429260858521716 Y52.71272542545085 I-0.32512065024130044 J-0.7848615697231394
G3 X2.717805435610871 Y52.64668529337059 I0 J-0.8509017018034036
G3 X2.443484886969774 Y52.46380492760985 I0.32512065024130044 J-0.7848615697231394
G3 X2.258064516129032 Y52.18694437388875 I0.601981203962408 J-0.601981203962408
G3 X2.1945643891287783 Y51.86182372364745 I0.7848615697231394 J-0.32512065024130044
G3 X2.258064516129032 Y51.536703073406144 I0.8509017018034036 J0
G3 X2.443484886969774 Y51.25984251968504 I0.7848615697231394 J0.32512065024130044
G3 X2.717805435610871 Y51.076962153924306 I0.601981203962408 J0.601981203962408
G3 X3.0429260858521716 Y51.010922021844046 I0.32512065024130044 J0.7848615697231394
G1 Z-3 F500
G3 X3.3680467360934725 Y51.076962153924306 I0 J0.8509017018034036 F500
G3 X3.6449072898145793 Y51.25984251968504 I-0.32512065024130044 J0.7848615697231394
G3 X3.827787655575311 Y51.536703073406144 I-0.601981203962408 J0.601981203962408
G3 X3.8938277876555754 Y51.86182372364745 I-0.7848615697231394 J0.32512065024130044
G3 X3.827787655575311 Y52.18694437388875 I-0.8509017018034036 J0
G3 X3.6449072898145793 Y52.46380492760985 I-0.7848615697231394 J-0.32512065024130044
G3 X3.3680467360934725 Y52.64668529337059 I-0.601981203962408 J-0.601981203962408
G3 X3.0429260858521716 Y52.71272542545085 I-0.32512065024130044 J-0.7848615697231394
G3 X2.717805435610871 Y52.64668529337059 I0 J-0.8509017018034036
G3 X2.443484886969774 Y52.46380492760985 I0.32512065024130044 J-0.7848615697231394
G3 X2.258064516129032 Y52.18694437388875 I0.601981203962408 J-0.601981203962408
G3 X2.1945643891287783 Y51.86182372364745 I0.7848615697231394 J-0.32512065024130044
G3 X2.258064516129032 Y51.536703073406144 I0.8509017018034036 J0
G3 X2.443484886969774 Y51.25984251968504 I0.7848615697231394 J0.32512065024130044
G3 X2.717805435610871 Y51.076962153924306 I0.601981203962408 J0.601981203962408
G3 X3.0429260858521716 Y51.010922021844046 I0.32512065024130044 J0.7848615697231394
G0 Z3
M5
M30
