(Generated by PartKam Version 0.05)

G21 G90 G40

(througholes)
G0 Z3
T0 M6
G17
M3
G0 X119.24815849631699 Y46.781813563627125
G1 Z-3 F300
G1 Z0 F300
G0 Z3
G0 X119.24815849631699 Y44.241808483616964
G1 Z-3 F300
G1 Z0 F300
G0 Z3
G0 X24.633477266954532 Y44.246634493268985
G1 Z-3 F300
G1 Z0 F300
G0 Z3
G0 X47.49326898653797 Y44.246634493268985
G1 Z-3 F300
G1 Z0 F300
G0 Z3
G0 X70.35306070612141 Y44.246634493268985
G1 Z-3 F300
G1 Z0 F300
G0 Z3
G0 X93.21310642621285 Y44.246634493268985
G1 Z-3 F300
G1 Z0 F300
G0 Z3
G0 X4.313436626873254 Y43.606807213614424
G1 Z-3 F300
G1 Z0 F300
G0 Z3
G0 X6.853441706883414 Y43.606807213614424
G1 Z-3 F300
G1 Z0 F300
G0 Z3
G0 X9.393192786385573 Y43.606807213614424
G1 Z-3 F300
G1 Z0 F300
G0 Z3
G0 X11.933197866395734 Y43.606807213614424
G1 Z-3 F300
G1 Z0 F300
G0 Z3
G0 X14.473202946405893 Y43.606807213614424
G1 Z-3 F300
G1 Z0 F300
G0 Z3
G0 X17.013208026416052 Y43.606807213614424
G1 Z-3 F300
G1 Z0 F300
G0 Z3
G0 X19.553467106934214 Y43.606807213614424
G1 Z-3 F300
G1 Z0 F300
G0 Z3
G0 X22.093218186436374 Y43.606807213614424
G1 Z-3 F300
G1 Z0 F300
G0 Z3
G0 X27.173228346456693 Y43.606807213614424
G1 Z-3 F300
G1 Z0 F300
G0 Z3
G0 X29.713233426466854 Y43.606807213614424
G1 Z-3 F300
G1 Z0 F300
G0 Z3
G0 X32.25349250698501 Y43.606807213614424
G1 Z-3 F300
G1 Z0 F300
G0 Z3
G0 X34.79324358648717 Y43.606807213614424
G1 Z-3 F300
G1 Z0 F300
G0 Z3
G0 X37.33324866649733 Y43.606807213614424
G1 Z-3 F300
G1 Z0 F300
G0 Z3
G0 X39.873253746507494 Y43.606807213614424
G1 Z-3 F300
G1 Z0 F300
G0 Z3
G0 X42.413258826517655 Y43.606807213614424
G1 Z-3 F300
G1 Z0 F300
G0 Z3
G0 X44.953263906527816 Y43.606807213614424
G1 Z-3 F300
G1 Z0 F300
G0 Z3
G0 X50.03327406654813 Y43.606807213614424
G1 Z-3 F300
G1 Z0 F300
G0 Z3
G0 X52.57302514605029 Y43.606807213614424
G1 Z-3 F300
G1 Z0 F300
G0 Z3
G0 X55.11328422656845 Y43.606807213614424
G1 Z-3 F300
G1 Z0 F300
G0 Z3
G0 X57.65303530607061 Y43.606807213614424
G1 Z-3 F300
G1 Z0 F300
G0 Z3
G0 X60.193294386588775 Y43.606807213614424
G1 Z-3 F300
G1 Z0 F300
G0 Z3
G0 X62.733045466090935 Y43.606807213614424
G1 Z-3 F300
G1 Z0 F300
G0 Z3
G0 X65.27305054610109 Y43.606807213614424
G1 Z-3 F300
G1 Z0 F300
G0 Z3
G0 X67.81330962661926 Y43.606807213614424
G1 Z-3 F300
G1 Z0 F300
G0 Z3
G0 X72.89331978663958 Y43.606807213614424
G1 Z-3 F300
G1 Z0 F300
G0 Z3
G0 X75.43307086614173 Y43.606807213614424
G1 Z-3 F300
G1 Z0 F300
G0 Z3
G0 X77.9730759461519 Y43.606807213614424
G1 Z-3 F300
G1 Z0 F300
G0 Z3
G0 X80.51333502667005 Y43.606807213614424
G1 Z-3 F300
G1 Z0 F300
G0 Z3
G0 X83.05308610617222 Y43.606807213614424
G1 Z-3 F300
G1 Z0 F300
G0 Z3
G0 X85.59334518669037 Y43.606807213614424
G1 Z-3 F300
G1 Z0 F300
G0 Z3
G0 X88.13309626619254 Y43.606807213614424
G1 Z-3 F300
G1 Z0 F300
G0 Z3
G0 X90.6731013462027 Y43.606807213614424
G1 Z-3 F300
G1 Z0 F300
G0 Z3
G0 X95.75311150622301 Y43.606807213614424
G1 Z-3 F300
G1 Z0 F300
G0 Z3
G0 X98.29337058674118 Y43.606807213614424
G1 Z-3 F300
G1 Z0 F300
G0 Z3
G0 X100.83312166624333 Y43.606807213614424
G1 Z-3 F300
G1 Z0 F300
G0 Z3
G0 X103.37312674625349 Y43.606807213614424
G1 Z-3 F300
G1 Z0 F300
G0 Z3
G0 X105.91287782575566 Y43.606807213614424
G1 Z-3 F300
G1 Z0 F300
G0 Z3
G0 X108.45313690627381 Y43.606807213614424
G1 Z-3 F300
G1 Z0 F300
G0 Z3
G0 X110.99314198628397 Y43.606807213614424
G1 Z-3 F300
G1 Z0 F300
G0 Z3
G0 X113.53314706629413 Y43.606807213614424
G1 Z-3 F300
G1 Z0 F300
G0 Z3
G0 X119.24815849631699 Y41.70205740411481
G1 Z-3 F300
G1 Z0 F300
G0 Z3
G0 X24.633477266954532 Y41.70180340360681
G1 Z-3 F300
G1 Z0 F300
G0 Z3
G0 X47.49326898653797 Y41.70180340360681
G1 Z-3 F300
G1 Z0 F300
G0 Z3
G0 X70.35306070612141 Y41.70180340360681
G1 Z-3 F300
G1 Z0 F300
G0 Z3
G0 X93.21310642621285 Y41.70180340360681
G1 Z-3 F300
G1 Z0 F300
G0 Z3
G0 X119.24815849631699 Y39.16179832359665
G1 Z-3 F300
G1 Z0 F300
G0 Z3
G0 X119.24815849631699 Y36.62179324358649
G1 Z-3 F300
G1 Z0 F300
G0 Z3
G0 X4.313436626873254 Y35.98679197358395
G1 Z-3 F300
G1 Z0 F300
G0 Z3
G0 X6.853441706883414 Y35.98679197358395
G1 Z-3 F300
G1 Z0 F300
G0 Z3
G0 X9.393192786385573 Y35.98679197358395
G1 Z-3 F300
G1 Z0 F300
G0 Z3
G0 X11.933197866395734 Y35.98679197358395
G1 Z-3 F300
G1 Z0 F300
G0 Z3
G0 X14.473202946405893 Y35.98679197358395
G1 Z-3 F300
G1 Z0 F300
G0 Z3
G0 X17.013208026416052 Y35.98679197358395
G1 Z-3 F300
G1 Z0 F300
G0 Z3
G0 X19.553467106934214 Y35.98679197358395
G1 Z-3 F300
G1 Z0 F300
G0 Z3
G0 X22.093218186436374 Y35.98679197358395
G1 Z-3 F300
G1 Z0 F300
G0 Z3
G0 X27.173228346456693 Y35.98679197358395
G1 Z-3 F300
G1 Z0 F300
G0 Z3
G0 X29.713233426466854 Y35.98679197358395
G1 Z-3 F300
G1 Z0 F300
G0 Z3
G0 X32.25349250698501 Y35.98679197358395
G1 Z-3 F300
G1 Z0 F300
G0 Z3
G0 X34.79324358648717 Y35.98679197358395
G1 Z-3 F300
G1 Z0 F300
G0 Z3
G0 X37.33324866649733 Y35.98679197358395
G1 Z-3 F300
G1 Z0 F300
G0 Z3
G0 X39.873253746507494 Y35.98679197358395
G1 Z-3 F300
G1 Z0 F300
G0 Z3
G0 X42.413258826517655 Y35.98679197358395
G1 Z-3 F300
G1 Z0 F300
G0 Z3
G0 X44.953263906527816 Y35.98679197358395
G1 Z-3 F300
G1 Z0 F300
G0 Z3
G0 X50.03327406654813 Y35.98679197358395
G1 Z-3 F300
G1 Z0 F300
G0 Z3
G0 X52.57302514605029 Y35.98679197358395
G1 Z-3 F300
G1 Z0 F300
G0 Z3
G0 X55.11328422656845 Y35.98679197358395
G1 Z-3 F300
G1 Z0 F300
G0 Z3
G0 X57.65303530607061 Y35.98679197358395
G1 Z-3 F300
G1 Z0 F300
G0 Z3
G0 X60.193294386588775 Y35.98679197358395
G1 Z-3 F300
G1 Z0 F300
G0 Z3
G0 X62.733045466090935 Y35.98679197358395
G1 Z-3 F300
G1 Z0 F300
G0 Z3
G0 X65.27305054610109 Y35.98679197358395
G1 Z-3 F300
G1 Z0 F300
G0 Z3
G0 X67.81330962661926 Y35.98679197358395
G1 Z-3 F300
G1 Z0 F300
G0 Z3
G0 X72.89331978663958 Y35.98679197358395
G1 Z-3 F300
G1 Z0 F300
G0 Z3
G0 X75.43307086614173 Y35.98679197358395
G1 Z-3 F300
G1 Z0 F300
G0 Z3
G0 X77.9730759461519 Y35.98679197358395
G1 Z-3 F300
G1 Z0 F300
G0 Z3
G0 X80.51333502667005 Y35.98679197358395
G1 Z-3 F300
G1 Z0 F300
G0 Z3
G0 X83.05308610617222 Y35.98679197358395
G1 Z-3 F300
G1 Z0 F300
G0 Z3
G0 X85.59334518669037 Y35.98679197358395
G1 Z-3 F300
G1 Z0 F300
G0 Z3
G0 X88.13309626619254 Y35.98679197358395
G1 Z-3 F300
G1 Z0 F300
G0 Z3
G0 X90.6731013462027 Y35.98679197358395
G1 Z-3 F300
G1 Z0 F300
G0 Z3
G0 X95.75311150622301 Y35.98679197358395
G1 Z-3 F300
G1 Z0 F300
G0 Z3
G0 X98.29337058674118 Y35.98679197358395
G1 Z-3 F300
G1 Z0 F300
G0 Z3
G0 X100.83312166624333 Y35.98679197358395
G1 Z-3 F300
G1 Z0 F300
G0 Z3
G0 X103.37312674625349 Y35.98679197358395
G1 Z-3 F300
G1 Z0 F300
G0 Z3
G0 X105.91287782575566 Y35.98679197358395
G1 Z-3 F300
G1 Z0 F300
G0 Z3
G0 X108.45313690627381 Y35.98679197358395
G1 Z-3 F300
G1 Z0 F300
G0 Z3
G0 X110.99314198628397 Y35.98679197358395
G1 Z-3 F300
G1 Z0 F300
G0 Z3
G0 X113.53314706629413 Y35.98679197358395
G1 Z-3 F300
G1 Z0 F300
G0 Z3
G0 X119.24815849631699 Y34.08178816357633
G1 Z-3 F300
G1 Z0 F300
G0 Z3
G0 X22.093218186436374 Y31.542037084074167
G1 Z-3 F300
G1 Z0 F300
G0 Z3
G0 X9.393192786385573 Y30.906781813563626
G1 Z-3 F300
G1 Z0 F300
G0 Z3
G0 X11.933197866395734 Y30.906781813563626
G1 Z-3 F300
G1 Z0 F300
G0 Z3
G0 X14.473202946405893 Y30.906781813563626
G1 Z-3 F300
G1 Z0 F300
G0 Z3
G0 X17.013462026924053 Y30.906781813563626
G1 Z-3 F300
G1 Z0 F300
G0 Z3
G0 X32.25349250698501 Y30.906781813563626
G1 Z-3 F300
G1 Z0 F300
G0 Z3
G0 X34.79324358648717 Y30.906781813563626
G1 Z-3 F300
G1 Z0 F300
G0 Z3
G0 X37.33324866649733 Y30.906781813563626
G1 Z-3 F300
G1 Z0 F300
G0 Z3
G0 X39.87299974599949 Y30.906781813563626
G1 Z-3 F300
G1 Z0 F300
G0 Z3
G0 X55.11328422656845 Y30.906781813563626
G1 Z-3 F300
G1 Z0 F300
G0 Z3
G0 X57.653289306578614 Y30.906781813563626
G1 Z-3 F300
G1 Z0 F300
G0 Z3
G0 X60.193294386588775 Y30.906781813563626
G1 Z-3 F300
G1 Z0 F300
G0 Z3
G0 X62.733045466090935 Y30.906781813563626
G1 Z-3 F300
G1 Z0 F300
G0 Z3
G0 X77.9730759461519 Y30.906781813563626
G1 Z-3 F300
G1 Z0 F300
G0 Z3
G0 X80.51308102616206 Y30.906781813563626
G1 Z-3 F300
G1 Z0 F300
G0 Z3
G0 X83.05308610617222 Y30.906781813563626
G1 Z-3 F300
G1 Z0 F300
G0 Z3
G0 X85.59334518669037 Y30.906781813563626
G1 Z-3 F300
G1 Z0 F300
G0 Z3
G0 X100.83312166624333 Y30.906781813563626
G1 Z-3 F300
G1 Z0 F300
G0 Z3
G0 X103.37312674625349 Y30.906781813563626
G1 Z-3 F300
G1 Z0 F300
G0 Z3
G0 X105.91287782575566 Y30.906781813563626
G1 Z-3 F300
G1 Z0 F300
G0 Z3
G0 X108.45313690627381 Y30.906781813563626
G1 Z-3 F300
G1 Z0 F300
G0 Z3
G0 X25.903479806959613 Y30.907035814071627
G1 Z-3 F300
G1 Z0 F300
G0 Z3
G0 X119.24815849631699 Y29.00203200406401
G1 Z-3 F300
G1 Z0 F300
G0 Z3
G0 X22.093218186436374 Y28.99720599441199
G1 Z-3 F300
G1 Z0 F300
G0 Z3
G0 X25.903479806959613 Y28.36703073406147
G1 Z-3 F300
G1 Z0 F300
G0 Z3
G0 X44.953009906019815 Y24.556769113538227
G1 Z-3 F300
G1 Z0 F300
G0 Z3
G0 X47.49784099568199 Y24.556769113538227
G1 Z-3 F300
G1 Z0 F300
G0 Z3
G0 X13.838201676403353 Y22.016764033528066
G1 Z-3 F300
G1 Z0 F300
G0 Z3
G0 X16.378460756921513 Y22.016764033528066
G1 Z-3 F300
G1 Z0 F300
G0 Z3
G0 X18.918211836423673 Y22.016764033528066
G1 Z-3 F300
G1 Z0 F300
G0 Z3
G0 X21.458216916433834 Y22.016764033528066
G1 Z-3 F300
G1 Z0 F300
G0 Z3
G0 X23.99822199644399 Y22.016764033528066
G1 Z-3 F300
G1 Z0 F300
G0 Z3
G0 X26.538227076454152 Y22.016764033528066
G1 Z-3 F300
G1 Z0 F300
G0 Z3
G0 X29.078486156972314 Y22.016764033528066
G1 Z-3 F300
G1 Z0 F300
G0 Z3
G0 X31.618237236474474 Y22.016764033528066
G1 Z-3 F300
G1 Z0 F300
G0 Z3
G0 X44.953263906527816 Y22.016764033528066
G1 Z-3 F300
G1 Z0 F300
G0 Z3
G0 X47.49326898653797 Y22.016764033528066
G1 Z-3 F300
G1 Z0 F300
G0 Z3
G0 X50.03327406654813 Y22.016764033528066
G1 Z-3 F300
G1 Z0 F300
G0 Z3
G0 X52.57302514605029 Y22.016764033528066
G1 Z-3 F300
G1 Z0 F300
G0 Z3
G0 X55.11328422656845 Y22.016764033528066
G1 Z-3 F300
G1 Z0 F300
G0 Z3
G0 X57.65303530607061 Y22.016764033528066
G1 Z-3 F300
G1 Z0 F300
G0 Z3
G0 X60.193294386588775 Y22.016764033528066
G1 Z-3 F300
G1 Z0 F300
G0 Z3
G0 X62.733045466090935 Y22.016764033528066
G1 Z-3 F300
G1 Z0 F300
G0 Z3
G0 X84.95808991617983 Y22.016764033528066
G1 Z-3 F300
G1 Z0 F300
G0 Z3
G0 X87.49809499618999 Y22.016764033528066
G1 Z-3 F300
G1 Z0 F300
G0 Z3
G0 X90.03784607569216 Y22.016764033528066
G1 Z-3 F300
G1 Z0 F300
G0 Z3
G0 X92.57810515621031 Y22.016764033528066
G1 Z-3 F300
G1 Z0 F300
G0 Z3
G0 X95.11836423672847 Y22.016764033528066
G1 Z-3 F300
G1 Z0 F300
G0 Z3
G0 X97.65811531623064 Y22.016764033528066
G1 Z-3 F300
G1 Z0 F300
G0 Z3
G0 X100.1981203962408 Y22.016764033528066
G1 Z-3 F300
G1 Z0 F300
G0 Z3
G0 X102.73787147574295 Y22.016764033528066
G1 Z-3 F300
G1 Z0 F300
G0 Z3
G0 X79.23825247650495 Y20.11176022352045
G1 Z-3 F300
G1 Z0 F300
G0 Z3
G0 X81.78308356616714 Y20.11176022352045
G1 Z-3 F300
G1 Z0 F300
G0 Z3
G0 X119.24815849631699 Y16.301752603505207
G1 Z-3 F300
G1 Z0 F300
G0 Z3
G0 X13.838201676403353 Y14.396748793497586
G1 Z-3 F300
G1 Z0 F300
G0 Z3
G0 X16.378460756921513 Y14.396748793497586
G1 Z-3 F300
G1 Z0 F300
G0 Z3
G0 X18.918211836423673 Y14.396748793497586
G1 Z-3 F300
G1 Z0 F300
G0 Z3
G0 X21.458216916433834 Y14.396748793497586
G1 Z-3 F300
G1 Z0 F300
G0 Z3
G0 X23.99822199644399 Y14.396748793497586
G1 Z-3 F300
G1 Z0 F300
G0 Z3
G0 X26.538227076454152 Y14.396748793497586
G1 Z-3 F300
G1 Z0 F300
G0 Z3
G0 X29.078486156972314 Y14.396748793497586
G1 Z-3 F300
G1 Z0 F300
G0 Z3
G0 X31.618237236474474 Y14.396748793497586
G1 Z-3 F300
G1 Z0 F300
G0 Z3
G0 X44.953263906527816 Y14.396748793497586
G1 Z-3 F300
G1 Z0 F300
G0 Z3
G0 X47.49326898653797 Y14.396748793497586
G1 Z-3 F300
G1 Z0 F300
G0 Z3
G0 X50.03327406654813 Y14.396748793497586
G1 Z-3 F300
G1 Z0 F300
G0 Z3
G0 X52.57302514605029 Y14.396748793497586
G1 Z-3 F300
G1 Z0 F300
G0 Z3
G0 X55.11328422656845 Y14.396748793497586
G1 Z-3 F300
G1 Z0 F300
G0 Z3
G0 X57.65303530607061 Y14.396748793497586
G1 Z-3 F300
G1 Z0 F300
G0 Z3
G0 X60.193294386588775 Y14.396748793497586
G1 Z-3 F300
G1 Z0 F300
G0 Z3
G0 X62.733045466090935 Y14.396748793497586
G1 Z-3 F300
G1 Z0 F300
G0 Z3
G0 X84.95808991617983 Y14.396748793497586
G1 Z-3 F300
G1 Z0 F300
G0 Z3
G0 X87.49809499618999 Y14.396748793497586
G1 Z-3 F300
G1 Z0 F300
G0 Z3
G0 X90.03784607569216 Y14.396748793497586
G1 Z-3 F300
G1 Z0 F300
G0 Z3
G0 X92.57810515621031 Y14.396748793497586
G1 Z-3 F300
G1 Z0 F300
G0 Z3
G0 X95.11836423672847 Y14.396748793497586
G1 Z-3 F300
G1 Z0 F300
G0 Z3
G0 X97.65811531623064 Y14.396748793497586
G1 Z-3 F300
G1 Z0 F300
G0 Z3
G0 X100.1981203962408 Y14.396748793497586
G1 Z-3 F300
G1 Z0 F300
G0 Z3
G0 X102.73787147574295 Y14.396748793497586
G1 Z-3 F300
G1 Z0 F300
G0 Z3
G0 X119.24815849631699 Y13.761747523495046
G1 Z-3 F300
G1 Z0 F300
G0 Z3
G0 X119.24815849631699 Y11.221488442976886
G1 Z-3 F300
G1 Z0 F300
G0 Z3
G0 X119.24815849631699 Y8.681483362966725
G1 Z-3 F300
G1 Z0 F300
G0 Z3
M5
M30
