(Generated by PartKam Version 0.05)

G21 G90 G40

(vias)
G0 Z3
T0 M6
G17
M3
G0 X114.8501397002794 Y46.17043434086868
G1 Z-3 F200
G1 Z0 F200
G0 Z3
G0 X9.393192786385573 Y46.146558293116584
G1 Z-3 F200
G1 Z0 F200
G0 Z3
G0 X32.25349250698501 Y46.146558293116584
G1 Z-3 F200
G1 Z0 F200
G0 Z3
G0 X55.11303022606045 Y46.146558293116584
G1 Z-3 F200
G1 Z0 F200
G0 Z3
G0 X77.9730759461519 Y46.146558293116584
G1 Z-3 F200
G1 Z0 F200
G0 Z3
G0 X95.75285750571501 Y46.146558293116584
G1 Z-3 F200
G1 Z0 F200
G0 Z3
G0 X27.172974345948692 Y46.13258826517653
G1 Z-3 F200
G1 Z0 F200
G0 Z3
G0 X50.03327406654813 Y46.13258826517653
G1 Z-3 F200
G1 Z0 F200
G0 Z3
G0 X72.89281178562356 Y46.13258826517653
G1 Z-3 F200
G1 Z0 F200
G0 Z3
G0 X100.83286766573534 Y46.13258826517653
G1 Z-3 F200
G1 Z0 F200
G0 Z3
G0 X43.048006096012195 Y40.43180086360173
G1 Z-3 F200
G1 Z0 F200
G0 Z3
G0 X65.90805181610364 Y40.43180086360173
G1 Z-3 F200
G1 Z0 F200
G0 Z3
G0 X88.76784353568708 Y40.43180086360173
G1 Z-3 F200
G1 Z0 F200
G0 Z3
G0 X6.853441706883414 Y39.79679959359919
G1 Z-3 F200
G1 Z0 F200
G0 Z3
G0 X40.508255016510034 Y39.79679959359919
G1 Z-3 F200
G1 Z0 F200
G0 Z3
G0 X63.368046736093476 Y39.79679959359919
G1 Z-3 F200
G1 Z0 F200
G0 Z3
G0 X86.22783845567692 Y39.79679959359919
G1 Z-3 F200
G1 Z0 F200
G0 Z3
G0 X110.99263398526797 Y38.52705105410211
G1 Z-3 F200
G1 Z0 F200
G0 Z3
G0 X24.63322326644653 Y37.89179578359157
G1 Z-3 F200
G1 Z0 F200
G0 Z3
G0 X47.49301498602997 Y37.89179578359157
G1 Z-3 F200
G1 Z0 F200
G0 Z3
G0 X70.35280670561342 Y37.89179578359157
G1 Z-3 F200
G1 Z0 F200
G0 Z3
G0 X93.21285242570485 Y37.89179578359157
G1 Z-3 F200
G1 Z0 F200
G0 Z3
G0 X5.583185166370333 Y33.44678689357379
G1 Z-3 F200
G1 Z0 F200
G0 Z3
G0 X27.172974345948692 Y33.44678689357379
G1 Z-3 F200
G1 Z0 F200
G0 Z3
G0 X72.89281178562356 Y33.43281686563373
G1 Z-3 F200
G1 Z0 F200
G0 Z3
G0 X95.75285750571501 Y33.43281686563373
G1 Z-3 F200
G1 Z0 F200
G0 Z3
G0 X115.79070358140716 Y33.37642875285751
G1 Z-3 F200
G1 Z0 F200
G0 Z3
G0 X49.96240792481585 Y33.305562611125225
G1 Z-3 F200
G1 Z0 F200
G0 Z3
G0 X52.575565151130306 Y30.88265176530353
G1 Z-3 F200
G1 Z0 F200
G0 Z3
G0 X98.29286258572517 Y30.88265176530353
G1 Z-3 F200
G1 Z0 F200
G0 Z3
G0 X114.19202438404876 Y29.049022098044198
G1 Z-3 F200
G1 Z0 F200
G0 Z3
G0 X34.79324358648717 Y28.36703073406147
G1 Z-3 F200
G1 Z0 F200
G0 Z3
G0 X61.463042926085855 Y28.36703073406147
G1 Z-3 F200
G1 Z0 F200
G0 Z3
G0 X64.63804927609856 Y28.36703073406147
G1 Z-3 F200
G1 Z0 F200
G0 Z3
G0 X102.10845821691643 Y28.36499872999746
G1 Z-3 F200
G1 Z0 F200
G0 Z3
G0 X58.90957581915164 Y26.49733299466599
G1 Z-3 F200
G1 Z0 F200
G0 Z3
G0 X103.40817881635763 Y26.49733299466599
G1 Z-3 F200
G1 Z0 F200
G0 Z3
G0 X5.583185166370333 Y25.826771653543307
G1 Z-3 F200
G1 Z0 F200
G0 Z3
G0 X39.23799847599695 Y25.826771653543307
G1 Z-3 F200
G1 Z0 F200
G0 Z3
G0 X7.4884429768859535 Y24.556515113030226
G1 Z-3 F200
G1 Z0 F200
G0 Z3
G0 X26.51003302006604 Y24.548387096774192
G1 Z-3 F200
G1 Z0 F200
G0 Z3
G0 X11.297942595885191 Y23.921259842519685
G1 Z-3 F200
G1 Z0 F200
G0 Z3
G0 X55.11303022606045 Y23.921259842519685
G1 Z-3 F200
G1 Z0 F200
G0 Z3
G0 X106.5481330962662 Y23.286512573025146
G1 Z-3 F200
G1 Z0 F200
G0 Z3
G0 X9.393192786385573 Y22.651511303022605
G1 Z-3 F200
G1 Z0 F200
G0 Z3
G0 X65.27305054610109 Y22.651511303022605
G1 Z-3 F200
G1 Z0 F200
G0 Z3
G0 X35.42849885699771 Y20.74701549403099
G1 Z-3 F200
G1 Z0 F200
G0 Z3
G0 X73.52781305562611 Y20.74701549403099
G1 Z-3 F200
G1 Z0 F200
G0 Z3
G0 X56.383286766573534 Y20.11201422402845
G1 Z-3 F200
G1 Z0 F200
G0 Z3
G0 X50.03327406654813 Y19.47701295402591
G1 Z-3 F200
G1 Z0 F200
G0 Z3
G0 X87.49809499618999 Y19.47701295402591
G1 Z-3 F200
G1 Z0 F200
G0 Z3
G0 X20.826263652527306 Y18.21513843027686
G1 Z-3 F200
G1 Z0 F200
G0 Z3
G0 X17.64795529591059 Y18.206756413512828
G1 Z-3 F200
G1 Z0 F200
G0 Z3
G0 X61.463042926085855 Y18.206756413512828
G1 Z-3 F200
G1 Z0 F200
G0 Z3
G0 X47.49301498602997 Y17.57200914401829
G1 Z-3 F200
G1 Z0 F200
G0 Z3
G0 X73.52781305562611 Y16.301752603505207
G1 Z-3 F200
G1 Z0 F200
G0 Z3
G0 X90.03784607569216 Y16.301752603505207
G1 Z-3 F200
G1 Z0 F200
G0 Z3
G0 X115.43789687579375 Y16.301752603505207
G1 Z-3 F200
G1 Z0 F200
G0 Z3
G0 X100.1747523495047 Y16.25476250952502
G1 Z-3 F200
G1 Z0 F200
G0 Z3
G0 X65.27305054610109 Y13.762001524003049
G1 Z-3 F200
G1 Z0 F200
G0 Z3
G0 X76.7028194056388 Y13.762001524003049
G1 Z-3 F200
G1 Z0 F200
G0 Z3
G0 X79.87782575565151 Y13.762001524003049
G1 Z-3 F200
G1 Z0 F200
G0 Z3
G0 X115.43789687579375 Y13.762001524003049
G1 Z-3 F200
G1 Z0 F200
G0 Z3
G0 X20.176530353060706 Y11.881381762763526
G1 Z-3 F200
G1 Z0 F200
G0 Z3
G0 X29.108966217932437 Y11.881381762763526
G1 Z-3 F200
G1 Z0 F200
G0 Z3
G0 X94.48285496570993 Y11.856743713487427
G1 Z-3 F200
G1 Z0 F200
G0 Z3
G0 X22.093218186436374 Y9.951739903479806
G1 Z-3 F200
G1 Z0 F200
G0 Z3
G0 X74.79806959613919 Y9.951739903479806
G1 Z-3 F200
G1 Z0 F200
G0 Z3
G0 X23.363220726441455 Y8.046990093980188
G1 Z-3 F200
G1 Z0 F200
G0 Z3
G0 X95.11785623571247 Y8.046990093980188
G1 Z-3 F200
G1 Z0 F200
G0 Z3
G0 X24.63322326644653 Y6.141732283464567
G1 Z-3 F200
G1 Z0 F200
G0 Z3
G0 X47.49301498602997 Y6.141732283464567
G1 Z-3 F200
G1 Z0 F200
G0 Z3
G0 X31.618237236474474 Y4.2369824739649475
G1 Z-3 F200
G1 Z0 F200
G0 Z3
G0 X44.95275590551181 Y4.2369824739649475
G1 Z-3 F200
G1 Z0 F200
G0 Z3
G0 X76.7028194056388 Y4.2369824739649475
G1 Z-3 F200
G1 Z0 F200
G0 Z3
M5
M30
