(Generated by PartKam Version 0.05)

G21 G90 G40

(bigholes)
G0 Z3
T0 M6
G17
M3
G0 X94.78536957073914 Y55.935737871475744
G1 Z-0.24993649987299973 F500
G3 X95.0723901447803 Y55.877571755143514 I0.28702057404114806 J0.6934213868427737 F500
G3 X95.35941071882144 Y55.935991871983745 I0 J0.7493014986029972
G3 X95.6032512065024 Y56.0985521971044 I-0.28702057404114806 J0.6934213868427737
G3 X95.76581153162307 Y56.34239268478537 I-0.5308610617221234 J0.5308610617221234
G3 X95.82169164338328 Y56.62941325882652 I-0.6934213868427737 J0.28702057404114806
G1 X95.82169164338328 Y56.62941325882652
G1 X95.82169164338328 Y56.62941325882652
G3 X95.76581153162307 Y56.91643383286767 I-0.7493014986029972 J0
G3 X95.6032512065024 Y57.160274320548645 I-0.6934213868427737 J-0.28702057404114806
G3 X95.35941071882144 Y57.32283464566929 I-0.5308610617221234 J-0.5308610617221234
G3 X95.0723901447803 Y57.37871475742952 I-0.28702057404114806 J-0.6934213868427737
G3 X94.78536957073914 Y57.32283464566929 I0 J-0.7493014986029972
G3 X94.54152908305817 Y57.160274320548645 I0.28702057404114806 J-0.6934213868427737
G3 X94.37896875793753 Y56.91643383286767 I0.5308610617221234 J-0.5308610617221234
G3 X94.3230886461773 Y56.62941325882652 I0.6934213868427737 J-0.28702057404114806
G1 X94.3230886461773 Y56.62941325882652
G1 X94.3230886461773 Y56.62941325882652
G3 X94.37896875793753 Y56.34239268478537 I0.7493014986029972 J0
G3 X94.54152908305817 Y56.0985521971044 I0.6934213868427737 J0.28702057404114806
G3 X94.78536957073914 Y55.935991871983745 I0.5308610617221234 J0.5308610617221234
G1 Z-0.49987299974599947 F500
G3 X95.0723901447803 Y55.877571755143514 I0.28702057404114806 J0.6934213868427737 F500
G3 X95.35941071882144 Y55.935991871983745 I0 J0.7493014986029972
G3 X95.6032512065024 Y56.0985521971044 I-0.28702057404114806 J0.6934213868427737
G3 X95.76581153162307 Y56.34239268478537 I-0.5308610617221234 J0.5308610617221234
G3 X95.82169164338328 Y56.62941325882652 I-0.6934213868427737 J0.28702057404114806
G1 X95.82169164338328 Y56.62941325882652
G1 X95.82169164338328 Y56.62941325882652
G3 X95.76581153162307 Y56.91643383286767 I-0.7493014986029972 J0
G3 X95.6032512065024 Y57.160274320548645 I-0.6934213868427737 J-0.28702057404114806
G3 X95.35941071882144 Y57.32283464566929 I-0.5308610617221234 J-0.5308610617221234
G3 X95.0723901447803 Y57.37871475742952 I-0.28702057404114806 J-0.6934213868427737
G3 X94.78536957073914 Y57.32283464566929 I0 J-0.7493014986029972
G3 X94.54152908305817 Y57.160274320548645 I0.28702057404114806 J-0.6934213868427737
G3 X94.37896875793753 Y56.91643383286767 I0.5308610617221234 J-0.5308610617221234
G3 X94.3230886461773 Y56.62941325882652 I0.6934213868427737 J-0.28702057404114806
G1 X94.3230886461773 Y56.62941325882652
G1 X94.3230886461773 Y56.62941325882652
G3 X94.37896875793753 Y56.34239268478537 I0.7493014986029972 J0
G3 X94.54152908305817 Y56.0985521971044 I0.6934213868427737 J0.28702057404114806
G3 X94.78536957073914 Y55.935991871983745 I0.5308610617221234 J0.5308610617221234
G1 Z-0.7498094996189992 F500
G3 X95.0723901447803 Y55.877571755143514 I0.28702057404114806 J0.6934213868427737 F500
G3 X95.35941071882144 Y55.935991871983745 I0 J0.7493014986029972
G3 X95.6032512065024 Y56.0985521971044 I-0.28702057404114806 J0.6934213868427737
G3 X95.76581153162307 Y56.34239268478537 I-0.5308610617221234 J0.5308610617221234
G3 X95.82169164338328 Y56.62941325882652 I-0.6934213868427737 J0.28702057404114806
G1 X95.82169164338328 Y56.62941325882652
G1 X95.82169164338328 Y56.62941325882652
G3 X95.76581153162307 Y56.91643383286767 I-0.7493014986029972 J0
G3 X95.6032512065024 Y57.160274320548645 I-0.6934213868427737 J-0.28702057404114806
G3 X95.35941071882144 Y57.32283464566929 I-0.5308610617221234 J-0.5308610617221234
G3 X95.0723901447803 Y57.37871475742952 I-0.28702057404114806 J-0.6934213868427737
G3 X94.78536957073914 Y57.32283464566929 I0 J-0.7493014986029972
G3 X94.54152908305817 Y57.160274320548645 I0.28702057404114806 J-0.6934213868427737
G3 X94.37896875793753 Y56.91643383286767 I0.5308610617221234 J-0.5308610617221234
G3 X94.3230886461773 Y56.62941325882652 I0.6934213868427737 J-0.28702057404114806
G1 X94.3230886461773 Y56.62941325882652
G1 X94.3230886461773 Y56.62941325882652
G3 X94.37896875793753 Y56.34239268478537 I0.7493014986029972 J0
G3 X94.54152908305817 Y56.0985521971044 I0.6934213868427737 J0.28702057404114806
G3 X94.78536957073914 Y55.935991871983745 I0.5308610617221234 J0.5308610617221234
G1 Z-0.9997459994919989 F500
G3 X95.0723901447803 Y55.877571755143514 I0.28702057404114806 J0.6934213868427737 F500
G3 X95.35941071882144 Y55.935991871983745 I0 J0.7493014986029972
G3 X95.6032512065024 Y56.0985521971044 I-0.28702057404114806 J0.6934213868427737
G3 X95.76581153162307 Y56.34239268478537 I-0.5308610617221234 J0.5308610617221234
G3 X95.82169164338328 Y56.62941325882652 I-0.6934213868427737 J0.28702057404114806
G1 X95.82169164338328 Y56.62941325882652
G1 X95.82169164338328 Y56.62941325882652
G3 X95.76581153162307 Y56.91643383286767 I-0.7493014986029972 J0
G3 X95.6032512065024 Y57.160274320548645 I-0.6934213868427737 J-0.28702057404114806
G3 X95.35941071882144 Y57.32283464566929 I-0.5308610617221234 J-0.5308610617221234
G3 X95.0723901447803 Y57.37871475742952 I-0.28702057404114806 J-0.6934213868427737
G3 X94.78536957073914 Y57.32283464566929 I0 J-0.7493014986029972
G3 X94.54152908305817 Y57.160274320548645 I0.28702057404114806 J-0.6934213868427737
G3 X94.37896875793753 Y56.91643383286767 I0.5308610617221234 J-0.5308610617221234
G3 X94.3230886461773 Y56.62941325882652 I0.6934213868427737 J-0.28702057404114806
G1 X94.3230886461773 Y56.62941325882652
G1 X94.3230886461773 Y56.62941325882652
G3 X94.37896875793753 Y56.34239268478537 I0.7493014986029972 J0
G3 X94.54152908305817 Y56.0985521971044 I0.6934213868427737 J0.28702057404114806
G3 X94.78536957073914 Y55.935991871983745 I0.5308610617221234 J0.5308610617221234
G1 Z-1.2496824993649986 F500
G3 X95.0723901447803 Y55.877571755143514 I0.28702057404114806 J0.6934213868427737 F500
G3 X95.35941071882144 Y55.935991871983745 I0 J0.7493014986029972
G3 X95.6032512065024 Y56.0985521971044 I-0.28702057404114806 J0.6934213868427737
G3 X95.76581153162307 Y56.34239268478537 I-0.5308610617221234 J0.5308610617221234
G3 X95.82169164338328 Y56.62941325882652 I-0.6934213868427737 J0.28702057404114806
G1 X95.82169164338328 Y56.62941325882652
G1 X95.82169164338328 Y56.62941325882652
G3 X95.76581153162307 Y56.91643383286767 I-0.7493014986029972 J0
G3 X95.6032512065024 Y57.160274320548645 I-0.6934213868427737 J-0.28702057404114806
G3 X95.35941071882144 Y57.32283464566929 I-0.5308610617221234 J-0.5308610617221234
G3 X95.0723901447803 Y57.37871475742952 I-0.28702057404114806 J-0.6934213868427737
G3 X94.78536957073914 Y57.32283464566929 I0 J-0.7493014986029972
G3 X94.54152908305817 Y57.160274320548645 I0.28702057404114806 J-0.6934213868427737
G3 X94.37896875793753 Y56.91643383286767 I0.5308610617221234 J-0.5308610617221234
G3 X94.3230886461773 Y56.62941325882652 I0.6934213868427737 J-0.28702057404114806
G1 X94.3230886461773 Y56.62941325882652
G1 X94.3230886461773 Y56.62941325882652
G3 X94.37896875793753 Y56.34239268478537 I0.7493014986029972 J0
G3 X94.54152908305817 Y56.0985521971044 I0.6934213868427737 J0.28702057404114806
G3 X94.78536957073914 Y55.935991871983745 I0.5308610617221234 J0.5308610617221234
G1 Z-1.4996189992379985 F500
G3 X95.0723901447803 Y55.877571755143514 I0.28702057404114806 J0.6934213868427737 F500
G3 X95.35941071882144 Y55.935991871983745 I0 J0.7493014986029972
G3 X95.6032512065024 Y56.0985521971044 I-0.28702057404114806 J0.6934213868427737
G3 X95.76581153162307 Y56.34239268478537 I-0.5308610617221234 J0.5308610617221234
G3 X95.82169164338328 Y56.62941325882652 I-0.6934213868427737 J0.28702057404114806
G1 X95.82169164338328 Y56.62941325882652
G1 X95.82169164338328 Y56.62941325882652
G3 X95.76581153162307 Y56.91643383286767 I-0.7493014986029972 J0
G3 X95.6032512065024 Y57.160274320548645 I-0.6934213868427737 J-0.28702057404114806
G3 X95.35941071882144 Y57.32283464566929 I-0.5308610617221234 J-0.5308610617221234
G3 X95.0723901447803 Y57.37871475742952 I-0.28702057404114806 J-0.6934213868427737
G3 X94.78536957073914 Y57.32283464566929 I0 J-0.7493014986029972
G3 X94.54152908305817 Y57.160274320548645 I0.28702057404114806 J-0.6934213868427737
G3 X94.37896875793753 Y56.91643383286767 I0.5308610617221234 J-0.5308610617221234
G3 X94.3230886461773 Y56.62941325882652 I0.6934213868427737 J-0.28702057404114806
G1 X94.3230886461773 Y56.62941325882652
G1 X94.3230886461773 Y56.62941325882652
G3 X94.37896875793753 Y56.34239268478537 I0.7493014986029972 J0
G3 X94.54152908305817 Y56.0985521971044 I0.6934213868427737 J0.28702057404114806
G3 X94.78536957073914 Y55.935991871983745 I0.5308610617221234 J0.5308610617221234
G1 Z-1.7495554991109983 F500
G3 X95.0723901447803 Y55.877571755143514 I0.28702057404114806 J0.6934213868427737 F500
G3 X95.35941071882144 Y55.935991871983745 I0 J0.7493014986029972
G3 X95.6032512065024 Y56.0985521971044 I-0.28702057404114806 J0.6934213868427737
G3 X95.76581153162307 Y56.34239268478537 I-0.5308610617221234 J0.5308610617221234
G3 X95.82169164338328 Y56.62941325882652 I-0.6934213868427737 J0.28702057404114806
G1 X95.82169164338328 Y56.62941325882652
G1 X95.82169164338328 Y56.62941325882652
G3 X95.76581153162307 Y56.91643383286767 I-0.7493014986029972 J0
G3 X95.6032512065024 Y57.160274320548645 I-0.6934213868427737 J-0.28702057404114806
G3 X95.35941071882144 Y57.32283464566929 I-0.5308610617221234 J-0.5308610617221234
G3 X95.0723901447803 Y57.37871475742952 I-0.28702057404114806 J-0.6934213868427737
G3 X94.78536957073914 Y57.32283464566929 I0 J-0.7493014986029972
G3 X94.54152908305817 Y57.160274320548645 I0.28702057404114806 J-0.6934213868427737
G3 X94.37896875793753 Y56.91643383286767 I0.5308610617221234 J-0.5308610617221234
G3 X94.3230886461773 Y56.62941325882652 I0.6934213868427737 J-0.28702057404114806
G1 X94.3230886461773 Y56.62941325882652
G1 X94.3230886461773 Y56.62941325882652
G3 X94.37896875793753 Y56.34239268478537 I0.7493014986029972 J0
G3 X94.54152908305817 Y56.0985521971044 I0.6934213868427737 J0.28702057404114806
G3 X94.78536957073914 Y55.935991871983745 I0.5308610617221234 J0.5308610617221234
G1 Z-1.9994919989839979 F500
G3 X95.0723901447803 Y55.877571755143514 I0.28702057404114806 J0.6934213868427737 F500
G3 X95.35941071882144 Y55.935991871983745 I0 J0.7493014986029972
G3 X95.6032512065024 Y56.0985521971044 I-0.28702057404114806 J0.6934213868427737
G3 X95.76581153162307 Y56.34239268478537 I-0.5308610617221234 J0.5308610617221234
G3 X95.82169164338328 Y56.62941325882652 I-0.6934213868427737 J0.28702057404114806
G1 X95.82169164338328 Y56.62941325882652
G1 X95.82169164338328 Y56.62941325882652
G3 X95.76581153162307 Y56.91643383286767 I-0.7493014986029972 J0
G3 X95.6032512065024 Y57.160274320548645 I-0.6934213868427737 J-0.28702057404114806
G3 X95.35941071882144 Y57.32283464566929 I-0.5308610617221234 J-0.5308610617221234
G3 X95.0723901447803 Y57.37871475742952 I-0.28702057404114806 J-0.6934213868427737
G3 X94.78536957073914 Y57.32283464566929 I0 J-0.7493014986029972
G3 X94.54152908305817 Y57.160274320548645 I0.28702057404114806 J-0.6934213868427737
G3 X94.37896875793753 Y56.91643383286767 I0.5308610617221234 J-0.5308610617221234
G3 X94.3230886461773 Y56.62941325882652 I0.6934213868427737 J-0.28702057404114806
G1 X94.3230886461773 Y56.62941325882652
G1 X94.3230886461773 Y56.62941325882652
G3 X94.37896875793753 Y56.34239268478537 I0.7493014986029972 J0
G3 X94.54152908305817 Y56.0985521971044 I0.6934213868427737 J0.28702057404114806
G3 X94.78536957073914 Y55.935991871983745 I0.5308610617221234 J0.5308610617221234
G1 Z-2.249428498856998 F500
G3 X95.0723901447803 Y55.877571755143514 I0.28702057404114806 J0.6934213868427737 F500
G3 X95.35941071882144 Y55.935991871983745 I0 J0.7493014986029972
G3 X95.6032512065024 Y56.0985521971044 I-0.28702057404114806 J0.6934213868427737
G3 X95.76581153162307 Y56.34239268478537 I-0.5308610617221234 J0.5308610617221234
G3 X95.82169164338328 Y56.62941325882652 I-0.6934213868427737 J0.28702057404114806
G1 X95.82169164338328 Y56.62941325882652
G1 X95.82169164338328 Y56.62941325882652
G3 X95.76581153162307 Y56.91643383286767 I-0.7493014986029972 J0
G3 X95.6032512065024 Y57.160274320548645 I-0.6934213868427737 J-0.28702057404114806
G3 X95.35941071882144 Y57.32283464566929 I-0.5308610617221234 J-0.5308610617221234
G3 X95.0723901447803 Y57.37871475742952 I-0.28702057404114806 J-0.6934213868427737
G3 X94.78536957073914 Y57.32283464566929 I0 J-0.7493014986029972
G3 X94.54152908305817 Y57.160274320548645 I0.28702057404114806 J-0.6934213868427737
G3 X94.37896875793753 Y56.91643383286767 I0.5308610617221234 J-0.5308610617221234
G3 X94.3230886461773 Y56.62941325882652 I0.6934213868427737 J-0.28702057404114806
G1 X94.3230886461773 Y56.62941325882652
G1 X94.3230886461773 Y56.62941325882652
G3 X94.37896875793753 Y56.34239268478537 I0.7493014986029972 J0
G3 X94.54152908305817 Y56.0985521971044 I0.6934213868427737 J0.28702057404114806
G3 X94.78536957073914 Y55.935991871983745 I0.5308610617221234 J0.5308610617221234
G1 Z-2.4993649987299973 F500
G3 X95.0723901447803 Y55.877571755143514 I0.28702057404114806 J0.6934213868427737 F500
G3 X95.35941071882144 Y55.935991871983745 I0 J0.7493014986029972
G3 X95.6032512065024 Y56.0985521971044 I-0.28702057404114806 J0.6934213868427737
G3 X95.76581153162307 Y56.34239268478537 I-0.5308610617221234 J0.5308610617221234
G3 X95.82169164338328 Y56.62941325882652 I-0.6934213868427737 J0.28702057404114806
G1 X95.82169164338328 Y56.62941325882652
G1 X95.82169164338328 Y56.62941325882652
G3 X95.76581153162307 Y56.91643383286767 I-0.7493014986029972 J0
G3 X95.6032512065024 Y57.160274320548645 I-0.6934213868427737 J-0.28702057404114806
G3 X95.35941071882144 Y57.32283464566929 I-0.5308610617221234 J-0.5308610617221234
G3 X95.0723901447803 Y57.37871475742952 I-0.28702057404114806 J-0.6934213868427737
G3 X94.78536957073914 Y57.32283464566929 I0 J-0.7493014986029972
G3 X94.54152908305817 Y57.160274320548645 I0.28702057404114806 J-0.6934213868427737
G3 X94.37896875793753 Y56.91643383286767 I0.5308610617221234 J-0.5308610617221234
G3 X94.3230886461773 Y56.62941325882652 I0.6934213868427737 J-0.28702057404114806
G1 X94.3230886461773 Y56.62941325882652
G1 X94.3230886461773 Y56.62941325882652
G3 X94.37896875793753 Y56.34239268478537 I0.7493014986029972 J0
G3 X94.54152908305817 Y56.0985521971044 I0.6934213868427737 J0.28702057404114806
G3 X94.78536957073914 Y55.935991871983745 I0.5308610617221234 J0.5308610617221234
G1 Z-2.749301498602997 F500
G3 X95.0723901447803 Y55.877571755143514 I0.28702057404114806 J0.6934213868427737 F500
G3 X95.35941071882144 Y55.935991871983745 I0 J0.7493014986029972
G3 X95.6032512065024 Y56.0985521971044 I-0.28702057404114806 J0.6934213868427737
G3 X95.76581153162307 Y56.34239268478537 I-0.5308610617221234 J0.5308610617221234
G3 X95.82169164338328 Y56.62941325882652 I-0.6934213868427737 J0.28702057404114806
G1 X95.82169164338328 Y56.62941325882652
G1 X95.82169164338328 Y56.62941325882652
G3 X95.76581153162307 Y56.91643383286767 I-0.7493014986029972 J0
G3 X95.6032512065024 Y57.160274320548645 I-0.6934213868427737 J-0.28702057404114806
G3 X95.35941071882144 Y57.32283464566929 I-0.5308610617221234 J-0.5308610617221234
G3 X95.0723901447803 Y57.37871475742952 I-0.28702057404114806 J-0.6934213868427737
G3 X94.78536957073914 Y57.32283464566929 I0 J-0.7493014986029972
G3 X94.54152908305817 Y57.160274320548645 I0.28702057404114806 J-0.6934213868427737
G3 X94.37896875793753 Y56.91643383286767 I0.5308610617221234 J-0.5308610617221234
G3 X94.3230886461773 Y56.62941325882652 I0.6934213868427737 J-0.28702057404114806
G1 X94.3230886461773 Y56.62941325882652
G1 X94.3230886461773 Y56.62941325882652
G3 X94.37896875793753 Y56.34239268478537 I0.7493014986029972 J0
G3 X94.54152908305817 Y56.0985521971044 I0.6934213868427737 J0.28702057404114806
G3 X94.78536957073914 Y55.935991871983745 I0.5308610617221234 J0.5308610617221234
G1 Z-2.999237998475997 F500
G3 X95.0723901447803 Y55.877571755143514 I0.28702057404114806 J0.6934213868427737 F500
G3 X95.35941071882144 Y55.935991871983745 I0 J0.7493014986029972
G3 X95.6032512065024 Y56.0985521971044 I-0.28702057404114806 J0.6934213868427737
G3 X95.76581153162307 Y56.34239268478537 I-0.5308610617221234 J0.5308610617221234
G3 X95.82169164338328 Y56.62941325882652 I-0.6934213868427737 J0.28702057404114806
G1 X95.82169164338328 Y56.62941325882652
G1 X95.82169164338328 Y56.62941325882652
G3 X95.76581153162307 Y56.91643383286767 I-0.7493014986029972 J0
G3 X95.6032512065024 Y57.160274320548645 I-0.6934213868427737 J-0.28702057404114806
G3 X95.35941071882144 Y57.32283464566929 I-0.5308610617221234 J-0.5308610617221234
G3 X95.0723901447803 Y57.37871475742952 I-0.28702057404114806 J-0.6934213868427737
G3 X94.78536957073914 Y57.32283464566929 I0 J-0.7493014986029972
G3 X94.54152908305817 Y57.160274320548645 I0.28702057404114806 J-0.6934213868427737
G3 X94.37896875793753 Y56.91643383286767 I0.5308610617221234 J-0.5308610617221234
G3 X94.3230886461773 Y56.62941325882652 I0.6934213868427737 J-0.28702057404114806
G1 X94.3230886461773 Y56.62941325882652
G1 X94.3230886461773 Y56.62941325882652
G3 X94.37896875793753 Y56.34239268478537 I0.7493014986029972 J0
G3 X94.54152908305817 Y56.0985521971044 I0.6934213868427737 J0.28702057404114806
G3 X94.78536957073914 Y55.935991871983745 I0.5308610617221234 J0.5308610617221234
G1 Z-3 F500
G3 X95.0723901447803 Y55.877571755143514 I0.28702057404114806 J0.6934213868427737 F500
G3 X95.35941071882144 Y55.935991871983745 I0 J0.7493014986029972
G3 X95.6032512065024 Y56.0985521971044 I-0.28702057404114806 J0.6934213868427737
G3 X95.76581153162307 Y56.34239268478537 I-0.5308610617221234 J0.5308610617221234
G3 X95.82169164338328 Y56.62941325882652 I-0.6934213868427737 J0.28702057404114806
G1 X95.82169164338328 Y56.62941325882652
G1 X95.82169164338328 Y56.62941325882652
G3 X95.76581153162307 Y56.91643383286767 I-0.7493014986029972 J0
G3 X95.6032512065024 Y57.160274320548645 I-0.6934213868427737 J-0.28702057404114806
G3 X95.35941071882144 Y57.32283464566929 I-0.5308610617221234 J-0.5308610617221234
G3 X95.0723901447803 Y57.37871475742952 I-0.28702057404114806 J-0.6934213868427737
G3 X94.78536957073914 Y57.32283464566929 I0 J-0.7493014986029972
G3 X94.54152908305817 Y57.160274320548645 I0.28702057404114806 J-0.6934213868427737
G3 X94.37896875793753 Y56.91643383286767 I0.5308610617221234 J-0.5308610617221234
G3 X94.3230886461773 Y56.62941325882652 I0.6934213868427737 J-0.28702057404114806
G1 X94.3230886461773 Y56.62941325882652
G1 X94.3230886461773 Y56.62941325882652
G3 X94.37896875793753 Y56.34239268478537 I0.7493014986029972 J0
G3 X94.54152908305817 Y56.0985521971044 I0.6934213868427737 J0.28702057404114806
G3 X94.78536957073914 Y55.935991871983745 I0.5308610617221234 J0.5308610617221234
G0 Z3
G0 X94.78536957073914 Y1.9606299212598426
G1 Z-0.24993649987299973 F500
G3 X95.0723901447803 Y1.90246380492761 I0.28702057404114806 J0.6934213868427737 F500
G3 X95.35941071882144 Y1.9608839217678438 I0 J0.7493014986029972
G3 X95.6032512065024 Y2.1234442468884938 I-0.28702057404114806 J0.6934213868427737
G3 X95.76581153162307 Y2.367284734569469 I-0.5308610617221234 J0.5308610617221234
G3 X95.82169164338328 Y2.654305308610617 I-0.6934213868427737 J0.28702057404114806
G3 X95.76581153162307 Y2.941325882651765 I-0.7493014986029972 J0
G3 X95.6032512065024 Y3.1826263652527302 I-0.6934213868427737 J-0.28702057404114806
G3 X95.35941071882144 Y3.3451866903733807 I-0.5308610617221234 J-0.5308610617221234
G3 X95.0723901447803 Y3.4036068072136145 I-0.28702057404114806 J-0.6934213868427737
G3 X94.78536957073914 Y3.3451866903733807 I0 J-0.7493014986029972
G3 X94.54152908305817 Y3.1826263652527302 I0.28702057404114806 J-0.6934213868427737
G3 X94.37896875793753 Y2.941325882651765 I0.5308610617221234 J-0.5308610617221234
G3 X94.3230886461773 Y2.654305308610617 I0.6934213868427737 J-0.28702057404114806
G1 X94.3230886461773 Y2.654305308610617
G3 X94.37896875793753 Y2.367284734569469 I0.7493014986029972 J0
G3 X94.54152908305817 Y2.1234442468884938 I0.6934213868427737 J0.28702057404114806
G3 X94.78536957073914 Y1.9608839217678438 I0.5308610617221234 J0.5308610617221234
G1 Z-0.49987299974599947 F500
G3 X95.0723901447803 Y1.90246380492761 I0.28702057404114806 J0.6934213868427737 F500
G3 X95.35941071882144 Y1.9608839217678438 I0 J0.7493014986029972
G3 X95.6032512065024 Y2.1234442468884938 I-0.28702057404114806 J0.6934213868427737
G3 X95.76581153162307 Y2.367284734569469 I-0.5308610617221234 J0.5308610617221234
G3 X95.82169164338328 Y2.654305308610617 I-0.6934213868427737 J0.28702057404114806
G3 X95.76581153162307 Y2.941325882651765 I-0.7493014986029972 J0
G3 X95.6032512065024 Y3.1826263652527302 I-0.6934213868427737 J-0.28702057404114806
G3 X95.35941071882144 Y3.3451866903733807 I-0.5308610617221234 J-0.5308610617221234
G3 X95.0723901447803 Y3.4036068072136145 I-0.28702057404114806 J-0.6934213868427737
G3 X94.78536957073914 Y3.3451866903733807 I0 J-0.7493014986029972
G3 X94.54152908305817 Y3.1826263652527302 I0.28702057404114806 J-0.6934213868427737
G3 X94.37896875793753 Y2.941325882651765 I0.5308610617221234 J-0.5308610617221234
G3 X94.3230886461773 Y2.654305308610617 I0.6934213868427737 J-0.28702057404114806
G1 X94.3230886461773 Y2.654305308610617
G3 X94.37896875793753 Y2.367284734569469 I0.7493014986029972 J0
G3 X94.54152908305817 Y2.1234442468884938 I0.6934213868427737 J0.28702057404114806
G3 X94.78536957073914 Y1.9608839217678438 I0.5308610617221234 J0.5308610617221234
G1 Z-0.7498094996189992 F500
G3 X95.0723901447803 Y1.90246380492761 I0.28702057404114806 J0.6934213868427737 F500
G3 X95.35941071882144 Y1.9608839217678438 I0 J0.7493014986029972
G3 X95.6032512065024 Y2.1234442468884938 I-0.28702057404114806 J0.6934213868427737
G3 X95.76581153162307 Y2.367284734569469 I-0.5308610617221234 J0.5308610617221234
G3 X95.82169164338328 Y2.654305308610617 I-0.6934213868427737 J0.28702057404114806
G3 X95.76581153162307 Y2.941325882651765 I-0.7493014986029972 J0
G3 X95.6032512065024 Y3.1826263652527302 I-0.6934213868427737 J-0.28702057404114806
G3 X95.35941071882144 Y3.3451866903733807 I-0.5308610617221234 J-0.5308610617221234
G3 X95.0723901447803 Y3.4036068072136145 I-0.28702057404114806 J-0.6934213868427737
G3 X94.78536957073914 Y3.3451866903733807 I0 J-0.7493014986029972
G3 X94.54152908305817 Y3.1826263652527302 I0.28702057404114806 J-0.6934213868427737
G3 X94.37896875793753 Y2.941325882651765 I0.5308610617221234 J-0.5308610617221234
G3 X94.3230886461773 Y2.654305308610617 I0.6934213868427737 J-0.28702057404114806
G1 X94.3230886461773 Y2.654305308610617
G3 X94.37896875793753 Y2.367284734569469 I0.7493014986029972 J0
G3 X94.54152908305817 Y2.1234442468884938 I0.6934213868427737 J0.28702057404114806
G3 X94.78536957073914 Y1.9608839217678438 I0.5308610617221234 J0.5308610617221234
G1 Z-0.9997459994919989 F500
G3 X95.0723901447803 Y1.90246380492761 I0.28702057404114806 J0.6934213868427737 F500
G3 X95.35941071882144 Y1.9608839217678438 I0 J0.7493014986029972
G3 X95.6032512065024 Y2.1234442468884938 I-0.28702057404114806 J0.6934213868427737
G3 X95.76581153162307 Y2.367284734569469 I-0.5308610617221234 J0.5308610617221234
G3 X95.82169164338328 Y2.654305308610617 I-0.6934213868427737 J0.28702057404114806
G3 X95.76581153162307 Y2.941325882651765 I-0.7493014986029972 J0
G3 X95.6032512065024 Y3.1826263652527302 I-0.6934213868427737 J-0.28702057404114806
G3 X95.35941071882144 Y3.3451866903733807 I-0.5308610617221234 J-0.5308610617221234
G3 X95.0723901447803 Y3.4036068072136145 I-0.28702057404114806 J-0.6934213868427737
G3 X94.78536957073914 Y3.3451866903733807 I0 J-0.7493014986029972
G3 X94.54152908305817 Y3.1826263652527302 I0.28702057404114806 J-0.6934213868427737
G3 X94.37896875793753 Y2.941325882651765 I0.5308610617221234 J-0.5308610617221234
G3 X94.3230886461773 Y2.654305308610617 I0.6934213868427737 J-0.28702057404114806
G1 X94.3230886461773 Y2.654305308610617
G3 X94.37896875793753 Y2.367284734569469 I0.7493014986029972 J0
G3 X94.54152908305817 Y2.1234442468884938 I0.6934213868427737 J0.28702057404114806
G3 X94.78536957073914 Y1.9608839217678438 I0.5308610617221234 J0.5308610617221234
G1 Z-1.2496824993649986 F500
G3 X95.0723901447803 Y1.90246380492761 I0.28702057404114806 J0.6934213868427737 F500
G3 X95.35941071882144 Y1.9608839217678438 I0 J0.7493014986029972
G3 X95.6032512065024 Y2.1234442468884938 I-0.28702057404114806 J0.6934213868427737
G3 X95.76581153162307 Y2.367284734569469 I-0.5308610617221234 J0.5308610617221234
G3 X95.82169164338328 Y2.654305308610617 I-0.6934213868427737 J0.28702057404114806
G3 X95.76581153162307 Y2.941325882651765 I-0.7493014986029972 J0
G3 X95.6032512065024 Y3.1826263652527302 I-0.6934213868427737 J-0.28702057404114806
G3 X95.35941071882144 Y3.3451866903733807 I-0.5308610617221234 J-0.5308610617221234
G3 X95.0723901447803 Y3.4036068072136145 I-0.28702057404114806 J-0.6934213868427737
G3 X94.78536957073914 Y3.3451866903733807 I0 J-0.7493014986029972
G3 X94.54152908305817 Y3.1826263652527302 I0.28702057404114806 J-0.6934213868427737
G3 X94.37896875793753 Y2.941325882651765 I0.5308610617221234 J-0.5308610617221234
G3 X94.3230886461773 Y2.654305308610617 I0.6934213868427737 J-0.28702057404114806
G1 X94.3230886461773 Y2.654305308610617
G3 X94.37896875793753 Y2.367284734569469 I0.7493014986029972 J0
G3 X94.54152908305817 Y2.1234442468884938 I0.6934213868427737 J0.28702057404114806
G3 X94.78536957073914 Y1.9608839217678438 I0.5308610617221234 J0.5308610617221234
G1 Z-1.4996189992379985 F500
G3 X95.0723901447803 Y1.90246380492761 I0.28702057404114806 J0.6934213868427737 F500
G3 X95.35941071882144 Y1.9608839217678438 I0 J0.7493014986029972
G3 X95.6032512065024 Y2.1234442468884938 I-0.28702057404114806 J0.6934213868427737
G3 X95.76581153162307 Y2.367284734569469 I-0.5308610617221234 J0.5308610617221234
G3 X95.82169164338328 Y2.654305308610617 I-0.6934213868427737 J0.28702057404114806
G3 X95.76581153162307 Y2.941325882651765 I-0.7493014986029972 J0
G3 X95.6032512065024 Y3.1826263652527302 I-0.6934213868427737 J-0.28702057404114806
G3 X95.35941071882144 Y3.3451866903733807 I-0.5308610617221234 J-0.5308610617221234
G3 X95.0723901447803 Y3.4036068072136145 I-0.28702057404114806 J-0.6934213868427737
G3 X94.78536957073914 Y3.3451866903733807 I0 J-0.7493014986029972
G3 X94.54152908305817 Y3.1826263652527302 I0.28702057404114806 J-0.6934213868427737
G3 X94.37896875793753 Y2.941325882651765 I0.5308610617221234 J-0.5308610617221234
G3 X94.3230886461773 Y2.654305308610617 I0.6934213868427737 J-0.28702057404114806
G1 X94.3230886461773 Y2.654305308610617
G3 X94.37896875793753 Y2.367284734569469 I0.7493014986029972 J0
G3 X94.54152908305817 Y2.1234442468884938 I0.6934213868427737 J0.28702057404114806
G3 X94.78536957073914 Y1.9608839217678438 I0.5308610617221234 J0.5308610617221234
G1 Z-1.7495554991109983 F500
G3 X95.0723901447803 Y1.90246380492761 I0.28702057404114806 J0.6934213868427737 F500
G3 X95.35941071882144 Y1.9608839217678438 I0 J0.7493014986029972
G3 X95.6032512065024 Y2.1234442468884938 I-0.28702057404114806 J0.6934213868427737
G3 X95.76581153162307 Y2.367284734569469 I-0.5308610617221234 J0.5308610617221234
G3 X95.82169164338328 Y2.654305308610617 I-0.6934213868427737 J0.28702057404114806
G3 X95.76581153162307 Y2.941325882651765 I-0.7493014986029972 J0
G3 X95.6032512065024 Y3.1826263652527302 I-0.6934213868427737 J-0.28702057404114806
G3 X95.35941071882144 Y3.3451866903733807 I-0.5308610617221234 J-0.5308610617221234
G3 X95.0723901447803 Y3.4036068072136145 I-0.28702057404114806 J-0.6934213868427737
G3 X94.78536957073914 Y3.3451866903733807 I0 J-0.7493014986029972
G3 X94.54152908305817 Y3.1826263652527302 I0.28702057404114806 J-0.6934213868427737
G3 X94.37896875793753 Y2.941325882651765 I0.5308610617221234 J-0.5308610617221234
G3 X94.3230886461773 Y2.654305308610617 I0.6934213868427737 J-0.28702057404114806
G1 X94.3230886461773 Y2.654305308610617
G3 X94.37896875793753 Y2.367284734569469 I0.7493014986029972 J0
G3 X94.54152908305817 Y2.1234442468884938 I0.6934213868427737 J0.28702057404114806
G3 X94.78536957073914 Y1.9608839217678438 I0.5308610617221234 J0.5308610617221234
G1 Z-1.9994919989839979 F500
G3 X95.0723901447803 Y1.90246380492761 I0.28702057404114806 J0.6934213868427737 F500
G3 X95.35941071882144 Y1.9608839217678438 I0 J0.7493014986029972
G3 X95.6032512065024 Y2.1234442468884938 I-0.28702057404114806 J0.6934213868427737
G3 X95.76581153162307 Y2.367284734569469 I-0.5308610617221234 J0.5308610617221234
G3 X95.82169164338328 Y2.654305308610617 I-0.6934213868427737 J0.28702057404114806
G3 X95.76581153162307 Y2.941325882651765 I-0.7493014986029972 J0
G3 X95.6032512065024 Y3.1826263652527302 I-0.6934213868427737 J-0.28702057404114806
G3 X95.35941071882144 Y3.3451866903733807 I-0.5308610617221234 J-0.5308610617221234
G3 X95.0723901447803 Y3.4036068072136145 I-0.28702057404114806 J-0.6934213868427737
G3 X94.78536957073914 Y3.3451866903733807 I0 J-0.7493014986029972
G3 X94.54152908305817 Y3.1826263652527302 I0.28702057404114806 J-0.6934213868427737
G3 X94.37896875793753 Y2.941325882651765 I0.5308610617221234 J-0.5308610617221234
G3 X94.3230886461773 Y2.654305308610617 I0.6934213868427737 J-0.28702057404114806
G1 X94.3230886461773 Y2.654305308610617
G3 X94.37896875793753 Y2.367284734569469 I0.7493014986029972 J0
G3 X94.54152908305817 Y2.1234442468884938 I0.6934213868427737 J0.28702057404114806
G3 X94.78536957073914 Y1.9608839217678438 I0.5308610617221234 J0.5308610617221234
G1 Z-2.249428498856998 F500
G3 X95.0723901447803 Y1.90246380492761 I0.28702057404114806 J0.6934213868427737 F500
G3 X95.35941071882144 Y1.9608839217678438 I0 J0.7493014986029972
G3 X95.6032512065024 Y2.1234442468884938 I-0.28702057404114806 J0.6934213868427737
G3 X95.76581153162307 Y2.367284734569469 I-0.5308610617221234 J0.5308610617221234
G3 X95.82169164338328 Y2.654305308610617 I-0.6934213868427737 J0.28702057404114806
G3 X95.76581153162307 Y2.941325882651765 I-0.7493014986029972 J0
G3 X95.6032512065024 Y3.1826263652527302 I-0.6934213868427737 J-0.28702057404114806
G3 X95.35941071882144 Y3.3451866903733807 I-0.5308610617221234 J-0.5308610617221234
G3 X95.0723901447803 Y3.4036068072136145 I-0.28702057404114806 J-0.6934213868427737
G3 X94.78536957073914 Y3.3451866903733807 I0 J-0.7493014986029972
G3 X94.54152908305817 Y3.1826263652527302 I0.28702057404114806 J-0.6934213868427737
G3 X94.37896875793753 Y2.941325882651765 I0.5308610617221234 J-0.5308610617221234
G3 X94.3230886461773 Y2.654305308610617 I0.6934213868427737 J-0.28702057404114806
G1 X94.3230886461773 Y2.654305308610617
G3 X94.37896875793753 Y2.367284734569469 I0.7493014986029972 J0
G3 X94.54152908305817 Y2.1234442468884938 I0.6934213868427737 J0.28702057404114806
G3 X94.78536957073914 Y1.9608839217678438 I0.5308610617221234 J0.5308610617221234
G1 Z-2.4993649987299973 F500
G3 X95.0723901447803 Y1.90246380492761 I0.28702057404114806 J0.6934213868427737 F500
G3 X95.35941071882144 Y1.9608839217678438 I0 J0.7493014986029972
G3 X95.6032512065024 Y2.1234442468884938 I-0.28702057404114806 J0.6934213868427737
G3 X95.76581153162307 Y2.367284734569469 I-0.5308610617221234 J0.5308610617221234
G3 X95.82169164338328 Y2.654305308610617 I-0.6934213868427737 J0.28702057404114806
G3 X95.76581153162307 Y2.941325882651765 I-0.7493014986029972 J0
G3 X95.6032512065024 Y3.1826263652527302 I-0.6934213868427737 J-0.28702057404114806
G3 X95.35941071882144 Y3.3451866903733807 I-0.5308610617221234 J-0.5308610617221234
G3 X95.0723901447803 Y3.4036068072136145 I-0.28702057404114806 J-0.6934213868427737
G3 X94.78536957073914 Y3.3451866903733807 I0 J-0.7493014986029972
G3 X94.54152908305817 Y3.1826263652527302 I0.28702057404114806 J-0.6934213868427737
G3 X94.37896875793753 Y2.941325882651765 I0.5308610617221234 J-0.5308610617221234
G3 X94.3230886461773 Y2.654305308610617 I0.6934213868427737 J-0.28702057404114806
G1 X94.3230886461773 Y2.654305308610617
G3 X94.37896875793753 Y2.367284734569469 I0.7493014986029972 J0
G3 X94.54152908305817 Y2.1234442468884938 I0.6934213868427737 J0.28702057404114806
G3 X94.78536957073914 Y1.9608839217678438 I0.5308610617221234 J0.5308610617221234
G1 Z-2.749301498602997 F500
G3 X95.0723901447803 Y1.90246380492761 I0.28702057404114806 J0.6934213868427737 F500
G3 X95.35941071882144 Y1.9608839217678438 I0 J0.7493014986029972
G3 X95.6032512065024 Y2.1234442468884938 I-0.28702057404114806 J0.6934213868427737
G3 X95.76581153162307 Y2.367284734569469 I-0.5308610617221234 J0.5308610617221234
G3 X95.82169164338328 Y2.654305308610617 I-0.6934213868427737 J0.28702057404114806
G3 X95.76581153162307 Y2.941325882651765 I-0.7493014986029972 J0
G3 X95.6032512065024 Y3.1826263652527302 I-0.6934213868427737 J-0.28702057404114806
G3 X95.35941071882144 Y3.3451866903733807 I-0.5308610617221234 J-0.5308610617221234
G3 X95.0723901447803 Y3.4036068072136145 I-0.28702057404114806 J-0.6934213868427737
G3 X94.78536957073914 Y3.3451866903733807 I0 J-0.7493014986029972
G3 X94.54152908305817 Y3.1826263652527302 I0.28702057404114806 J-0.6934213868427737
G3 X94.37896875793753 Y2.941325882651765 I0.5308610617221234 J-0.5308610617221234
G3 X94.3230886461773 Y2.654305308610617 I0.6934213868427737 J-0.28702057404114806
G1 X94.3230886461773 Y2.654305308610617
G3 X94.37896875793753 Y2.367284734569469 I0.7493014986029972 J0
G3 X94.54152908305817 Y2.1234442468884938 I0.6934213868427737 J0.28702057404114806
G3 X94.78536957073914 Y1.9608839217678438 I0.5308610617221234 J0.5308610617221234
G1 Z-2.999237998475997 F500
G3 X95.0723901447803 Y1.90246380492761 I0.28702057404114806 J0.6934213868427737 F500
G3 X95.35941071882144 Y1.9608839217678438 I0 J0.7493014986029972
G3 X95.6032512065024 Y2.1234442468884938 I-0.28702057404114806 J0.6934213868427737
G3 X95.76581153162307 Y2.367284734569469 I-0.5308610617221234 J0.5308610617221234
G3 X95.82169164338328 Y2.654305308610617 I-0.6934213868427737 J0.28702057404114806
G3 X95.76581153162307 Y2.941325882651765 I-0.7493014986029972 J0
G3 X95.6032512065024 Y3.1826263652527302 I-0.6934213868427737 J-0.28702057404114806
G3 X95.35941071882144 Y3.3451866903733807 I-0.5308610617221234 J-0.5308610617221234
G3 X95.0723901447803 Y3.4036068072136145 I-0.28702057404114806 J-0.6934213868427737
G3 X94.78536957073914 Y3.3451866903733807 I0 J-0.7493014986029972
G3 X94.54152908305817 Y3.1826263652527302 I0.28702057404114806 J-0.6934213868427737
G3 X94.37896875793753 Y2.941325882651765 I0.5308610617221234 J-0.5308610617221234
G3 X94.3230886461773 Y2.654305308610617 I0.6934213868427737 J-0.28702057404114806
G1 X94.3230886461773 Y2.654305308610617
G3 X94.37896875793753 Y2.367284734569469 I0.7493014986029972 J0
G3 X94.54152908305817 Y2.1234442468884938 I0.6934213868427737 J0.28702057404114806
G3 X94.78536957073914 Y1.9608839217678438 I0.5308610617221234 J0.5308610617221234
G1 Z-3 F500
G3 X95.0723901447803 Y1.90246380492761 I0.28702057404114806 J0.6934213868427737 F500
G3 X95.35941071882144 Y1.9608839217678438 I0 J0.7493014986029972
G3 X95.6032512065024 Y2.1234442468884938 I-0.28702057404114806 J0.6934213868427737
G3 X95.76581153162307 Y2.367284734569469 I-0.5308610617221234 J0.5308610617221234
G3 X95.82169164338328 Y2.654305308610617 I-0.6934213868427737 J0.28702057404114806
G3 X95.76581153162307 Y2.941325882651765 I-0.7493014986029972 J0
G3 X95.6032512065024 Y3.1826263652527302 I-0.6934213868427737 J-0.28702057404114806
G3 X95.35941071882144 Y3.3451866903733807 I-0.5308610617221234 J-0.5308610617221234
G3 X95.0723901447803 Y3.4036068072136145 I-0.28702057404114806 J-0.6934213868427737
G3 X94.78536957073914 Y3.3451866903733807 I0 J-0.7493014986029972
G3 X94.54152908305817 Y3.1826263652527302 I0.28702057404114806 J-0.6934213868427737
G3 X94.37896875793753 Y2.941325882651765 I0.5308610617221234 J-0.5308610617221234
G3 X94.3230886461773 Y2.654305308610617 I0.6934213868427737 J-0.28702057404114806
G1 X94.3230886461773 Y2.654305308610617
G3 X94.37896875793753 Y2.367284734569469 I0.7493014986029972 J0
G3 X94.54152908305817 Y2.1234442468884938 I0.6934213868427737 J0.28702057404114806
G3 X94.78536957073914 Y1.9608839217678438 I0.5308610617221234 J0.5308610617221234
G0 Z3
G0 X2.4668529337058676 Y57.159512319024635
G1 Z-0.24993649987299973 F500
G3 X2.303784607569215 Y56.91643383286767 I0.5308610617221234 J-0.5308610617221234 F500
G3 X2.2479044958089918 Y56.62941325882652 I0.6934213868427737 J-0.28702057404114806
G1 X2.2479044958089918 Y56.62941325882652
G1 X2.2479044958089918 Y56.62941325882652
G3 X2.303784607569215 Y56.34239268478537 I0.7493014986029972 J0
G3 X2.466344932689865 Y56.0985521971044 I0.6934213868427737 J0.28702057404114806
G3 X2.710185420370841 Y55.935991871983745 I0.5308610617221234 J0.5308610617221234
G3 X2.997205994411989 Y55.877571755143514 I0.28702057404114806 J0.6934213868427737
G3 X3.284226568453137 Y55.935991871983745 I0 J0.7493014986029972
G3 X3.528067056134112 Y56.0985521971044 I-0.28702057404114806 J0.6934213868427737
G3 X3.6906273812547625 Y56.34239268478537 I-0.5308610617221234 J0.5308610617221234
G3 X3.746507493014986 Y56.62941325882652 I-0.6934213868427737 J0.28702057404114806
G1 X3.746507493014986 Y56.62941325882652
G1 X3.746507493014986 Y56.62941325882652
G3 X3.6906273812547625 Y56.91643383286767 I-0.7493014986029972 J0
G3 X3.528067056134112 Y57.160274320548645 I-0.6934213868427737 J-0.28702057404114806
G3 X3.284226568453137 Y57.32283464566929 I-0.5308610617221234 J-0.5308610617221234
G3 X2.997205994411989 Y57.37871475742952 I-0.28702057404114806 J-0.6934213868427737
G3 X2.710185420370841 Y57.32283464566929 I0 J-0.7493014986029972
G3 X2.466344932689865 Y57.160274320548645 I0.28702057404114806 J-0.6934213868427737
G1 Z-0.49987299974599947 F500
G3 X2.303784607569215 Y56.91643383286767 I0.5308610617221234 J-0.5308610617221234 F500
G3 X2.2479044958089918 Y56.62941325882652 I0.6934213868427737 J-0.28702057404114806
G1 X2.2479044958089918 Y56.62941325882652
G1 X2.2479044958089918 Y56.62941325882652
G3 X2.303784607569215 Y56.34239268478537 I0.7493014986029972 J0
G3 X2.466344932689865 Y56.0985521971044 I0.6934213868427737 J0.28702057404114806
G3 X2.710185420370841 Y55.935991871983745 I0.5308610617221234 J0.5308610617221234
G3 X2.997205994411989 Y55.877571755143514 I0.28702057404114806 J0.6934213868427737
G3 X3.284226568453137 Y55.935991871983745 I0 J0.7493014986029972
G3 X3.528067056134112 Y56.0985521971044 I-0.28702057404114806 J0.6934213868427737
G3 X3.6906273812547625 Y56.34239268478537 I-0.5308610617221234 J0.5308610617221234
G3 X3.746507493014986 Y56.62941325882652 I-0.6934213868427737 J0.28702057404114806
G1 X3.746507493014986 Y56.62941325882652
G1 X3.746507493014986 Y56.62941325882652
G3 X3.6906273812547625 Y56.91643383286767 I-0.7493014986029972 J0
G3 X3.528067056134112 Y57.160274320548645 I-0.6934213868427737 J-0.28702057404114806
G3 X3.284226568453137 Y57.32283464566929 I-0.5308610617221234 J-0.5308610617221234
G3 X2.997205994411989 Y57.37871475742952 I-0.28702057404114806 J-0.6934213868427737
G3 X2.710185420370841 Y57.32283464566929 I0 J-0.7493014986029972
G3 X2.466344932689865 Y57.160274320548645 I0.28702057404114806 J-0.6934213868427737
G1 Z-0.7498094996189992 F500
G3 X2.303784607569215 Y56.91643383286767 I0.5308610617221234 J-0.5308610617221234 F500
G3 X2.2479044958089918 Y56.62941325882652 I0.6934213868427737 J-0.28702057404114806
G1 X2.2479044958089918 Y56.62941325882652
G1 X2.2479044958089918 Y56.62941325882652
G3 X2.303784607569215 Y56.34239268478537 I0.7493014986029972 J0
G3 X2.466344932689865 Y56.0985521971044 I0.6934213868427737 J0.28702057404114806
G3 X2.710185420370841 Y55.935991871983745 I0.5308610617221234 J0.5308610617221234
G3 X2.997205994411989 Y55.877571755143514 I0.28702057404114806 J0.6934213868427737
G3 X3.284226568453137 Y55.935991871983745 I0 J0.7493014986029972
G3 X3.528067056134112 Y56.0985521971044 I-0.28702057404114806 J0.6934213868427737
G3 X3.6906273812547625 Y56.34239268478537 I-0.5308610617221234 J0.5308610617221234
G3 X3.746507493014986 Y56.62941325882652 I-0.6934213868427737 J0.28702057404114806
G1 X3.746507493014986 Y56.62941325882652
G1 X3.746507493014986 Y56.62941325882652
G3 X3.6906273812547625 Y56.91643383286767 I-0.7493014986029972 J0
G3 X3.528067056134112 Y57.160274320548645 I-0.6934213868427737 J-0.28702057404114806
G3 X3.284226568453137 Y57.32283464566929 I-0.5308610617221234 J-0.5308610617221234
G3 X2.997205994411989 Y57.37871475742952 I-0.28702057404114806 J-0.6934213868427737
G3 X2.710185420370841 Y57.32283464566929 I0 J-0.7493014986029972
G3 X2.466344932689865 Y57.160274320548645 I0.28702057404114806 J-0.6934213868427737
G1 Z-0.9997459994919989 F500
G3 X2.303784607569215 Y56.91643383286767 I0.5308610617221234 J-0.5308610617221234 F500
G3 X2.2479044958089918 Y56.62941325882652 I0.6934213868427737 J-0.28702057404114806
G1 X2.2479044958089918 Y56.62941325882652
G1 X2.2479044958089918 Y56.62941325882652
G3 X2.303784607569215 Y56.34239268478537 I0.7493014986029972 J0
G3 X2.466344932689865 Y56.0985521971044 I0.6934213868427737 J0.28702057404114806
G3 X2.710185420370841 Y55.935991871983745 I0.5308610617221234 J0.5308610617221234
G3 X2.997205994411989 Y55.877571755143514 I0.28702057404114806 J0.6934213868427737
G3 X3.284226568453137 Y55.935991871983745 I0 J0.7493014986029972
G3 X3.528067056134112 Y56.0985521971044 I-0.28702057404114806 J0.6934213868427737
G3 X3.6906273812547625 Y56.34239268478537 I-0.5308610617221234 J0.5308610617221234
G3 X3.746507493014986 Y56.62941325882652 I-0.6934213868427737 J0.28702057404114806
G1 X3.746507493014986 Y56.62941325882652
G1 X3.746507493014986 Y56.62941325882652
G3 X3.6906273812547625 Y56.91643383286767 I-0.7493014986029972 J0
G3 X3.528067056134112 Y57.160274320548645 I-0.6934213868427737 J-0.28702057404114806
G3 X3.284226568453137 Y57.32283464566929 I-0.5308610617221234 J-0.5308610617221234
G3 X2.997205994411989 Y57.37871475742952 I-0.28702057404114806 J-0.6934213868427737
G3 X2.710185420370841 Y57.32283464566929 I0 J-0.7493014986029972
G3 X2.466344932689865 Y57.160274320548645 I0.28702057404114806 J-0.6934213868427737
G1 Z-1.2496824993649986 F500
G3 X2.303784607569215 Y56.91643383286767 I0.5308610617221234 J-0.5308610617221234 F500
G3 X2.2479044958089918 Y56.62941325882652 I0.6934213868427737 J-0.28702057404114806
G1 X2.2479044958089918 Y56.62941325882652
G1 X2.2479044958089918 Y56.62941325882652
G3 X2.303784607569215 Y56.34239268478537 I0.7493014986029972 J0
G3 X2.466344932689865 Y56.0985521971044 I0.6934213868427737 J0.28702057404114806
G3 X2.710185420370841 Y55.935991871983745 I0.5308610617221234 J0.5308610617221234
G3 X2.997205994411989 Y55.877571755143514 I0.28702057404114806 J0.6934213868427737
G3 X3.284226568453137 Y55.935991871983745 I0 J0.7493014986029972
G3 X3.528067056134112 Y56.0985521971044 I-0.28702057404114806 J0.6934213868427737
G3 X3.6906273812547625 Y56.34239268478537 I-0.5308610617221234 J0.5308610617221234
G3 X3.746507493014986 Y56.62941325882652 I-0.6934213868427737 J0.28702057404114806
G1 X3.746507493014986 Y56.62941325882652
G1 X3.746507493014986 Y56.62941325882652
G3 X3.6906273812547625 Y56.91643383286767 I-0.7493014986029972 J0
G3 X3.528067056134112 Y57.160274320548645 I-0.6934213868427737 J-0.28702057404114806
G3 X3.284226568453137 Y57.32283464566929 I-0.5308610617221234 J-0.5308610617221234
G3 X2.997205994411989 Y57.37871475742952 I-0.28702057404114806 J-0.6934213868427737
G3 X2.710185420370841 Y57.32283464566929 I0 J-0.7493014986029972
G3 X2.466344932689865 Y57.160274320548645 I0.28702057404114806 J-0.6934213868427737
G1 Z-1.4996189992379985 F500
G3 X2.303784607569215 Y56.91643383286767 I0.5308610617221234 J-0.5308610617221234 F500
G3 X2.2479044958089918 Y56.62941325882652 I0.6934213868427737 J-0.28702057404114806
G1 X2.2479044958089918 Y56.62941325882652
G1 X2.2479044958089918 Y56.62941325882652
G3 X2.303784607569215 Y56.34239268478537 I0.7493014986029972 J0
G3 X2.466344932689865 Y56.0985521971044 I0.6934213868427737 J0.28702057404114806
G3 X2.710185420370841 Y55.935991871983745 I0.5308610617221234 J0.5308610617221234
G3 X2.997205994411989 Y55.877571755143514 I0.28702057404114806 J0.6934213868427737
G3 X3.284226568453137 Y55.935991871983745 I0 J0.7493014986029972
G3 X3.528067056134112 Y56.0985521971044 I-0.28702057404114806 J0.6934213868427737
G3 X3.6906273812547625 Y56.34239268478537 I-0.5308610617221234 J0.5308610617221234
G3 X3.746507493014986 Y56.62941325882652 I-0.6934213868427737 J0.28702057404114806
G1 X3.746507493014986 Y56.62941325882652
G1 X3.746507493014986 Y56.62941325882652
G3 X3.6906273812547625 Y56.91643383286767 I-0.7493014986029972 J0
G3 X3.528067056134112 Y57.160274320548645 I-0.6934213868427737 J-0.28702057404114806
G3 X3.284226568453137 Y57.32283464566929 I-0.5308610617221234 J-0.5308610617221234
G3 X2.997205994411989 Y57.37871475742952 I-0.28702057404114806 J-0.6934213868427737
G3 X2.710185420370841 Y57.32283464566929 I0 J-0.7493014986029972
G3 X2.466344932689865 Y57.160274320548645 I0.28702057404114806 J-0.6934213868427737
G1 Z-1.7495554991109983 F500
G3 X2.303784607569215 Y56.91643383286767 I0.5308610617221234 J-0.5308610617221234 F500
G3 X2.2479044958089918 Y56.62941325882652 I0.6934213868427737 J-0.28702057404114806
G1 X2.2479044958089918 Y56.62941325882652
G1 X2.2479044958089918 Y56.62941325882652
G3 X2.303784607569215 Y56.34239268478537 I0.7493014986029972 J0
G3 X2.466344932689865 Y56.0985521971044 I0.6934213868427737 J0.28702057404114806
G3 X2.710185420370841 Y55.935991871983745 I0.5308610617221234 J0.5308610617221234
G3 X2.997205994411989 Y55.877571755143514 I0.28702057404114806 J0.6934213868427737
G3 X3.284226568453137 Y55.935991871983745 I0 J0.7493014986029972
G3 X3.528067056134112 Y56.0985521971044 I-0.28702057404114806 J0.6934213868427737
G3 X3.6906273812547625 Y56.34239268478537 I-0.5308610617221234 J0.5308610617221234
G3 X3.746507493014986 Y56.62941325882652 I-0.6934213868427737 J0.28702057404114806
G1 X3.746507493014986 Y56.62941325882652
G1 X3.746507493014986 Y56.62941325882652
G3 X3.6906273812547625 Y56.91643383286767 I-0.7493014986029972 J0
G3 X3.528067056134112 Y57.160274320548645 I-0.6934213868427737 J-0.28702057404114806
G3 X3.284226568453137 Y57.32283464566929 I-0.5308610617221234 J-0.5308610617221234
G3 X2.997205994411989 Y57.37871475742952 I-0.28702057404114806 J-0.6934213868427737
G3 X2.710185420370841 Y57.32283464566929 I0 J-0.7493014986029972
G3 X2.466344932689865 Y57.160274320548645 I0.28702057404114806 J-0.6934213868427737
G1 Z-1.9994919989839979 F500
G3 X2.303784607569215 Y56.91643383286767 I0.5308610617221234 J-0.5308610617221234 F500
G3 X2.2479044958089918 Y56.62941325882652 I0.6934213868427737 J-0.28702057404114806
G1 X2.2479044958089918 Y56.62941325882652
G1 X2.2479044958089918 Y56.62941325882652
G3 X2.303784607569215 Y56.34239268478537 I0.7493014986029972 J0
G3 X2.466344932689865 Y56.0985521971044 I0.6934213868427737 J0.28702057404114806
G3 X2.710185420370841 Y55.935991871983745 I0.5308610617221234 J0.5308610617221234
G3 X2.997205994411989 Y55.877571755143514 I0.28702057404114806 J0.6934213868427737
G3 X3.284226568453137 Y55.935991871983745 I0 J0.7493014986029972
G3 X3.528067056134112 Y56.0985521971044 I-0.28702057404114806 J0.6934213868427737
G3 X3.6906273812547625 Y56.34239268478537 I-0.5308610617221234 J0.5308610617221234
G3 X3.746507493014986 Y56.62941325882652 I-0.6934213868427737 J0.28702057404114806
G1 X3.746507493014986 Y56.62941325882652
G1 X3.746507493014986 Y56.62941325882652
G3 X3.6906273812547625 Y56.91643383286767 I-0.7493014986029972 J0
G3 X3.528067056134112 Y57.160274320548645 I-0.6934213868427737 J-0.28702057404114806
G3 X3.284226568453137 Y57.32283464566929 I-0.5308610617221234 J-0.5308610617221234
G3 X2.997205994411989 Y57.37871475742952 I-0.28702057404114806 J-0.6934213868427737
G3 X2.710185420370841 Y57.32283464566929 I0 J-0.7493014986029972
G3 X2.466344932689865 Y57.160274320548645 I0.28702057404114806 J-0.6934213868427737
G1 Z-2.249428498856998 F500
G3 X2.303784607569215 Y56.91643383286767 I0.5308610617221234 J-0.5308610617221234 F500
G3 X2.2479044958089918 Y56.62941325882652 I0.6934213868427737 J-0.28702057404114806
G1 X2.2479044958089918 Y56.62941325882652
G1 X2.2479044958089918 Y56.62941325882652
G3 X2.303784607569215 Y56.34239268478537 I0.7493014986029972 J0
G3 X2.466344932689865 Y56.0985521971044 I0.6934213868427737 J0.28702057404114806
G3 X2.710185420370841 Y55.935991871983745 I0.5308610617221234 J0.5308610617221234
G3 X2.997205994411989 Y55.877571755143514 I0.28702057404114806 J0.6934213868427737
G3 X3.284226568453137 Y55.935991871983745 I0 J0.7493014986029972
G3 X3.528067056134112 Y56.0985521971044 I-0.28702057404114806 J0.6934213868427737
G3 X3.6906273812547625 Y56.34239268478537 I-0.5308610617221234 J0.5308610617221234
G3 X3.746507493014986 Y56.62941325882652 I-0.6934213868427737 J0.28702057404114806
G1 X3.746507493014986 Y56.62941325882652
G1 X3.746507493014986 Y56.62941325882652
G3 X3.6906273812547625 Y56.91643383286767 I-0.7493014986029972 J0
G3 X3.528067056134112 Y57.160274320548645 I-0.6934213868427737 J-0.28702057404114806
G3 X3.284226568453137 Y57.32283464566929 I-0.5308610617221234 J-0.5308610617221234
G3 X2.997205994411989 Y57.37871475742952 I-0.28702057404114806 J-0.6934213868427737
G3 X2.710185420370841 Y57.32283464566929 I0 J-0.7493014986029972
G3 X2.466344932689865 Y57.160274320548645 I0.28702057404114806 J-0.6934213868427737
G1 Z-2.4993649987299973 F500
G3 X2.303784607569215 Y56.91643383286767 I0.5308610617221234 J-0.5308610617221234 F500
G3 X2.2479044958089918 Y56.62941325882652 I0.6934213868427737 J-0.28702057404114806
G1 X2.2479044958089918 Y56.62941325882652
G1 X2.2479044958089918 Y56.62941325882652
G3 X2.303784607569215 Y56.34239268478537 I0.7493014986029972 J0
G3 X2.466344932689865 Y56.0985521971044 I0.6934213868427737 J0.28702057404114806
G3 X2.710185420370841 Y55.935991871983745 I0.5308610617221234 J0.5308610617221234
G3 X2.997205994411989 Y55.877571755143514 I0.28702057404114806 J0.6934213868427737
G3 X3.284226568453137 Y55.935991871983745 I0 J0.7493014986029972
G3 X3.528067056134112 Y56.0985521971044 I-0.28702057404114806 J0.6934213868427737
G3 X3.6906273812547625 Y56.34239268478537 I-0.5308610617221234 J0.5308610617221234
G3 X3.746507493014986 Y56.62941325882652 I-0.6934213868427737 J0.28702057404114806
G1 X3.746507493014986 Y56.62941325882652
G1 X3.746507493014986 Y56.62941325882652
G3 X3.6906273812547625 Y56.91643383286767 I-0.7493014986029972 J0
G3 X3.528067056134112 Y57.160274320548645 I-0.6934213868427737 J-0.28702057404114806
G3 X3.284226568453137 Y57.32283464566929 I-0.5308610617221234 J-0.5308610617221234
G3 X2.997205994411989 Y57.37871475742952 I-0.28702057404114806 J-0.6934213868427737
G3 X2.710185420370841 Y57.32283464566929 I0 J-0.7493014986029972
G3 X2.466344932689865 Y57.160274320548645 I0.28702057404114806 J-0.6934213868427737
G1 Z-2.749301498602997 F500
G3 X2.303784607569215 Y56.91643383286767 I0.5308610617221234 J-0.5308610617221234 F500
G3 X2.2479044958089918 Y56.62941325882652 I0.6934213868427737 J-0.28702057404114806
G1 X2.2479044958089918 Y56.62941325882652
G1 X2.2479044958089918 Y56.62941325882652
G3 X2.303784607569215 Y56.34239268478537 I0.7493014986029972 J0
G3 X2.466344932689865 Y56.0985521971044 I0.6934213868427737 J0.28702057404114806
G3 X2.710185420370841 Y55.935991871983745 I0.5308610617221234 J0.5308610617221234
G3 X2.997205994411989 Y55.877571755143514 I0.28702057404114806 J0.6934213868427737
G3 X3.284226568453137 Y55.935991871983745 I0 J0.7493014986029972
G3 X3.528067056134112 Y56.0985521971044 I-0.28702057404114806 J0.6934213868427737
G3 X3.6906273812547625 Y56.34239268478537 I-0.5308610617221234 J0.5308610617221234
G3 X3.746507493014986 Y56.62941325882652 I-0.6934213868427737 J0.28702057404114806
G1 X3.746507493014986 Y56.62941325882652
G1 X3.746507493014986 Y56.62941325882652
G3 X3.6906273812547625 Y56.91643383286767 I-0.7493014986029972 J0
G3 X3.528067056134112 Y57.160274320548645 I-0.6934213868427737 J-0.28702057404114806
G3 X3.284226568453137 Y57.32283464566929 I-0.5308610617221234 J-0.5308610617221234
G3 X2.997205994411989 Y57.37871475742952 I-0.28702057404114806 J-0.6934213868427737
G3 X2.710185420370841 Y57.32283464566929 I0 J-0.7493014986029972
G3 X2.466344932689865 Y57.160274320548645 I0.28702057404114806 J-0.6934213868427737
G1 Z-2.999237998475997 F500
G3 X2.303784607569215 Y56.91643383286767 I0.5308610617221234 J-0.5308610617221234 F500
G3 X2.2479044958089918 Y56.62941325882652 I0.6934213868427737 J-0.28702057404114806
G1 X2.2479044958089918 Y56.62941325882652
G1 X2.2479044958089918 Y56.62941325882652
G3 X2.303784607569215 Y56.34239268478537 I0.7493014986029972 J0
G3 X2.466344932689865 Y56.0985521971044 I0.6934213868427737 J0.28702057404114806
G3 X2.710185420370841 Y55.935991871983745 I0.5308610617221234 J0.5308610617221234
G3 X2.997205994411989 Y55.877571755143514 I0.28702057404114806 J0.6934213868427737
G3 X3.284226568453137 Y55.935991871983745 I0 J0.7493014986029972
G3 X3.528067056134112 Y56.0985521971044 I-0.28702057404114806 J0.6934213868427737
G3 X3.6906273812547625 Y56.34239268478537 I-0.5308610617221234 J0.5308610617221234
G3 X3.746507493014986 Y56.62941325882652 I-0.6934213868427737 J0.28702057404114806
G1 X3.746507493014986 Y56.62941325882652
G1 X3.746507493014986 Y56.62941325882652
G3 X3.6906273812547625 Y56.91643383286767 I-0.7493014986029972 J0
G3 X3.528067056134112 Y57.160274320548645 I-0.6934213868427737 J-0.28702057404114806
G3 X3.284226568453137 Y57.32283464566929 I-0.5308610617221234 J-0.5308610617221234
G3 X2.997205994411989 Y57.37871475742952 I-0.28702057404114806 J-0.6934213868427737
G3 X2.710185420370841 Y57.32283464566929 I0 J-0.7493014986029972
G3 X2.466344932689865 Y57.160274320548645 I0.28702057404114806 J-0.6934213868427737
G1 Z-3 F500
G3 X2.303784607569215 Y56.91643383286767 I0.5308610617221234 J-0.5308610617221234 F500
G3 X2.2479044958089918 Y56.62941325882652 I0.6934213868427737 J-0.28702057404114806
G1 X2.2479044958089918 Y56.62941325882652
G1 X2.2479044958089918 Y56.62941325882652
G3 X2.303784607569215 Y56.34239268478537 I0.7493014986029972 J0
G3 X2.466344932689865 Y56.0985521971044 I0.6934213868427737 J0.28702057404114806
G3 X2.710185420370841 Y55.935991871983745 I0.5308610617221234 J0.5308610617221234
G3 X2.997205994411989 Y55.877571755143514 I0.28702057404114806 J0.6934213868427737
G3 X3.284226568453137 Y55.935991871983745 I0 J0.7493014986029972
G3 X3.528067056134112 Y56.0985521971044 I-0.28702057404114806 J0.6934213868427737
G3 X3.6906273812547625 Y56.34239268478537 I-0.5308610617221234 J0.5308610617221234
G3 X3.746507493014986 Y56.62941325882652 I-0.6934213868427737 J0.28702057404114806
G1 X3.746507493014986 Y56.62941325882652
G1 X3.746507493014986 Y56.62941325882652
G3 X3.6906273812547625 Y56.91643383286767 I-0.7493014986029972 J0
G3 X3.528067056134112 Y57.160274320548645 I-0.6934213868427737 J-0.28702057404114806
G3 X3.284226568453137 Y57.32283464566929 I-0.5308610617221234 J-0.5308610617221234
G3 X2.997205994411989 Y57.37871475742952 I-0.28702057404114806 J-0.6934213868427737
G3 X2.710185420370841 Y57.32283464566929 I0 J-0.7493014986029972
G3 X2.466344932689865 Y57.160274320548645 I0.28702057404114806 J-0.6934213868427737
G0 Z3
G0 X2.304292608585217 Y2.366776733553467
G1 Z-0.24993649987299973 F500
G3 X2.466344932689865 Y2.1234442468884938 I0.6934213868427737 J0.28702057404114806 F500
G3 X2.710185420370841 Y1.9608839217678438 I0.5308610617221234 J0.5308610617221234
G3 X2.997205994411989 Y1.90246380492761 I0.28702057404114806 J0.6934213868427737
G3 X3.284226568453137 Y1.9608839217678438 I0 J0.7493014986029972
G3 X3.528067056134112 Y2.1234442468884938 I-0.28702057404114806 J0.6934213868427737
G3 X3.6906273812547625 Y2.367284734569469 I-0.5308610617221234 J0.5308610617221234
G3 X3.746507493014986 Y2.654305308610617 I-0.6934213868427737 J0.28702057404114806
G3 X3.6906273812547625 Y2.941325882651765 I-0.7493014986029972 J0
G3 X3.528067056134112 Y3.1826263652527302 I-0.6934213868427737 J-0.28702057404114806
G3 X3.284226568453137 Y3.3451866903733807 I-0.5308610617221234 J-0.5308610617221234
G3 X2.997205994411989 Y3.4036068072136145 I-0.28702057404114806 J-0.6934213868427737
G3 X2.710185420370841 Y3.3451866903733807 I0 J-0.7493014986029972
G3 X2.466344932689865 Y3.1826263652527302 I0.28702057404114806 J-0.6934213868427737
G3 X2.303784607569215 Y2.941325882651765 I0.5308610617221234 J-0.5308610617221234
G3 X2.2479044958089918 Y2.654305308610617 I0.6934213868427737 J-0.28702057404114806
G1 X2.2479044958089918 Y2.654305308610617
G3 X2.303784607569215 Y2.367284734569469 I0.7493014986029972 J0
G1 Z-0.49987299974599947 F500
G3 X2.466344932689865 Y2.1234442468884938 I0.6934213868427737 J0.28702057404114806 F500
G3 X2.710185420370841 Y1.9608839217678438 I0.5308610617221234 J0.5308610617221234
G3 X2.997205994411989 Y1.90246380492761 I0.28702057404114806 J0.6934213868427737
G3 X3.284226568453137 Y1.9608839217678438 I0 J0.7493014986029972
G3 X3.528067056134112 Y2.1234442468884938 I-0.28702057404114806 J0.6934213868427737
G3 X3.6906273812547625 Y2.367284734569469 I-0.5308610617221234 J0.5308610617221234
G3 X3.746507493014986 Y2.654305308610617 I-0.6934213868427737 J0.28702057404114806
G3 X3.6906273812547625 Y2.941325882651765 I-0.7493014986029972 J0
G3 X3.528067056134112 Y3.1826263652527302 I-0.6934213868427737 J-0.28702057404114806
G3 X3.284226568453137 Y3.3451866903733807 I-0.5308610617221234 J-0.5308610617221234
G3 X2.997205994411989 Y3.4036068072136145 I-0.28702057404114806 J-0.6934213868427737
G3 X2.710185420370841 Y3.3451866903733807 I0 J-0.7493014986029972
G3 X2.466344932689865 Y3.1826263652527302 I0.28702057404114806 J-0.6934213868427737
G3 X2.303784607569215 Y2.941325882651765 I0.5308610617221234 J-0.5308610617221234
G3 X2.2479044958089918 Y2.654305308610617 I0.6934213868427737 J-0.28702057404114806
G1 X2.2479044958089918 Y2.654305308610617
G3 X2.303784607569215 Y2.367284734569469 I0.7493014986029972 J0
G1 Z-0.7498094996189992 F500
G3 X2.466344932689865 Y2.1234442468884938 I0.6934213868427737 J0.28702057404114806 F500
G3 X2.710185420370841 Y1.9608839217678438 I0.5308610617221234 J0.5308610617221234
G3 X2.997205994411989 Y1.90246380492761 I0.28702057404114806 J0.6934213868427737
G3 X3.284226568453137 Y1.9608839217678438 I0 J0.7493014986029972
G3 X3.528067056134112 Y2.1234442468884938 I-0.28702057404114806 J0.6934213868427737
G3 X3.6906273812547625 Y2.367284734569469 I-0.5308610617221234 J0.5308610617221234
G3 X3.746507493014986 Y2.654305308610617 I-0.6934213868427737 J0.28702057404114806
G3 X3.6906273812547625 Y2.941325882651765 I-0.7493014986029972 J0
G3 X3.528067056134112 Y3.1826263652527302 I-0.6934213868427737 J-0.28702057404114806
G3 X3.284226568453137 Y3.3451866903733807 I-0.5308610617221234 J-0.5308610617221234
G3 X2.997205994411989 Y3.4036068072136145 I-0.28702057404114806 J-0.6934213868427737
G3 X2.710185420370841 Y3.3451866903733807 I0 J-0.7493014986029972
G3 X2.466344932689865 Y3.1826263652527302 I0.28702057404114806 J-0.6934213868427737
G3 X2.303784607569215 Y2.941325882651765 I0.5308610617221234 J-0.5308610617221234
G3 X2.2479044958089918 Y2.654305308610617 I0.6934213868427737 J-0.28702057404114806
G1 X2.2479044958089918 Y2.654305308610617
G3 X2.303784607569215 Y2.367284734569469 I0.7493014986029972 J0
G1 Z-0.9997459994919989 F500
G3 X2.466344932689865 Y2.1234442468884938 I0.6934213868427737 J0.28702057404114806 F500
G3 X2.710185420370841 Y1.9608839217678438 I0.5308610617221234 J0.5308610617221234
G3 X2.997205994411989 Y1.90246380492761 I0.28702057404114806 J0.6934213868427737
G3 X3.284226568453137 Y1.9608839217678438 I0 J0.7493014986029972
G3 X3.528067056134112 Y2.1234442468884938 I-0.28702057404114806 J0.6934213868427737
G3 X3.6906273812547625 Y2.367284734569469 I-0.5308610617221234 J0.5308610617221234
G3 X3.746507493014986 Y2.654305308610617 I-0.6934213868427737 J0.28702057404114806
G3 X3.6906273812547625 Y2.941325882651765 I-0.7493014986029972 J0
G3 X3.528067056134112 Y3.1826263652527302 I-0.6934213868427737 J-0.28702057404114806
G3 X3.284226568453137 Y3.3451866903733807 I-0.5308610617221234 J-0.5308610617221234
G3 X2.997205994411989 Y3.4036068072136145 I-0.28702057404114806 J-0.6934213868427737
G3 X2.710185420370841 Y3.3451866903733807 I0 J-0.7493014986029972
G3 X2.466344932689865 Y3.1826263652527302 I0.28702057404114806 J-0.6934213868427737
G3 X2.303784607569215 Y2.941325882651765 I0.5308610617221234 J-0.5308610617221234
G3 X2.2479044958089918 Y2.654305308610617 I0.6934213868427737 J-0.28702057404114806
G1 X2.2479044958089918 Y2.654305308610617
G3 X2.303784607569215 Y2.367284734569469 I0.7493014986029972 J0
G1 Z-1.2496824993649986 F500
G3 X2.466344932689865 Y2.1234442468884938 I0.6934213868427737 J0.28702057404114806 F500
G3 X2.710185420370841 Y1.9608839217678438 I0.5308610617221234 J0.5308610617221234
G3 X2.997205994411989 Y1.90246380492761 I0.28702057404114806 J0.6934213868427737
G3 X3.284226568453137 Y1.9608839217678438 I0 J0.7493014986029972
G3 X3.528067056134112 Y2.1234442468884938 I-0.28702057404114806 J0.6934213868427737
G3 X3.6906273812547625 Y2.367284734569469 I-0.5308610617221234 J0.5308610617221234
G3 X3.746507493014986 Y2.654305308610617 I-0.6934213868427737 J0.28702057404114806
G3 X3.6906273812547625 Y2.941325882651765 I-0.7493014986029972 J0
G3 X3.528067056134112 Y3.1826263652527302 I-0.6934213868427737 J-0.28702057404114806
G3 X3.284226568453137 Y3.3451866903733807 I-0.5308610617221234 J-0.5308610617221234
G3 X2.997205994411989 Y3.4036068072136145 I-0.28702057404114806 J-0.6934213868427737
G3 X2.710185420370841 Y3.3451866903733807 I0 J-0.7493014986029972
G3 X2.466344932689865 Y3.1826263652527302 I0.28702057404114806 J-0.6934213868427737
G3 X2.303784607569215 Y2.941325882651765 I0.5308610617221234 J-0.5308610617221234
G3 X2.2479044958089918 Y2.654305308610617 I0.6934213868427737 J-0.28702057404114806
G1 X2.2479044958089918 Y2.654305308610617
G3 X2.303784607569215 Y2.367284734569469 I0.7493014986029972 J0
G1 Z-1.4996189992379985 F500
G3 X2.466344932689865 Y2.1234442468884938 I0.6934213868427737 J0.28702057404114806 F500
G3 X2.710185420370841 Y1.9608839217678438 I0.5308610617221234 J0.5308610617221234
G3 X2.997205994411989 Y1.90246380492761 I0.28702057404114806 J0.6934213868427737
G3 X3.284226568453137 Y1.9608839217678438 I0 J0.7493014986029972
G3 X3.528067056134112 Y2.1234442468884938 I-0.28702057404114806 J0.6934213868427737
G3 X3.6906273812547625 Y2.367284734569469 I-0.5308610617221234 J0.5308610617221234
G3 X3.746507493014986 Y2.654305308610617 I-0.6934213868427737 J0.28702057404114806
G3 X3.6906273812547625 Y2.941325882651765 I-0.7493014986029972 J0
G3 X3.528067056134112 Y3.1826263652527302 I-0.6934213868427737 J-0.28702057404114806
G3 X3.284226568453137 Y3.3451866903733807 I-0.5308610617221234 J-0.5308610617221234
G3 X2.997205994411989 Y3.4036068072136145 I-0.28702057404114806 J-0.6934213868427737
G3 X2.710185420370841 Y3.3451866903733807 I0 J-0.7493014986029972
G3 X2.466344932689865 Y3.1826263652527302 I0.28702057404114806 J-0.6934213868427737
G3 X2.303784607569215 Y2.941325882651765 I0.5308610617221234 J-0.5308610617221234
G3 X2.2479044958089918 Y2.654305308610617 I0.6934213868427737 J-0.28702057404114806
G1 X2.2479044958089918 Y2.654305308610617
G3 X2.303784607569215 Y2.367284734569469 I0.7493014986029972 J0
G1 Z-1.7495554991109983 F500
G3 X2.466344932689865 Y2.1234442468884938 I0.6934213868427737 J0.28702057404114806 F500
G3 X2.710185420370841 Y1.9608839217678438 I0.5308610617221234 J0.5308610617221234
G3 X2.997205994411989 Y1.90246380492761 I0.28702057404114806 J0.6934213868427737
G3 X3.284226568453137 Y1.9608839217678438 I0 J0.7493014986029972
G3 X3.528067056134112 Y2.1234442468884938 I-0.28702057404114806 J0.6934213868427737
G3 X3.6906273812547625 Y2.367284734569469 I-0.5308610617221234 J0.5308610617221234
G3 X3.746507493014986 Y2.654305308610617 I-0.6934213868427737 J0.28702057404114806
G3 X3.6906273812547625 Y2.941325882651765 I-0.7493014986029972 J0
G3 X3.528067056134112 Y3.1826263652527302 I-0.6934213868427737 J-0.28702057404114806
G3 X3.284226568453137 Y3.3451866903733807 I-0.5308610617221234 J-0.5308610617221234
G3 X2.997205994411989 Y3.4036068072136145 I-0.28702057404114806 J-0.6934213868427737
G3 X2.710185420370841 Y3.3451866903733807 I0 J-0.7493014986029972
G3 X2.466344932689865 Y3.1826263652527302 I0.28702057404114806 J-0.6934213868427737
G3 X2.303784607569215 Y2.941325882651765 I0.5308610617221234 J-0.5308610617221234
G3 X2.2479044958089918 Y2.654305308610617 I0.6934213868427737 J-0.28702057404114806
G1 X2.2479044958089918 Y2.654305308610617
G3 X2.303784607569215 Y2.367284734569469 I0.7493014986029972 J0
G1 Z-1.9994919989839979 F500
G3 X2.466344932689865 Y2.1234442468884938 I0.6934213868427737 J0.28702057404114806 F500
G3 X2.710185420370841 Y1.9608839217678438 I0.5308610617221234 J0.5308610617221234
G3 X2.997205994411989 Y1.90246380492761 I0.28702057404114806 J0.6934213868427737
G3 X3.284226568453137 Y1.9608839217678438 I0 J0.7493014986029972
G3 X3.528067056134112 Y2.1234442468884938 I-0.28702057404114806 J0.6934213868427737
G3 X3.6906273812547625 Y2.367284734569469 I-0.5308610617221234 J0.5308610617221234
G3 X3.746507493014986 Y2.654305308610617 I-0.6934213868427737 J0.28702057404114806
G3 X3.6906273812547625 Y2.941325882651765 I-0.7493014986029972 J0
G3 X3.528067056134112 Y3.1826263652527302 I-0.6934213868427737 J-0.28702057404114806
G3 X3.284226568453137 Y3.3451866903733807 I-0.5308610617221234 J-0.5308610617221234
G3 X2.997205994411989 Y3.4036068072136145 I-0.28702057404114806 J-0.6934213868427737
G3 X2.710185420370841 Y3.3451866903733807 I0 J-0.7493014986029972
G3 X2.466344932689865 Y3.1826263652527302 I0.28702057404114806 J-0.6934213868427737
G3 X2.303784607569215 Y2.941325882651765 I0.5308610617221234 J-0.5308610617221234
G3 X2.2479044958089918 Y2.654305308610617 I0.6934213868427737 J-0.28702057404114806
G1 X2.2479044958089918 Y2.654305308610617
G3 X2.303784607569215 Y2.367284734569469 I0.7493014986029972 J0
G1 Z-2.249428498856998 F500
G3 X2.466344932689865 Y2.1234442468884938 I0.6934213868427737 J0.28702057404114806 F500
G3 X2.710185420370841 Y1.9608839217678438 I0.5308610617221234 J0.5308610617221234
G3 X2.997205994411989 Y1.90246380492761 I0.28702057404114806 J0.6934213868427737
G3 X3.284226568453137 Y1.9608839217678438 I0 J0.7493014986029972
G3 X3.528067056134112 Y2.1234442468884938 I-0.28702057404114806 J0.6934213868427737
G3 X3.6906273812547625 Y2.367284734569469 I-0.5308610617221234 J0.5308610617221234
G3 X3.746507493014986 Y2.654305308610617 I-0.6934213868427737 J0.28702057404114806
G3 X3.6906273812547625 Y2.941325882651765 I-0.7493014986029972 J0
G3 X3.528067056134112 Y3.1826263652527302 I-0.6934213868427737 J-0.28702057404114806
G3 X3.284226568453137 Y3.3451866903733807 I-0.5308610617221234 J-0.5308610617221234
G3 X2.997205994411989 Y3.4036068072136145 I-0.28702057404114806 J-0.6934213868427737
G3 X2.710185420370841 Y3.3451866903733807 I0 J-0.7493014986029972
G3 X2.466344932689865 Y3.1826263652527302 I0.28702057404114806 J-0.6934213868427737
G3 X2.303784607569215 Y2.941325882651765 I0.5308610617221234 J-0.5308610617221234
G3 X2.2479044958089918 Y2.654305308610617 I0.6934213868427737 J-0.28702057404114806
G1 X2.2479044958089918 Y2.654305308610617
G3 X2.303784607569215 Y2.367284734569469 I0.7493014986029972 J0
G1 Z-2.4993649987299973 F500
G3 X2.466344932689865 Y2.1234442468884938 I0.6934213868427737 J0.28702057404114806 F500
G3 X2.710185420370841 Y1.9608839217678438 I0.5308610617221234 J0.5308610617221234
G3 X2.997205994411989 Y1.90246380492761 I0.28702057404114806 J0.6934213868427737
G3 X3.284226568453137 Y1.9608839217678438 I0 J0.7493014986029972
G3 X3.528067056134112 Y2.1234442468884938 I-0.28702057404114806 J0.6934213868427737
G3 X3.6906273812547625 Y2.367284734569469 I-0.5308610617221234 J0.5308610617221234
G3 X3.746507493014986 Y2.654305308610617 I-0.6934213868427737 J0.28702057404114806
G3 X3.6906273812547625 Y2.941325882651765 I-0.7493014986029972 J0
G3 X3.528067056134112 Y3.1826263652527302 I-0.6934213868427737 J-0.28702057404114806
G3 X3.284226568453137 Y3.3451866903733807 I-0.5308610617221234 J-0.5308610617221234
G3 X2.997205994411989 Y3.4036068072136145 I-0.28702057404114806 J-0.6934213868427737
G3 X2.710185420370841 Y3.3451866903733807 I0 J-0.7493014986029972
G3 X2.466344932689865 Y3.1826263652527302 I0.28702057404114806 J-0.6934213868427737
G3 X2.303784607569215 Y2.941325882651765 I0.5308610617221234 J-0.5308610617221234
G3 X2.2479044958089918 Y2.654305308610617 I0.6934213868427737 J-0.28702057404114806
G1 X2.2479044958089918 Y2.654305308610617
G3 X2.303784607569215 Y2.367284734569469 I0.7493014986029972 J0
G1 Z-2.749301498602997 F500
G3 X2.466344932689865 Y2.1234442468884938 I0.6934213868427737 J0.28702057404114806 F500
G3 X2.710185420370841 Y1.9608839217678438 I0.5308610617221234 J0.5308610617221234
G3 X2.997205994411989 Y1.90246380492761 I0.28702057404114806 J0.6934213868427737
G3 X3.284226568453137 Y1.9608839217678438 I0 J0.7493014986029972
G3 X3.528067056134112 Y2.1234442468884938 I-0.28702057404114806 J0.6934213868427737
G3 X3.6906273812547625 Y2.367284734569469 I-0.5308610617221234 J0.5308610617221234
G3 X3.746507493014986 Y2.654305308610617 I-0.6934213868427737 J0.28702057404114806
G3 X3.6906273812547625 Y2.941325882651765 I-0.7493014986029972 J0
G3 X3.528067056134112 Y3.1826263652527302 I-0.6934213868427737 J-0.28702057404114806
G3 X3.284226568453137 Y3.3451866903733807 I-0.5308610617221234 J-0.5308610617221234
G3 X2.997205994411989 Y3.4036068072136145 I-0.28702057404114806 J-0.6934213868427737
G3 X2.710185420370841 Y3.3451866903733807 I0 J-0.7493014986029972
G3 X2.466344932689865 Y3.1826263652527302 I0.28702057404114806 J-0.6934213868427737
G3 X2.303784607569215 Y2.941325882651765 I0.5308610617221234 J-0.5308610617221234
G3 X2.2479044958089918 Y2.654305308610617 I0.6934213868427737 J-0.28702057404114806
G1 X2.2479044958089918 Y2.654305308610617
G3 X2.303784607569215 Y2.367284734569469 I0.7493014986029972 J0
G1 Z-2.999237998475997 F500
G3 X2.466344932689865 Y2.1234442468884938 I0.6934213868427737 J0.28702057404114806 F500
G3 X2.710185420370841 Y1.9608839217678438 I0.5308610617221234 J0.5308610617221234
G3 X2.997205994411989 Y1.90246380492761 I0.28702057404114806 J0.6934213868427737
G3 X3.284226568453137 Y1.9608839217678438 I0 J0.7493014986029972
G3 X3.528067056134112 Y2.1234442468884938 I-0.28702057404114806 J0.6934213868427737
G3 X3.6906273812547625 Y2.367284734569469 I-0.5308610617221234 J0.5308610617221234
G3 X3.746507493014986 Y2.654305308610617 I-0.6934213868427737 J0.28702057404114806
G3 X3.6906273812547625 Y2.941325882651765 I-0.7493014986029972 J0
G3 X3.528067056134112 Y3.1826263652527302 I-0.6934213868427737 J-0.28702057404114806
G3 X3.284226568453137 Y3.3451866903733807 I-0.5308610617221234 J-0.5308610617221234
G3 X2.997205994411989 Y3.4036068072136145 I-0.28702057404114806 J-0.6934213868427737
G3 X2.710185420370841 Y3.3451866903733807 I0 J-0.7493014986029972
G3 X2.466344932689865 Y3.1826263652527302 I0.28702057404114806 J-0.6934213868427737
G3 X2.303784607569215 Y2.941325882651765 I0.5308610617221234 J-0.5308610617221234
G3 X2.2479044958089918 Y2.654305308610617 I0.6934213868427737 J-0.28702057404114806
G1 X2.2479044958089918 Y2.654305308610617
G3 X2.303784607569215 Y2.367284734569469 I0.7493014986029972 J0
G1 Z-3 F500
G3 X2.466344932689865 Y2.1234442468884938 I0.6934213868427737 J0.28702057404114806 F500
G3 X2.710185420370841 Y1.9608839217678438 I0.5308610617221234 J0.5308610617221234
G3 X2.997205994411989 Y1.90246380492761 I0.28702057404114806 J0.6934213868427737
G3 X3.284226568453137 Y1.9608839217678438 I0 J0.7493014986029972
G3 X3.528067056134112 Y2.1234442468884938 I-0.28702057404114806 J0.6934213868427737
G3 X3.6906273812547625 Y2.367284734569469 I-0.5308610617221234 J0.5308610617221234
G3 X3.746507493014986 Y2.654305308610617 I-0.6934213868427737 J0.28702057404114806
G3 X3.6906273812547625 Y2.941325882651765 I-0.7493014986029972 J0
G3 X3.528067056134112 Y3.1826263652527302 I-0.6934213868427737 J-0.28702057404114806
G3 X3.284226568453137 Y3.3451866903733807 I-0.5308610617221234 J-0.5308610617221234
G3 X2.997205994411989 Y3.4036068072136145 I-0.28702057404114806 J-0.6934213868427737
G3 X2.710185420370841 Y3.3451866903733807 I0 J-0.7493014986029972
G3 X2.466344932689865 Y3.1826263652527302 I0.28702057404114806 J-0.6934213868427737
G3 X2.303784607569215 Y2.941325882651765 I0.5308610617221234 J-0.5308610617221234
G3 X2.2479044958089918 Y2.654305308610617 I0.6934213868427737 J-0.28702057404114806
G1 X2.2479044958089918 Y2.654305308610617
G3 X2.303784607569215 Y2.367284734569469 I0.7493014986029972 J0
G0 Z3
M5
M30
