(Generated by PartKam Version 0.05)

G21 G90 G40

(throughholes)
G0 Z3
T0 M6
G17
M3
G0 X14.995935991871983 Y47.73558547117094
G1 Z-3 F300
G1 Z0 F300
G0 Z3
G0 X17.535941071882142 Y47.73558547117094
G1 Z-3 F300
G1 Z0 F300
G0 Z3
G0 X20.076200152400304 Y47.73558547117094
G1 Z-3 F300
G1 Z0 F300
G0 Z3
G0 X22.616205232410465 Y47.73558547117094
G1 Z-3 F300
G1 Z0 F300
G0 Z3
G0 X25.155956311912625 Y47.73558547117094
G1 Z-3 F300
G1 Z0 F300
G0 Z3
G0 X27.695961391922783 Y47.73558547117094
G1 Z-3 F300
G1 Z0 F300
G0 Z3
G0 X30.236220472440944 Y47.73558547117094
G1 Z-3 F300
G1 Z0 F300
G0 Z3
G0 X32.7762255524511 Y47.73558547117094
G1 Z-3 F300
G1 Z0 F300
G0 Z3
G0 X35.31623063246126 Y47.73558547117094
G1 Z-3 F300
G1 Z0 F300
G0 Z3
G0 X37.85598171196342 Y47.73558547117094
G1 Z-3 F300
G1 Z0 F300
G0 Z3
G0 X40.395986791973584 Y47.73558547117094
G1 Z-3 F300
G1 Z0 F300
G0 Z3
G0 X42.935991871983745 Y47.73558547117094
G1 Z-3 F300
G1 Z0 F300
G0 Z3
G0 X45.47625095250191 Y47.73558547117094
G1 Z-3 F300
G1 Z0 F300
G0 Z3
G0 X48.01625603251207 Y47.73558547117094
G1 Z-3 F300
G1 Z0 F300
G0 Z3
G0 X50.55600711201422 Y47.736093472186944
G1 Z-3 F300
G1 Z0 F300
G0 Z3
G0 X64.59232918465837 Y33.13385826771653
G1 Z-3 F300
G1 Z0 F300
G0 Z3
G0 X67.13233426466853 Y33.13385826771653
G1 Z-3 F300
G1 Z0 F300
G0 Z3
G0 X14.995935991871983 Y32.495808991617984
G1 Z-3 F300
G1 Z0 F300
G0 Z3
G0 X17.535941071882142 Y32.495808991617984
G1 Z-3 F300
G1 Z0 F300
G0 Z3
G0 X20.076200152400304 Y32.495808991617984
G1 Z-3 F300
G1 Z0 F300
G0 Z3
G0 X22.616205232410465 Y32.495808991617984
G1 Z-3 F300
G1 Z0 F300
G0 Z3
G0 X25.155956311912625 Y32.495808991617984
G1 Z-3 F300
G1 Z0 F300
G0 Z3
G0 X27.695961391922783 Y32.495808991617984
G1 Z-3 F300
G1 Z0 F300
G0 Z3
G0 X30.236220472440944 Y32.495808991617984
G1 Z-3 F300
G1 Z0 F300
G0 Z3
G0 X32.7762255524511 Y32.495808991617984
G1 Z-3 F300
G1 Z0 F300
G0 Z3
G0 X35.31623063246126 Y32.495808991617984
G1 Z-3 F300
G1 Z0 F300
G0 Z3
G0 X37.85598171196342 Y32.495808991617984
G1 Z-3 F300
G1 Z0 F300
G0 Z3
G0 X40.395986791973584 Y32.495808991617984
G1 Z-3 F300
G1 Z0 F300
G0 Z3
G0 X42.935991871983745 Y32.495808991617984
G1 Z-3 F300
G1 Z0 F300
G0 Z3
G0 X45.47625095250191 Y32.495808991617984
G1 Z-3 F300
G1 Z0 F300
G0 Z3
G0 X48.01625603251207 Y32.495808991617984
G1 Z-3 F300
G1 Z0 F300
G0 Z3
G0 X50.55600711201422 Y32.495808991617984
G1 Z-3 F300
G1 Z0 F300
G0 Z3
G0 X59.51257302514605 Y30.594107188214377
G1 Z-3 F300
G1 Z0 F300
G0 Z3
G0 X49.35255270510541 Y23.608839217678437
G1 Z-3 F300
G1 Z0 F300
G0 Z3
G0 X51.89230378460757 Y23.608839217678437
G1 Z-3 F300
G1 Z0 F300
G0 Z3
G0 X69.67259334518668 Y23.608585217170436
G1 Z-3 F300
G1 Z0 F300
G0 Z3
G0 X72.21259842519684 Y23.608585217170436
G1 Z-3 F300
G1 Z0 F300
G0 Z3
G0 X74.752603505207 Y23.608585217170436
G1 Z-3 F300
G1 Z0 F300
G0 Z3
G0 X77.29235458470917 Y23.608585217170436
G1 Z-3 F300
G1 Z0 F300
G0 Z3
G0 X79.83235966471933 Y23.608585217170436
G1 Z-3 F300
G1 Z0 F300
G0 Z3
G0 X82.3723647447295 Y23.608585217170436
G1 Z-3 F300
G1 Z0 F300
G0 Z3
G0 X84.91262382524765 Y23.608585217170436
G1 Z-3 F300
G1 Z0 F300
G0 Z3
G0 X87.45262890525781 Y23.608585217170436
G1 Z-3 F300
G1 Z0 F300
G0 Z3
G0 X89.99237998475996 Y23.608585217170436
G1 Z-3 F300
G1 Z0 F300
G0 Z3
G0 X92.53263906527813 Y23.608585217170436
G1 Z-3 F300
G1 Z0 F300
G0 Z3
G0 X67.13258826517654 Y23.608585217170436
G1 Z-3 F300
G1 Z0 F300
G0 Z3
G0 X67.13258826517654 Y21.064008128016255
G1 Z-3 F300
G1 Z0 F300
G0 Z3
G0 X2.3622047244094486 Y19.163576327152654
G1 Z-3 F300
G1 Z0 F300
G0 Z3
G0 X2.3622047244094486 Y16.623825247650494
G1 Z-3 F300
G1 Z0 F300
G0 Z3
G0 X9.272288544577089 Y16.623825247650494
G1 Z-3 F300
G1 Z0 F300
G0 Z3
G0 X11.81229362458725 Y16.623825247650494
G1 Z-3 F300
G1 Z0 F300
G0 Z3
G0 X14.352044704089408 Y16.623825247650494
G1 Z-3 F300
G1 Z0 F300
G0 Z3
G0 X16.89230378460757 Y16.623825247650494
G1 Z-3 F300
G1 Z0 F300
G0 Z3
G0 X19.432054864109727 Y16.623825247650494
G1 Z-3 F300
G1 Z0 F300
G0 Z3
G0 X21.97231394462789 Y16.623825247650494
G1 Z-3 F300
G1 Z0 F300
G0 Z3
G0 X24.51206502413005 Y16.623825247650494
G1 Z-3 F300
G1 Z0 F300
G0 Z3
G0 X27.05207010414021 Y16.623825247650494
G1 Z-3 F300
G1 Z0 F300
G0 Z3
G0 X33.40208280416561 Y16.623825247650494
G1 Z-3 F300
G1 Z0 F300
G0 Z3
G0 X35.94234188468377 Y16.623825247650494
G1 Z-3 F300
G1 Z0 F300
G0 Z3
G0 X38.48234696469393 Y16.623825247650494
G1 Z-3 F300
G1 Z0 F300
G0 Z3
G0 X41.02235204470409 Y16.623825247650494
G1 Z-3 F300
G1 Z0 F300
G0 Z3
G0 X43.562103124206246 Y16.623825247650494
G1 Z-3 F300
G1 Z0 F300
G0 Z3
G0 X46.10210820421641 Y16.623825247650494
G1 Z-3 F300
G1 Z0 F300
G0 Z3
G0 X48.64211328422657 Y16.623825247650494
G1 Z-3 F300
G1 Z0 F300
G0 Z3
G0 X51.18237236474473 Y16.623825247650494
G1 Z-3 F300
G1 Z0 F300
G0 Z3
G0 X69.67259334518668 Y15.988569977139955
G1 Z-3 F300
G1 Z0 F300
G0 Z3
G0 X72.21259842519684 Y15.988569977139955
G1 Z-3 F300
G1 Z0 F300
G0 Z3
G0 X74.752603505207 Y15.988569977139955
G1 Z-3 F300
G1 Z0 F300
G0 Z3
G0 X77.29235458470917 Y15.988569977139955
G1 Z-3 F300
G1 Z0 F300
G0 Z3
G0 X79.83235966471933 Y15.988569977139955
G1 Z-3 F300
G1 Z0 F300
G0 Z3
G0 X82.3723647447295 Y15.988569977139955
G1 Z-3 F300
G1 Z0 F300
G0 Z3
G0 X84.91262382524765 Y15.988569977139955
G1 Z-3 F300
G1 Z0 F300
G0 Z3
G0 X87.45262890525781 Y15.988569977139955
G1 Z-3 F300
G1 Z0 F300
G0 Z3
G0 X89.99237998475996 Y15.988569977139955
G1 Z-3 F300
G1 Z0 F300
G0 Z3
G0 X92.53263906527813 Y15.988569977139955
G1 Z-3 F300
G1 Z0 F300
G0 Z3
G0 X2.3622047244094486 Y14.083820167640335
G1 Z-3 F300
G1 Z0 F300
G0 Z3
G0 X30.22250444500889 Y14.088392176784353
G1 Z-3 F300
G1 Z0 F300
G0 Z3
G0 X54.35737871475743 Y14.083820167640335
G1 Z-3 F300
G1 Z0 F300
G0 Z3
G0 X2.3622047244094486 Y11.543815087630175
G1 Z-3 F300
G1 Z0 F300
G0 Z3
G0 X30.22250444500889 Y11.543815087630175
G1 Z-3 F300
G1 Z0 F300
G0 Z3
G0 X54.35737871475743 Y11.538989077978156
G1 Z-3 F300
G1 Z0 F300
G0 Z3
G0 X9.272288544577089 Y9.003556007112014
G1 Z-3 F300
G1 Z0 F300
G0 Z3
G0 X11.81229362458725 Y9.003556007112014
G1 Z-3 F300
G1 Z0 F300
G0 Z3
G0 X14.352044704089408 Y9.003556007112014
G1 Z-3 F300
G1 Z0 F300
G0 Z3
G0 X16.89230378460757 Y9.003556007112014
G1 Z-3 F300
G1 Z0 F300
G0 Z3
G0 X19.432054864109727 Y9.003556007112014
G1 Z-3 F300
G1 Z0 F300
G0 Z3
G0 X21.97231394462789 Y9.003556007112014
G1 Z-3 F300
G1 Z0 F300
G0 Z3
G0 X24.51206502413005 Y9.003556007112014
G1 Z-3 F300
G1 Z0 F300
G0 Z3
G0 X27.05207010414021 Y9.003556007112014
G1 Z-3 F300
G1 Z0 F300
G0 Z3
G0 X33.40208280416561 Y9.003556007112014
G1 Z-3 F300
G1 Z0 F300
G0 Z3
G0 X35.94234188468377 Y9.003556007112014
G1 Z-3 F300
G1 Z0 F300
G0 Z3
G0 X38.48234696469393 Y9.003556007112014
G1 Z-3 F300
G1 Z0 F300
G0 Z3
G0 X41.02235204470409 Y9.003556007112014
G1 Z-3 F300
G1 Z0 F300
G0 Z3
G0 X43.562103124206246 Y9.003556007112014
G1 Z-3 F300
G1 Z0 F300
G0 Z3
G0 X46.10210820421641 Y9.003556007112014
G1 Z-3 F300
G1 Z0 F300
G0 Z3
G0 X48.64211328422657 Y9.003556007112014
G1 Z-3 F300
G1 Z0 F300
G0 Z3
G0 X51.18237236474473 Y9.003556007112014
G1 Z-3 F300
G1 Z0 F300
G0 Z3
G0 X9.34721869443739 Y2.0187960375920753
G1 Z-3 F300
G1 Z0 F300
G0 Z3
G0 X11.887223774447548 Y2.0187960375920753
G1 Z-3 F300
G1 Z0 F300
G0 Z3
G0 X14.42722885445771 Y2.0187960375920753
G1 Z-3 F300
G1 Z0 F300
G0 Z3
G0 X16.96748793497587 Y2.0187960375920753
G1 Z-3 F300
G1 Z0 F300
G0 Z3
G0 X19.507239014478028 Y2.0187960375920753
G1 Z-3 F300
G1 Z0 F300
G0 Z3
G0 X22.04724409448819 Y2.0187960375920753
G1 Z-3 F300
G1 Z0 F300
G0 Z3
G0 X24.58699517399035 Y2.0187960375920753
G1 Z-3 F300
G1 Z0 F300
G0 Z3
G0 X27.127254254508507 Y2.0187960375920753
G1 Z-3 F300
G1 Z0 F300
G0 Z3
G0 X29.66751333502667 Y2.0187960375920753
G1 Z-3 F300
G1 Z0 F300
G0 Z3
G0 X32.20726441452883 Y2.0187960375920753
G1 Z-3 F300
G1 Z0 F300
G0 Z3
G0 X34.74726949453899 Y2.0187960375920753
G1 Z-3 F300
G1 Z0 F300
G0 Z3
G0 X37.28702057404115 Y2.0187960375920753
G1 Z-3 F300
G1 Z0 F300
G0 Z3
G0 X42.292608585217174 Y2.0187960375920753
G1 Z-3 F300
G1 Z0 F300
G0 Z3
G0 X47.37236474472949 Y2.0187960375920753
G1 Z-3 F300
G1 Z0 F300
G0 Z3
G0 X52.52755905511811 Y2.0187960375920753
G1 Z-3 F300
G1 Z0 F300
G0 Z3
G0 X72.21259842519684 Y2.0187960375920753
G1 Z-3 F300
G1 Z0 F300
G0 Z3
G0 X74.752603505207 Y2.0187960375920753
G1 Z-3 F300
G1 Z0 F300
G0 Z3
G0 X77.29235458470917 Y2.0187960375920753
G1 Z-3 F300
G1 Z0 F300
G0 Z3
G0 X79.83235966471933 Y2.0187960375920753
G1 Z-3 F300
G1 Z0 F300
G0 Z3
G0 X82.3723647447295 Y2.0187960375920753
G1 Z-3 F300
G1 Z0 F300
G0 Z3
G0 X84.91262382524765 Y2.0187960375920753
G1 Z-3 F300
G1 Z0 F300
G0 Z3
G0 X87.45262890525781 Y2.0187960375920753
G1 Z-3 F300
G1 Z0 F300
G0 Z3
G0 X89.99237998475996 Y2.0187960375920753
G1 Z-3 F300
G1 Z0 F300
G0 Z3
M5
M30
