(Generated by PartKam Version 0.05)

G21 G90 G40

(vias)
G0 Z3
T0 M6
G17
M3
G0 X37.84734569469139 Y45.83362966725934
G1 Z-3 F300
G1 Z0 F300
G0 Z3
G0 X35.30734061468123 Y44.56388112776226
G1 Z-3 F300
G1 Z0 F300
G0 Z3
G0 X32.76733553467107 Y43.29387858775718
G1 Z-3 F300
G1 Z0 F300
G0 Z3
G0 X30.22733045466091 Y42.0241300482601
G1 Z-3 F300
G1 Z0 F300
G0 Z3
G0 X34.03733807467615 Y35.038862077724154
G1 Z-3 F300
G1 Z0 F300
G0 Z3
G0 X30.22733045466091 Y34.403860807721614
G1 Z-3 F300
G1 Z0 F300
G0 Z3
G0 X72.21234442468885 Y34.403860807721614
G1 Z-3 F300
G1 Z0 F300
G0 Z3
G0 X74.75234950469901 Y34.403860807721614
G1 Z-3 F300
G1 Z0 F300
G0 Z3
G0 X77.29260858521717 Y34.403860807721614
G1 Z-3 F300
G1 Z0 F300
G0 Z3
G0 X79.83261366522733 Y34.403860807721614
G1 Z-3 F300
G1 Z0 F300
G0 Z3
G0 X82.3723647447295 Y34.403860807721614
G1 Z-3 F300
G1 Z0 F300
G0 Z3
G0 X56.97231394462789 Y30.593853187706376
G1 Z-3 F300
G1 Z0 F300
G0 Z3
G0 X14.42722885445771 Y29.323850647701295
G1 Z-3 F300
G1 Z0 F300
G0 Z3
G0 X51.25755651511303 Y29.323850647701295
G1 Z-3 F300
G1 Z0 F300
G0 Z3
G0 X67.13258826517654 Y28.688849377698755
G1 Z-3 F300
G1 Z0 F300
G0 Z3
G0 X48.08255016510033 Y26.783591567183134
G1 Z-3 F300
G1 Z0 F300
G0 Z3
G0 X58.877317754635506 Y26.783591567183134
G1 Z-3 F300
G1 Z0 F300
G0 Z3
G0 X64.59258318516638 Y26.148844297688594
G1 Z-3 F300
G1 Z0 F300
G0 Z3
G0 X72.21234442468885 Y26.148844297688594
G1 Z-3 F300
G1 Z0 F300
G0 Z3
G0 X74.75234950469901 Y26.148844297688594
G1 Z-3 F300
G1 Z0 F300
G0 Z3
G0 X77.29260858521717 Y26.148844297688594
G1 Z-3 F300
G1 Z0 F300
G0 Z3
G0 X79.83261366522733 Y26.148844297688594
G1 Z-3 F300
G1 Z0 F300
G0 Z3
G0 X82.3723647447295 Y26.148844297688594
G1 Z-3 F300
G1 Z0 F300
G0 Z3
G0 X84.91236982473966 Y26.148844297688594
G1 Z-3 F300
G1 Z0 F300
G0 Z3
G0 X87.4523749047498 Y26.148844297688594
G1 Z-3 F300
G1 Z0 F300
G0 Z3
G0 X89.99263398526797 Y26.148844297688594
G1 Z-3 F300
G1 Z0 F300
G0 Z3
G0 X92.53263906527813 Y26.148844297688594
G1 Z-3 F300
G1 Z0 F300
G0 Z3
G0 X37.21234442468885 Y24.878841757683514
G1 Z-3 F300
G1 Z0 F300
G0 Z3
G0 X39.75234950469901 Y22.973583947167896
G1 Z-3 F300
G1 Z0 F300
G0 Z3
G0 X8.077216154432309 Y19.798577597155194
G1 Z-3 F300
G1 Z0 F300
G0 Z3
G0 X64.59258318516638 Y19.163830327660655
G1 Z-3 F300
G1 Z0 F300
G0 Z3
G0 X41.02235204470409 Y18.528829057658115
G1 Z-3 F300
G1 Z0 F300
G0 Z3
G0 X43.56235712471425 Y18.528829057658115
G1 Z-3 F300
G1 Z0 F300
G0 Z3
G0 X66.49758699517399 Y15.988823977647955
G1 Z-3 F300
G1 Z0 F300
G0 Z3
G0 X72.21234442468885 Y12.813817627635256
G1 Z-3 F300
G1 Z0 F300
G0 Z3
G0 X74.75234950469901 Y12.813817627635256
G1 Z-3 F300
G1 Z0 F300
G0 Z3
G0 X77.29260858521717 Y12.813817627635256
G1 Z-3 F300
G1 Z0 F300
G0 Z3
G0 X79.83261366522733 Y12.813817627635256
G1 Z-3 F300
G1 Z0 F300
G0 Z3
G0 X82.3723647447295 Y12.813817627635256
G1 Z-3 F300
G1 Z0 F300
G0 Z3
G0 X84.91236982473966 Y12.813817627635256
G1 Z-3 F300
G1 Z0 F300
G0 Z3
G0 X87.4523749047498 Y12.813817627635256
G1 Z-3 F300
G1 Z0 F300
G0 Z3
G0 X89.99263398526797 Y12.813817627635256
G1 Z-3 F300
G1 Z0 F300
G0 Z3
G0 X64.59258318516638 Y10.908559817119635
G1 Z-3 F300
G1 Z0 F300
G0 Z3
G0 X55.06756413512827 Y8.368808737617476
G1 Z-3 F300
G1 Z0 F300
G0 Z3
G0 X9.34747269494539 Y4.558547117094234
G1 Z-3 F300
G1 Z0 F300
G0 Z3
G0 X42.36753873507747 Y4.558547117094234
G1 Z-3 F300
G1 Z0 F300
G0 Z3
G0 X48.71755143510287 Y4.558547117094234
G1 Z-3 F300
G1 Z0 F300
G0 Z3
G0 X72.21234442468885 Y4.558547117094234
G1 Z-3 F300
G1 Z0 F300
G0 Z3
G0 X74.75234950469901 Y4.558547117094234
G1 Z-3 F300
G1 Z0 F300
G0 Z3
G0 X77.29260858521717 Y4.558547117094234
G1 Z-3 F300
G1 Z0 F300
G0 Z3
G0 X79.83261366522733 Y4.558547117094234
G1 Z-3 F300
G1 Z0 F300
G0 Z3
G0 X82.3723647447295 Y4.558547117094234
G1 Z-3 F300
G1 Z0 F300
G0 Z3
G0 X84.91236982473966 Y4.558547117094234
G1 Z-3 F300
G1 Z0 F300
G0 Z3
G0 X87.4523749047498 Y4.558547117094234
G1 Z-3 F300
G1 Z0 F300
G0 Z3
G0 X89.99263398526797 Y4.558547117094234
G1 Z-3 F300
G1 Z0 F300
G0 Z3
G0 X56.33731267462535 Y2.0187960375920753
G1 Z-3 F300
G1 Z0 F300
G0 Z3
M5
M30
