(Generated by PartKam Version 0.05)

G21 G90 G40

(bigholes)
G0 Z3
T0 M6
G17
M3
G0 X3.8968757937515877 Y3.0728981457962914
G1 Z-0.24993649987299973 F500
G3 X3.8328676657353316 Y3.398526797053594 I-0.8509017018034036 J0 F1500
G3 X3.6474472948945897 Y3.6728473456946915 I-0.7848615697231394 J-0.32512065024130044
G3 X3.3731267462534924 Y3.858267716535433 I-0.601981203962408 J-0.601981203962408
G3 X3.048006096012192 Y3.9217678435356875 I-0.32512065024130044 J-0.7848615697231394
G3 X2.722885445770892 Y3.858267716535433 I0 J-0.8509017018034036
G3 X2.446024892049784 Y3.6728473456946915 I0.32512065024130044 J-0.7848615697231394
G3 X2.2606045212090424 Y3.398526797053594 I0.601981203962408 J-0.601981203962408
G3 X2.1971043942087882 Y3.0734061468122937 I0.7848615697231394 J-0.32512065024130044
G3 X2.2606045212090424 Y2.748285496570993 I0.8509017018034036 J0
G3 X2.446024892049784 Y2.471424942849886 I0.7848615697231394 J0.32512065024130044
G3 X2.722885445770892 Y2.288544577089154 I0.601981203962408 J0.601981203962408
G3 X3.048006096012192 Y2.22250444500889 I0.32512065024130044 J0.7848615697231394
G3 X3.3731267462534924 Y2.288544577089154 I0 J0.8509017018034036
G3 X3.6474472948945897 Y2.471424942849886 I-0.32512065024130044 J0.7848615697231394
G3 X3.8328676657353316 Y2.748285496570993 I-0.601981203962408 J0.601981203962408
G3 X3.8963677927355853 Y3.0734061468122937 I-0.7848615697231394 J0.32512065024130044
G1 Z-0.49987299974599947 F500
G3 X3.8328676657353316 Y3.398526797053594 I-0.8509017018034036 J0 F1500
G3 X3.6474472948945897 Y3.6728473456946915 I-0.7848615697231394 J-0.32512065024130044
G3 X3.3731267462534924 Y3.858267716535433 I-0.601981203962408 J-0.601981203962408
G3 X3.048006096012192 Y3.9217678435356875 I-0.32512065024130044 J-0.7848615697231394
G3 X2.722885445770892 Y3.858267716535433 I0 J-0.8509017018034036
G3 X2.446024892049784 Y3.6728473456946915 I0.32512065024130044 J-0.7848615697231394
G3 X2.2606045212090424 Y3.398526797053594 I0.601981203962408 J-0.601981203962408
G3 X2.1971043942087882 Y3.0734061468122937 I0.7848615697231394 J-0.32512065024130044
G3 X2.2606045212090424 Y2.748285496570993 I0.8509017018034036 J0
G3 X2.446024892049784 Y2.471424942849886 I0.7848615697231394 J0.32512065024130044
G3 X2.722885445770892 Y2.288544577089154 I0.601981203962408 J0.601981203962408
G3 X3.048006096012192 Y2.22250444500889 I0.32512065024130044 J0.7848615697231394
G3 X3.3731267462534924 Y2.288544577089154 I0 J0.8509017018034036
G3 X3.6474472948945897 Y2.471424942849886 I-0.32512065024130044 J0.7848615697231394
G3 X3.8328676657353316 Y2.748285496570993 I-0.601981203962408 J0.601981203962408
G3 X3.8963677927355853 Y3.0734061468122937 I-0.7848615697231394 J0.32512065024130044
G1 Z-0.7498094996189992 F500
G3 X3.8328676657353316 Y3.398526797053594 I-0.8509017018034036 J0 F1500
G3 X3.6474472948945897 Y3.6728473456946915 I-0.7848615697231394 J-0.32512065024130044
G3 X3.3731267462534924 Y3.858267716535433 I-0.601981203962408 J-0.601981203962408
G3 X3.048006096012192 Y3.9217678435356875 I-0.32512065024130044 J-0.7848615697231394
G3 X2.722885445770892 Y3.858267716535433 I0 J-0.8509017018034036
G3 X2.446024892049784 Y3.6728473456946915 I0.32512065024130044 J-0.7848615697231394
G3 X2.2606045212090424 Y3.398526797053594 I0.601981203962408 J-0.601981203962408
G3 X2.1971043942087882 Y3.0734061468122937 I0.7848615697231394 J-0.32512065024130044
G3 X2.2606045212090424 Y2.748285496570993 I0.8509017018034036 J0
G3 X2.446024892049784 Y2.471424942849886 I0.7848615697231394 J0.32512065024130044
G3 X2.722885445770892 Y2.288544577089154 I0.601981203962408 J0.601981203962408
G3 X3.048006096012192 Y2.22250444500889 I0.32512065024130044 J0.7848615697231394
G3 X3.3731267462534924 Y2.288544577089154 I0 J0.8509017018034036
G3 X3.6474472948945897 Y2.471424942849886 I-0.32512065024130044 J0.7848615697231394
G3 X3.8328676657353316 Y2.748285496570993 I-0.601981203962408 J0.601981203962408
G3 X3.8963677927355853 Y3.0734061468122937 I-0.7848615697231394 J0.32512065024130044
G1 Z-0.9997459994919989 F500
G3 X3.8328676657353316 Y3.398526797053594 I-0.8509017018034036 J0 F1500
G3 X3.6474472948945897 Y3.6728473456946915 I-0.7848615697231394 J-0.32512065024130044
G3 X3.3731267462534924 Y3.858267716535433 I-0.601981203962408 J-0.601981203962408
G3 X3.048006096012192 Y3.9217678435356875 I-0.32512065024130044 J-0.7848615697231394
G3 X2.722885445770892 Y3.858267716535433 I0 J-0.8509017018034036
G3 X2.446024892049784 Y3.6728473456946915 I0.32512065024130044 J-0.7848615697231394
G3 X2.2606045212090424 Y3.398526797053594 I0.601981203962408 J-0.601981203962408
G3 X2.1971043942087882 Y3.0734061468122937 I0.7848615697231394 J-0.32512065024130044
G3 X2.2606045212090424 Y2.748285496570993 I0.8509017018034036 J0
G3 X2.446024892049784 Y2.471424942849886 I0.7848615697231394 J0.32512065024130044
G3 X2.722885445770892 Y2.288544577089154 I0.601981203962408 J0.601981203962408
G3 X3.048006096012192 Y2.22250444500889 I0.32512065024130044 J0.7848615697231394
G3 X3.3731267462534924 Y2.288544577089154 I0 J0.8509017018034036
G3 X3.6474472948945897 Y2.471424942849886 I-0.32512065024130044 J0.7848615697231394
G3 X3.8328676657353316 Y2.748285496570993 I-0.601981203962408 J0.601981203962408
G3 X3.8963677927355853 Y3.0734061468122937 I-0.7848615697231394 J0.32512065024130044
G1 Z-1.2496824993649986 F500
G3 X3.8328676657353316 Y3.398526797053594 I-0.8509017018034036 J0 F1500
G3 X3.6474472948945897 Y3.6728473456946915 I-0.7848615697231394 J-0.32512065024130044
G3 X3.3731267462534924 Y3.858267716535433 I-0.601981203962408 J-0.601981203962408
G3 X3.048006096012192 Y3.9217678435356875 I-0.32512065024130044 J-0.7848615697231394
G3 X2.722885445770892 Y3.858267716535433 I0 J-0.8509017018034036
G3 X2.446024892049784 Y3.6728473456946915 I0.32512065024130044 J-0.7848615697231394
G3 X2.2606045212090424 Y3.398526797053594 I0.601981203962408 J-0.601981203962408
G3 X2.1971043942087882 Y3.0734061468122937 I0.7848615697231394 J-0.32512065024130044
G3 X2.2606045212090424 Y2.748285496570993 I0.8509017018034036 J0
G3 X2.446024892049784 Y2.471424942849886 I0.7848615697231394 J0.32512065024130044
G3 X2.722885445770892 Y2.288544577089154 I0.601981203962408 J0.601981203962408
G3 X3.048006096012192 Y2.22250444500889 I0.32512065024130044 J0.7848615697231394
G3 X3.3731267462534924 Y2.288544577089154 I0 J0.8509017018034036
G3 X3.6474472948945897 Y2.471424942849886 I-0.32512065024130044 J0.7848615697231394
G3 X3.8328676657353316 Y2.748285496570993 I-0.601981203962408 J0.601981203962408
G3 X3.8963677927355853 Y3.0734061468122937 I-0.7848615697231394 J0.32512065024130044
G1 Z-1.4996189992379985 F500
G3 X3.8328676657353316 Y3.398526797053594 I-0.8509017018034036 J0 F1500
G3 X3.6474472948945897 Y3.6728473456946915 I-0.7848615697231394 J-0.32512065024130044
G3 X3.3731267462534924 Y3.858267716535433 I-0.601981203962408 J-0.601981203962408
G3 X3.048006096012192 Y3.9217678435356875 I-0.32512065024130044 J-0.7848615697231394
G3 X2.722885445770892 Y3.858267716535433 I0 J-0.8509017018034036
G3 X2.446024892049784 Y3.6728473456946915 I0.32512065024130044 J-0.7848615697231394
G3 X2.2606045212090424 Y3.398526797053594 I0.601981203962408 J-0.601981203962408
G3 X2.1971043942087882 Y3.0734061468122937 I0.7848615697231394 J-0.32512065024130044
G3 X2.2606045212090424 Y2.748285496570993 I0.8509017018034036 J0
G3 X2.446024892049784 Y2.471424942849886 I0.7848615697231394 J0.32512065024130044
G3 X2.722885445770892 Y2.288544577089154 I0.601981203962408 J0.601981203962408
G3 X3.048006096012192 Y2.22250444500889 I0.32512065024130044 J0.7848615697231394
G3 X3.3731267462534924 Y2.288544577089154 I0 J0.8509017018034036
G3 X3.6474472948945897 Y2.471424942849886 I-0.32512065024130044 J0.7848615697231394
G3 X3.8328676657353316 Y2.748285496570993 I-0.601981203962408 J0.601981203962408
G3 X3.8963677927355853 Y3.0734061468122937 I-0.7848615697231394 J0.32512065024130044
G1 Z-1.7495554991109983 F500
G3 X3.8328676657353316 Y3.398526797053594 I-0.8509017018034036 J0 F1500
G3 X3.6474472948945897 Y3.6728473456946915 I-0.7848615697231394 J-0.32512065024130044
G3 X3.3731267462534924 Y3.858267716535433 I-0.601981203962408 J-0.601981203962408
G3 X3.048006096012192 Y3.9217678435356875 I-0.32512065024130044 J-0.7848615697231394
G3 X2.722885445770892 Y3.858267716535433 I0 J-0.8509017018034036
G3 X2.446024892049784 Y3.6728473456946915 I0.32512065024130044 J-0.7848615697231394
G3 X2.2606045212090424 Y3.398526797053594 I0.601981203962408 J-0.601981203962408
G3 X2.1971043942087882 Y3.0734061468122937 I0.7848615697231394 J-0.32512065024130044
G3 X2.2606045212090424 Y2.748285496570993 I0.8509017018034036 J0
G3 X2.446024892049784 Y2.471424942849886 I0.7848615697231394 J0.32512065024130044
G3 X2.722885445770892 Y2.288544577089154 I0.601981203962408 J0.601981203962408
G3 X3.048006096012192 Y2.22250444500889 I0.32512065024130044 J0.7848615697231394
G3 X3.3731267462534924 Y2.288544577089154 I0 J0.8509017018034036
G3 X3.6474472948945897 Y2.471424942849886 I-0.32512065024130044 J0.7848615697231394
G3 X3.8328676657353316 Y2.748285496570993 I-0.601981203962408 J0.601981203962408
G3 X3.8963677927355853 Y3.0734061468122937 I-0.7848615697231394 J0.32512065024130044
G1 Z-1.9994919989839979 F500
G3 X3.8328676657353316 Y3.398526797053594 I-0.8509017018034036 J0 F1500
G3 X3.6474472948945897 Y3.6728473456946915 I-0.7848615697231394 J-0.32512065024130044
G3 X3.3731267462534924 Y3.858267716535433 I-0.601981203962408 J-0.601981203962408
G3 X3.048006096012192 Y3.9217678435356875 I-0.32512065024130044 J-0.7848615697231394
G3 X2.722885445770892 Y3.858267716535433 I0 J-0.8509017018034036
G3 X2.446024892049784 Y3.6728473456946915 I0.32512065024130044 J-0.7848615697231394
G3 X2.2606045212090424 Y3.398526797053594 I0.601981203962408 J-0.601981203962408
G3 X2.1971043942087882 Y3.0734061468122937 I0.7848615697231394 J-0.32512065024130044
G3 X2.2606045212090424 Y2.748285496570993 I0.8509017018034036 J0
G3 X2.446024892049784 Y2.471424942849886 I0.7848615697231394 J0.32512065024130044
G3 X2.722885445770892 Y2.288544577089154 I0.601981203962408 J0.601981203962408
G3 X3.048006096012192 Y2.22250444500889 I0.32512065024130044 J0.7848615697231394
G3 X3.3731267462534924 Y2.288544577089154 I0 J0.8509017018034036
G3 X3.6474472948945897 Y2.471424942849886 I-0.32512065024130044 J0.7848615697231394
G3 X3.8328676657353316 Y2.748285496570993 I-0.601981203962408 J0.601981203962408
G3 X3.8963677927355853 Y3.0734061468122937 I-0.7848615697231394 J0.32512065024130044
G1 Z-2.249428498856998 F500
G3 X3.8328676657353316 Y3.398526797053594 I-0.8509017018034036 J0 F1500
G3 X3.6474472948945897 Y3.6728473456946915 I-0.7848615697231394 J-0.32512065024130044
G3 X3.3731267462534924 Y3.858267716535433 I-0.601981203962408 J-0.601981203962408
G3 X3.048006096012192 Y3.9217678435356875 I-0.32512065024130044 J-0.7848615697231394
G3 X2.722885445770892 Y3.858267716535433 I0 J-0.8509017018034036
G3 X2.446024892049784 Y3.6728473456946915 I0.32512065024130044 J-0.7848615697231394
G3 X2.2606045212090424 Y3.398526797053594 I0.601981203962408 J-0.601981203962408
G3 X2.1971043942087882 Y3.0734061468122937 I0.7848615697231394 J-0.32512065024130044
G3 X2.2606045212090424 Y2.748285496570993 I0.8509017018034036 J0
G3 X2.446024892049784 Y2.471424942849886 I0.7848615697231394 J0.32512065024130044
G3 X2.722885445770892 Y2.288544577089154 I0.601981203962408 J0.601981203962408
G3 X3.048006096012192 Y2.22250444500889 I0.32512065024130044 J0.7848615697231394
G3 X3.3731267462534924 Y2.288544577089154 I0 J0.8509017018034036
G3 X3.6474472948945897 Y2.471424942849886 I-0.32512065024130044 J0.7848615697231394
G3 X3.8328676657353316 Y2.748285496570993 I-0.601981203962408 J0.601981203962408
G3 X3.8963677927355853 Y3.0734061468122937 I-0.7848615697231394 J0.32512065024130044
G1 Z-2.4993649987299973 F500
G3 X3.8328676657353316 Y3.398526797053594 I-0.8509017018034036 J0 F1500
G3 X3.6474472948945897 Y3.6728473456946915 I-0.7848615697231394 J-0.32512065024130044
G3 X3.3731267462534924 Y3.858267716535433 I-0.601981203962408 J-0.601981203962408
G3 X3.048006096012192 Y3.9217678435356875 I-0.32512065024130044 J-0.7848615697231394
G3 X2.722885445770892 Y3.858267716535433 I0 J-0.8509017018034036
G3 X2.446024892049784 Y3.6728473456946915 I0.32512065024130044 J-0.7848615697231394
G3 X2.2606045212090424 Y3.398526797053594 I0.601981203962408 J-0.601981203962408
G3 X2.1971043942087882 Y3.0734061468122937 I0.7848615697231394 J-0.32512065024130044
G3 X2.2606045212090424 Y2.748285496570993 I0.8509017018034036 J0
G3 X2.446024892049784 Y2.471424942849886 I0.7848615697231394 J0.32512065024130044
G3 X2.722885445770892 Y2.288544577089154 I0.601981203962408 J0.601981203962408
G3 X3.048006096012192 Y2.22250444500889 I0.32512065024130044 J0.7848615697231394
G3 X3.3731267462534924 Y2.288544577089154 I0 J0.8509017018034036
G3 X3.6474472948945897 Y2.471424942849886 I-0.32512065024130044 J0.7848615697231394
G3 X3.8328676657353316 Y2.748285496570993 I-0.601981203962408 J0.601981203962408
G3 X3.8963677927355853 Y3.0734061468122937 I-0.7848615697231394 J0.32512065024130044
G1 Z-2.749301498602997 F500
G3 X3.8328676657353316 Y3.398526797053594 I-0.8509017018034036 J0 F1500
G3 X3.6474472948945897 Y3.6728473456946915 I-0.7848615697231394 J-0.32512065024130044
G3 X3.3731267462534924 Y3.858267716535433 I-0.601981203962408 J-0.601981203962408
G3 X3.048006096012192 Y3.9217678435356875 I-0.32512065024130044 J-0.7848615697231394
G3 X2.722885445770892 Y3.858267716535433 I0 J-0.8509017018034036
G3 X2.446024892049784 Y3.6728473456946915 I0.32512065024130044 J-0.7848615697231394
G3 X2.2606045212090424 Y3.398526797053594 I0.601981203962408 J-0.601981203962408
G3 X2.1971043942087882 Y3.0734061468122937 I0.7848615697231394 J-0.32512065024130044
G3 X2.2606045212090424 Y2.748285496570993 I0.8509017018034036 J0
G3 X2.446024892049784 Y2.471424942849886 I0.7848615697231394 J0.32512065024130044
G3 X2.722885445770892 Y2.288544577089154 I0.601981203962408 J0.601981203962408
G3 X3.048006096012192 Y2.22250444500889 I0.32512065024130044 J0.7848615697231394
G3 X3.3731267462534924 Y2.288544577089154 I0 J0.8509017018034036
G3 X3.6474472948945897 Y2.471424942849886 I-0.32512065024130044 J0.7848615697231394
G3 X3.8328676657353316 Y2.748285496570993 I-0.601981203962408 J0.601981203962408
G3 X3.8963677927355853 Y3.0734061468122937 I-0.7848615697231394 J0.32512065024130044
G1 Z-2.999237998475997 F500
G3 X3.8328676657353316 Y3.398526797053594 I-0.8509017018034036 J0 F1500
G3 X3.6474472948945897 Y3.6728473456946915 I-0.7848615697231394 J-0.32512065024130044
G3 X3.3731267462534924 Y3.858267716535433 I-0.601981203962408 J-0.601981203962408
G3 X3.048006096012192 Y3.9217678435356875 I-0.32512065024130044 J-0.7848615697231394
G3 X2.722885445770892 Y3.858267716535433 I0 J-0.8509017018034036
G3 X2.446024892049784 Y3.6728473456946915 I0.32512065024130044 J-0.7848615697231394
G3 X2.2606045212090424 Y3.398526797053594 I0.601981203962408 J-0.601981203962408
G3 X2.1971043942087882 Y3.0734061468122937 I0.7848615697231394 J-0.32512065024130044
G3 X2.2606045212090424 Y2.748285496570993 I0.8509017018034036 J0
G3 X2.446024892049784 Y2.471424942849886 I0.7848615697231394 J0.32512065024130044
G3 X2.722885445770892 Y2.288544577089154 I0.601981203962408 J0.601981203962408
G3 X3.048006096012192 Y2.22250444500889 I0.32512065024130044 J0.7848615697231394
G3 X3.3731267462534924 Y2.288544577089154 I0 J0.8509017018034036
G3 X3.6474472948945897 Y2.471424942849886 I-0.32512065024130044 J0.7848615697231394
G3 X3.8328676657353316 Y2.748285496570993 I-0.601981203962408 J0.601981203962408
G3 X3.8963677927355853 Y3.0734061468122937 I-0.7848615697231394 J0.32512065024130044
G1 Z-3 F500
G3 X3.8328676657353316 Y3.398526797053594 I-0.8509017018034036 J0 F1500
G3 X3.6474472948945897 Y3.6728473456946915 I-0.7848615697231394 J-0.32512065024130044
G3 X3.3731267462534924 Y3.858267716535433 I-0.601981203962408 J-0.601981203962408
G3 X3.048006096012192 Y3.9217678435356875 I-0.32512065024130044 J-0.7848615697231394
G3 X2.722885445770892 Y3.858267716535433 I0 J-0.8509017018034036
G3 X2.446024892049784 Y3.6728473456946915 I0.32512065024130044 J-0.7848615697231394
G3 X2.2606045212090424 Y3.398526797053594 I0.601981203962408 J-0.601981203962408
G3 X2.1971043942087882 Y3.0734061468122937 I0.7848615697231394 J-0.32512065024130044
G3 X2.2606045212090424 Y2.748285496570993 I0.8509017018034036 J0
G3 X2.446024892049784 Y2.471424942849886 I0.7848615697231394 J0.32512065024130044
G3 X2.722885445770892 Y2.288544577089154 I0.601981203962408 J0.601981203962408
G3 X3.048006096012192 Y2.22250444500889 I0.32512065024130044 J0.7848615697231394
G3 X3.3731267462534924 Y2.288544577089154 I0 J0.8509017018034036
G3 X3.6474472948945897 Y2.471424942849886 I-0.32512065024130044 J0.7848615697231394
G3 X3.8328676657353316 Y2.748285496570993 I-0.601981203962408 J0.601981203962408
G3 X3.8963677927355853 Y3.0734061468122937 I-0.7848615697231394 J0.32512065024130044
G0 Z3
G0 X3.8968757937515877 Y51.96824993649987
G1 Z-0.24993649987299973 F500
G3 X3.8328676657353316 Y52.29362458724918 I-0.8509017018034036 J0 F1500
G3 X3.6474472948945897 Y52.56794513589028 I-0.7848615697231394 J-0.32512065024130044
G3 X3.3731267462534924 Y52.753365506731015 I-0.601981203962408 J-0.601981203962408
G3 X3.048006096012192 Y52.81940563881128 I-0.32512065024130044 J-0.7848615697231394
G3 X2.722885445770892 Y52.753365506731015 I0 J-0.8509017018034036
G3 X2.446024892049784 Y52.56794513589028 I0.32512065024130044 J-0.7848615697231394
G3 X2.2606045212090424 Y52.29362458724918 I0.601981203962408 J-0.601981203962408
G3 X2.1971043942087882 Y51.96850393700787 I0.7848615697231394 J-0.32512065024130044
G3 X2.2606045212090424 Y51.64338328676657 I0.8509017018034036 J0
G3 X2.446024892049784 Y51.36652273304547 I0.7848615697231394 J0.32512065024130044
G3 X2.722885445770892 Y51.18364236728474 I0.601981203962408 J0.601981203962408
G3 X3.048006096012192 Y51.11760223520447 I0.32512065024130044 J0.7848615697231394
G3 X3.3731267462534924 Y51.18364236728474 I0 J0.8509017018034036
G3 X3.6474472948945897 Y51.36652273304547 I-0.32512065024130044 J0.7848615697231394
G3 X3.8328676657353316 Y51.64338328676657 I-0.601981203962408 J0.601981203962408
G3 X3.8963677927355853 Y51.96850393700787 I-0.7848615697231394 J0.32512065024130044
G1 Z-0.49987299974599947 F500
G3 X3.8328676657353316 Y52.29362458724918 I-0.8509017018034036 J0 F1500
G3 X3.6474472948945897 Y52.56794513589028 I-0.7848615697231394 J-0.32512065024130044
G3 X3.3731267462534924 Y52.753365506731015 I-0.601981203962408 J-0.601981203962408
G3 X3.048006096012192 Y52.81940563881128 I-0.32512065024130044 J-0.7848615697231394
G3 X2.722885445770892 Y52.753365506731015 I0 J-0.8509017018034036
G3 X2.446024892049784 Y52.56794513589028 I0.32512065024130044 J-0.7848615697231394
G3 X2.2606045212090424 Y52.29362458724918 I0.601981203962408 J-0.601981203962408
G3 X2.1971043942087882 Y51.96850393700787 I0.7848615697231394 J-0.32512065024130044
G3 X2.2606045212090424 Y51.64338328676657 I0.8509017018034036 J0
G3 X2.446024892049784 Y51.36652273304547 I0.7848615697231394 J0.32512065024130044
G3 X2.722885445770892 Y51.18364236728474 I0.601981203962408 J0.601981203962408
G3 X3.048006096012192 Y51.11760223520447 I0.32512065024130044 J0.7848615697231394
G3 X3.3731267462534924 Y51.18364236728474 I0 J0.8509017018034036
G3 X3.6474472948945897 Y51.36652273304547 I-0.32512065024130044 J0.7848615697231394
G3 X3.8328676657353316 Y51.64338328676657 I-0.601981203962408 J0.601981203962408
G3 X3.8963677927355853 Y51.96850393700787 I-0.7848615697231394 J0.32512065024130044
G1 Z-0.7498094996189992 F500
G3 X3.8328676657353316 Y52.29362458724918 I-0.8509017018034036 J0 F1500
G3 X3.6474472948945897 Y52.56794513589028 I-0.7848615697231394 J-0.32512065024130044
G3 X3.3731267462534924 Y52.753365506731015 I-0.601981203962408 J-0.601981203962408
G3 X3.048006096012192 Y52.81940563881128 I-0.32512065024130044 J-0.7848615697231394
G3 X2.722885445770892 Y52.753365506731015 I0 J-0.8509017018034036
G3 X2.446024892049784 Y52.56794513589028 I0.32512065024130044 J-0.7848615697231394
G3 X2.2606045212090424 Y52.29362458724918 I0.601981203962408 J-0.601981203962408
G3 X2.1971043942087882 Y51.96850393700787 I0.7848615697231394 J-0.32512065024130044
G3 X2.2606045212090424 Y51.64338328676657 I0.8509017018034036 J0
G3 X2.446024892049784 Y51.36652273304547 I0.7848615697231394 J0.32512065024130044
G3 X2.722885445770892 Y51.18364236728474 I0.601981203962408 J0.601981203962408
G3 X3.048006096012192 Y51.11760223520447 I0.32512065024130044 J0.7848615697231394
G3 X3.3731267462534924 Y51.18364236728474 I0 J0.8509017018034036
G3 X3.6474472948945897 Y51.36652273304547 I-0.32512065024130044 J0.7848615697231394
G3 X3.8328676657353316 Y51.64338328676657 I-0.601981203962408 J0.601981203962408
G3 X3.8963677927355853 Y51.96850393700787 I-0.7848615697231394 J0.32512065024130044
G1 Z-0.9997459994919989 F500
G3 X3.8328676657353316 Y52.29362458724918 I-0.8509017018034036 J0 F1500
G3 X3.6474472948945897 Y52.56794513589028 I-0.7848615697231394 J-0.32512065024130044
G3 X3.3731267462534924 Y52.753365506731015 I-0.601981203962408 J-0.601981203962408
G3 X3.048006096012192 Y52.81940563881128 I-0.32512065024130044 J-0.7848615697231394
G3 X2.722885445770892 Y52.753365506731015 I0 J-0.8509017018034036
G3 X2.446024892049784 Y52.56794513589028 I0.32512065024130044 J-0.7848615697231394
G3 X2.2606045212090424 Y52.29362458724918 I0.601981203962408 J-0.601981203962408
G3 X2.1971043942087882 Y51.96850393700787 I0.7848615697231394 J-0.32512065024130044
G3 X2.2606045212090424 Y51.64338328676657 I0.8509017018034036 J0
G3 X2.446024892049784 Y51.36652273304547 I0.7848615697231394 J0.32512065024130044
G3 X2.722885445770892 Y51.18364236728474 I0.601981203962408 J0.601981203962408
G3 X3.048006096012192 Y51.11760223520447 I0.32512065024130044 J0.7848615697231394
G3 X3.3731267462534924 Y51.18364236728474 I0 J0.8509017018034036
G3 X3.6474472948945897 Y51.36652273304547 I-0.32512065024130044 J0.7848615697231394
G3 X3.8328676657353316 Y51.64338328676657 I-0.601981203962408 J0.601981203962408
G3 X3.8963677927355853 Y51.96850393700787 I-0.7848615697231394 J0.32512065024130044
G1 Z-1.2496824993649986 F500
G3 X3.8328676657353316 Y52.29362458724918 I-0.8509017018034036 J0 F1500
G3 X3.6474472948945897 Y52.56794513589028 I-0.7848615697231394 J-0.32512065024130044
G3 X3.3731267462534924 Y52.753365506731015 I-0.601981203962408 J-0.601981203962408
G3 X3.048006096012192 Y52.81940563881128 I-0.32512065024130044 J-0.7848615697231394
G3 X2.722885445770892 Y52.753365506731015 I0 J-0.8509017018034036
G3 X2.446024892049784 Y52.56794513589028 I0.32512065024130044 J-0.7848615697231394
G3 X2.2606045212090424 Y52.29362458724918 I0.601981203962408 J-0.601981203962408
G3 X2.1971043942087882 Y51.96850393700787 I0.7848615697231394 J-0.32512065024130044
G3 X2.2606045212090424 Y51.64338328676657 I0.8509017018034036 J0
G3 X2.446024892049784 Y51.36652273304547 I0.7848615697231394 J0.32512065024130044
G3 X2.722885445770892 Y51.18364236728474 I0.601981203962408 J0.601981203962408
G3 X3.048006096012192 Y51.11760223520447 I0.32512065024130044 J0.7848615697231394
G3 X3.3731267462534924 Y51.18364236728474 I0 J0.8509017018034036
G3 X3.6474472948945897 Y51.36652273304547 I-0.32512065024130044 J0.7848615697231394
G3 X3.8328676657353316 Y51.64338328676657 I-0.601981203962408 J0.601981203962408
G3 X3.8963677927355853 Y51.96850393700787 I-0.7848615697231394 J0.32512065024130044
G1 Z-1.4996189992379985 F500
G3 X3.8328676657353316 Y52.29362458724918 I-0.8509017018034036 J0 F1500
G3 X3.6474472948945897 Y52.56794513589028 I-0.7848615697231394 J-0.32512065024130044
G3 X3.3731267462534924 Y52.753365506731015 I-0.601981203962408 J-0.601981203962408
G3 X3.048006096012192 Y52.81940563881128 I-0.32512065024130044 J-0.7848615697231394
G3 X2.722885445770892 Y52.753365506731015 I0 J-0.8509017018034036
G3 X2.446024892049784 Y52.56794513589028 I0.32512065024130044 J-0.7848615697231394
G3 X2.2606045212090424 Y52.29362458724918 I0.601981203962408 J-0.601981203962408
G3 X2.1971043942087882 Y51.96850393700787 I0.7848615697231394 J-0.32512065024130044
G3 X2.2606045212090424 Y51.64338328676657 I0.8509017018034036 J0
G3 X2.446024892049784 Y51.36652273304547 I0.7848615697231394 J0.32512065024130044
G3 X2.722885445770892 Y51.18364236728474 I0.601981203962408 J0.601981203962408
G3 X3.048006096012192 Y51.11760223520447 I0.32512065024130044 J0.7848615697231394
G3 X3.3731267462534924 Y51.18364236728474 I0 J0.8509017018034036
G3 X3.6474472948945897 Y51.36652273304547 I-0.32512065024130044 J0.7848615697231394
G3 X3.8328676657353316 Y51.64338328676657 I-0.601981203962408 J0.601981203962408
G3 X3.8963677927355853 Y51.96850393700787 I-0.7848615697231394 J0.32512065024130044
G1 Z-1.7495554991109983 F500
G3 X3.8328676657353316 Y52.29362458724918 I-0.8509017018034036 J0 F1500
G3 X3.6474472948945897 Y52.56794513589028 I-0.7848615697231394 J-0.32512065024130044
G3 X3.3731267462534924 Y52.753365506731015 I-0.601981203962408 J-0.601981203962408
G3 X3.048006096012192 Y52.81940563881128 I-0.32512065024130044 J-0.7848615697231394
G3 X2.722885445770892 Y52.753365506731015 I0 J-0.8509017018034036
G3 X2.446024892049784 Y52.56794513589028 I0.32512065024130044 J-0.7848615697231394
G3 X2.2606045212090424 Y52.29362458724918 I0.601981203962408 J-0.601981203962408
G3 X2.1971043942087882 Y51.96850393700787 I0.7848615697231394 J-0.32512065024130044
G3 X2.2606045212090424 Y51.64338328676657 I0.8509017018034036 J0
G3 X2.446024892049784 Y51.36652273304547 I0.7848615697231394 J0.32512065024130044
G3 X2.722885445770892 Y51.18364236728474 I0.601981203962408 J0.601981203962408
G3 X3.048006096012192 Y51.11760223520447 I0.32512065024130044 J0.7848615697231394
G3 X3.3731267462534924 Y51.18364236728474 I0 J0.8509017018034036
G3 X3.6474472948945897 Y51.36652273304547 I-0.32512065024130044 J0.7848615697231394
G3 X3.8328676657353316 Y51.64338328676657 I-0.601981203962408 J0.601981203962408
G3 X3.8963677927355853 Y51.96850393700787 I-0.7848615697231394 J0.32512065024130044
G1 Z-1.9994919989839979 F500
G3 X3.8328676657353316 Y52.29362458724918 I-0.8509017018034036 J0 F1500
G3 X3.6474472948945897 Y52.56794513589028 I-0.7848615697231394 J-0.32512065024130044
G3 X3.3731267462534924 Y52.753365506731015 I-0.601981203962408 J-0.601981203962408
G3 X3.048006096012192 Y52.81940563881128 I-0.32512065024130044 J-0.7848615697231394
G3 X2.722885445770892 Y52.753365506731015 I0 J-0.8509017018034036
G3 X2.446024892049784 Y52.56794513589028 I0.32512065024130044 J-0.7848615697231394
G3 X2.2606045212090424 Y52.29362458724918 I0.601981203962408 J-0.601981203962408
G3 X2.1971043942087882 Y51.96850393700787 I0.7848615697231394 J-0.32512065024130044
G3 X2.2606045212090424 Y51.64338328676657 I0.8509017018034036 J0
G3 X2.446024892049784 Y51.36652273304547 I0.7848615697231394 J0.32512065024130044
G3 X2.722885445770892 Y51.18364236728474 I0.601981203962408 J0.601981203962408
G3 X3.048006096012192 Y51.11760223520447 I0.32512065024130044 J0.7848615697231394
G3 X3.3731267462534924 Y51.18364236728474 I0 J0.8509017018034036
G3 X3.6474472948945897 Y51.36652273304547 I-0.32512065024130044 J0.7848615697231394
G3 X3.8328676657353316 Y51.64338328676657 I-0.601981203962408 J0.601981203962408
G3 X3.8963677927355853 Y51.96850393700787 I-0.7848615697231394 J0.32512065024130044
G1 Z-2.249428498856998 F500
G3 X3.8328676657353316 Y52.29362458724918 I-0.8509017018034036 J0 F1500
G3 X3.6474472948945897 Y52.56794513589028 I-0.7848615697231394 J-0.32512065024130044
G3 X3.3731267462534924 Y52.753365506731015 I-0.601981203962408 J-0.601981203962408
G3 X3.048006096012192 Y52.81940563881128 I-0.32512065024130044 J-0.7848615697231394
G3 X2.722885445770892 Y52.753365506731015 I0 J-0.8509017018034036
G3 X2.446024892049784 Y52.56794513589028 I0.32512065024130044 J-0.7848615697231394
G3 X2.2606045212090424 Y52.29362458724918 I0.601981203962408 J-0.601981203962408
G3 X2.1971043942087882 Y51.96850393700787 I0.7848615697231394 J-0.32512065024130044
G3 X2.2606045212090424 Y51.64338328676657 I0.8509017018034036 J0
G3 X2.446024892049784 Y51.36652273304547 I0.7848615697231394 J0.32512065024130044
G3 X2.722885445770892 Y51.18364236728474 I0.601981203962408 J0.601981203962408
G3 X3.048006096012192 Y51.11760223520447 I0.32512065024130044 J0.7848615697231394
G3 X3.3731267462534924 Y51.18364236728474 I0 J0.8509017018034036
G3 X3.6474472948945897 Y51.36652273304547 I-0.32512065024130044 J0.7848615697231394
G3 X3.8328676657353316 Y51.64338328676657 I-0.601981203962408 J0.601981203962408
G3 X3.8963677927355853 Y51.96850393700787 I-0.7848615697231394 J0.32512065024130044
G1 Z-2.4993649987299973 F500
G3 X3.8328676657353316 Y52.29362458724918 I-0.8509017018034036 J0 F1500
G3 X3.6474472948945897 Y52.56794513589028 I-0.7848615697231394 J-0.32512065024130044
G3 X3.3731267462534924 Y52.753365506731015 I-0.601981203962408 J-0.601981203962408
G3 X3.048006096012192 Y52.81940563881128 I-0.32512065024130044 J-0.7848615697231394
G3 X2.722885445770892 Y52.753365506731015 I0 J-0.8509017018034036
G3 X2.446024892049784 Y52.56794513589028 I0.32512065024130044 J-0.7848615697231394
G3 X2.2606045212090424 Y52.29362458724918 I0.601981203962408 J-0.601981203962408
G3 X2.1971043942087882 Y51.96850393700787 I0.7848615697231394 J-0.32512065024130044
G3 X2.2606045212090424 Y51.64338328676657 I0.8509017018034036 J0
G3 X2.446024892049784 Y51.36652273304547 I0.7848615697231394 J0.32512065024130044
G3 X2.722885445770892 Y51.18364236728474 I0.601981203962408 J0.601981203962408
G3 X3.048006096012192 Y51.11760223520447 I0.32512065024130044 J0.7848615697231394
G3 X3.3731267462534924 Y51.18364236728474 I0 J0.8509017018034036
G3 X3.6474472948945897 Y51.36652273304547 I-0.32512065024130044 J0.7848615697231394
G3 X3.8328676657353316 Y51.64338328676657 I-0.601981203962408 J0.601981203962408
G3 X3.8963677927355853 Y51.96850393700787 I-0.7848615697231394 J0.32512065024130044
G1 Z-2.749301498602997 F500
G3 X3.8328676657353316 Y52.29362458724918 I-0.8509017018034036 J0 F1500
G3 X3.6474472948945897 Y52.56794513589028 I-0.7848615697231394 J-0.32512065024130044
G3 X3.3731267462534924 Y52.753365506731015 I-0.601981203962408 J-0.601981203962408
G3 X3.048006096012192 Y52.81940563881128 I-0.32512065024130044 J-0.7848615697231394
G3 X2.722885445770892 Y52.753365506731015 I0 J-0.8509017018034036
G3 X2.446024892049784 Y52.56794513589028 I0.32512065024130044 J-0.7848615697231394
G3 X2.2606045212090424 Y52.29362458724918 I0.601981203962408 J-0.601981203962408
G3 X2.1971043942087882 Y51.96850393700787 I0.7848615697231394 J-0.32512065024130044
G3 X2.2606045212090424 Y51.64338328676657 I0.8509017018034036 J0
G3 X2.446024892049784 Y51.36652273304547 I0.7848615697231394 J0.32512065024130044
G3 X2.722885445770892 Y51.18364236728474 I0.601981203962408 J0.601981203962408
G3 X3.048006096012192 Y51.11760223520447 I0.32512065024130044 J0.7848615697231394
G3 X3.3731267462534924 Y51.18364236728474 I0 J0.8509017018034036
G3 X3.6474472948945897 Y51.36652273304547 I-0.32512065024130044 J0.7848615697231394
G3 X3.8328676657353316 Y51.64338328676657 I-0.601981203962408 J0.601981203962408
G3 X3.8963677927355853 Y51.96850393700787 I-0.7848615697231394 J0.32512065024130044
G1 Z-2.999237998475997 F500
G3 X3.8328676657353316 Y52.29362458724918 I-0.8509017018034036 J0 F1500
G3 X3.6474472948945897 Y52.56794513589028 I-0.7848615697231394 J-0.32512065024130044
G3 X3.3731267462534924 Y52.753365506731015 I-0.601981203962408 J-0.601981203962408
G3 X3.048006096012192 Y52.81940563881128 I-0.32512065024130044 J-0.7848615697231394
G3 X2.722885445770892 Y52.753365506731015 I0 J-0.8509017018034036
G3 X2.446024892049784 Y52.56794513589028 I0.32512065024130044 J-0.7848615697231394
G3 X2.2606045212090424 Y52.29362458724918 I0.601981203962408 J-0.601981203962408
G3 X2.1971043942087882 Y51.96850393700787 I0.7848615697231394 J-0.32512065024130044
G3 X2.2606045212090424 Y51.64338328676657 I0.8509017018034036 J0
G3 X2.446024892049784 Y51.36652273304547 I0.7848615697231394 J0.32512065024130044
G3 X2.722885445770892 Y51.18364236728474 I0.601981203962408 J0.601981203962408
G3 X3.048006096012192 Y51.11760223520447 I0.32512065024130044 J0.7848615697231394
G3 X3.3731267462534924 Y51.18364236728474 I0 J0.8509017018034036
G3 X3.6474472948945897 Y51.36652273304547 I-0.32512065024130044 J0.7848615697231394
G3 X3.8328676657353316 Y51.64338328676657 I-0.601981203962408 J0.601981203962408
G3 X3.8963677927355853 Y51.96850393700787 I-0.7848615697231394 J0.32512065024130044
G1 Z-3 F500
G3 X3.8328676657353316 Y52.29362458724918 I-0.8509017018034036 J0 F1500
G3 X3.6474472948945897 Y52.56794513589028 I-0.7848615697231394 J-0.32512065024130044
G3 X3.3731267462534924 Y52.753365506731015 I-0.601981203962408 J-0.601981203962408
G3 X3.048006096012192 Y52.81940563881128 I-0.32512065024130044 J-0.7848615697231394
G3 X2.722885445770892 Y52.753365506731015 I0 J-0.8509017018034036
G3 X2.446024892049784 Y52.56794513589028 I0.32512065024130044 J-0.7848615697231394
G3 X2.2606045212090424 Y52.29362458724918 I0.601981203962408 J-0.601981203962408
G3 X2.1971043942087882 Y51.96850393700787 I0.7848615697231394 J-0.32512065024130044
G3 X2.2606045212090424 Y51.64338328676657 I0.8509017018034036 J0
G3 X2.446024892049784 Y51.36652273304547 I0.7848615697231394 J0.32512065024130044
G3 X2.722885445770892 Y51.18364236728474 I0.601981203962408 J0.601981203962408
G3 X3.048006096012192 Y51.11760223520447 I0.32512065024130044 J0.7848615697231394
G3 X3.3731267462534924 Y51.18364236728474 I0 J0.8509017018034036
G3 X3.6474472948945897 Y51.36652273304547 I-0.32512065024130044 J0.7848615697231394
G3 X3.8328676657353316 Y51.64338328676657 I-0.601981203962408 J0.601981203962408
G3 X3.8963677927355853 Y51.96850393700787 I-0.7848615697231394 J0.32512065024130044
G0 Z3
G0 X120.1016002032004 Y3.0728981457962914
G1 Z-0.24993649987299973 F500
G3 X120.03810007620015 Y3.398526797053594 I-0.8509017018034036 J0 F1500
G3 X119.85267970535942 Y3.6728473456946915 I-0.7848615697231394 J-0.32512065024130044
G3 X119.5758191516383 Y3.858267716535433 I-0.601981203962408 J-0.601981203962408
G3 X119.250698501397 Y3.9217678435356875 I-0.32512065024130044 J-0.7848615697231394
G3 X118.92557785115571 Y3.858267716535433 I0 J-0.8509017018034036
G3 X118.65125730251461 Y3.6728473456946915 I0.32512065024130044 J-0.7848615697231394
G3 X118.46583693167386 Y3.398526797053594 I0.601981203962408 J-0.601981203962408
G3 X118.40233680467361 Y3.0734061468122937 I0.7848615697231394 J-0.32512065024130044
G3 X118.46583693167386 Y2.748285496570993 I0.8509017018034036 J0
G3 X118.65125730251461 Y2.471424942849886 I0.7848615697231394 J0.32512065024130044
G3 X118.92557785115571 Y2.288544577089154 I0.601981203962408 J0.601981203962408
G3 X119.250698501397 Y2.22250444500889 I0.32512065024130044 J0.7848615697231394
G3 X119.5758191516383 Y2.288544577089154 I0 J0.8509017018034036
G3 X119.85267970535942 Y2.471424942849886 I-0.32512065024130044 J0.7848615697231394
G3 X120.03810007620015 Y2.748285496570993 I-0.601981203962408 J0.601981203962408
G3 X120.1016002032004 Y3.0734061468122937 I-0.7848615697231394 J0.32512065024130044
G1 Z-0.49987299974599947 F500
G3 X120.03810007620015 Y3.398526797053594 I-0.8509017018034036 J0 F1500
G3 X119.85267970535942 Y3.6728473456946915 I-0.7848615697231394 J-0.32512065024130044
G3 X119.5758191516383 Y3.858267716535433 I-0.601981203962408 J-0.601981203962408
G3 X119.250698501397 Y3.9217678435356875 I-0.32512065024130044 J-0.7848615697231394
G3 X118.92557785115571 Y3.858267716535433 I0 J-0.8509017018034036
G3 X118.65125730251461 Y3.6728473456946915 I0.32512065024130044 J-0.7848615697231394
G3 X118.46583693167386 Y3.398526797053594 I0.601981203962408 J-0.601981203962408
G3 X118.40233680467361 Y3.0734061468122937 I0.7848615697231394 J-0.32512065024130044
G3 X118.46583693167386 Y2.748285496570993 I0.8509017018034036 J0
G3 X118.65125730251461 Y2.471424942849886 I0.7848615697231394 J0.32512065024130044
G3 X118.92557785115571 Y2.288544577089154 I0.601981203962408 J0.601981203962408
G3 X119.250698501397 Y2.22250444500889 I0.32512065024130044 J0.7848615697231394
G3 X119.5758191516383 Y2.288544577089154 I0 J0.8509017018034036
G3 X119.85267970535942 Y2.471424942849886 I-0.32512065024130044 J0.7848615697231394
G3 X120.03810007620015 Y2.748285496570993 I-0.601981203962408 J0.601981203962408
G3 X120.1016002032004 Y3.0734061468122937 I-0.7848615697231394 J0.32512065024130044
G1 Z-0.7498094996189992 F500
G3 X120.03810007620015 Y3.398526797053594 I-0.8509017018034036 J0 F1500
G3 X119.85267970535942 Y3.6728473456946915 I-0.7848615697231394 J-0.32512065024130044
G3 X119.5758191516383 Y3.858267716535433 I-0.601981203962408 J-0.601981203962408
G3 X119.250698501397 Y3.9217678435356875 I-0.32512065024130044 J-0.7848615697231394
G3 X118.92557785115571 Y3.858267716535433 I0 J-0.8509017018034036
G3 X118.65125730251461 Y3.6728473456946915 I0.32512065024130044 J-0.7848615697231394
G3 X118.46583693167386 Y3.398526797053594 I0.601981203962408 J-0.601981203962408
G3 X118.40233680467361 Y3.0734061468122937 I0.7848615697231394 J-0.32512065024130044
G3 X118.46583693167386 Y2.748285496570993 I0.8509017018034036 J0
G3 X118.65125730251461 Y2.471424942849886 I0.7848615697231394 J0.32512065024130044
G3 X118.92557785115571 Y2.288544577089154 I0.601981203962408 J0.601981203962408
G3 X119.250698501397 Y2.22250444500889 I0.32512065024130044 J0.7848615697231394
G3 X119.5758191516383 Y2.288544577089154 I0 J0.8509017018034036
G3 X119.85267970535942 Y2.471424942849886 I-0.32512065024130044 J0.7848615697231394
G3 X120.03810007620015 Y2.748285496570993 I-0.601981203962408 J0.601981203962408
G3 X120.1016002032004 Y3.0734061468122937 I-0.7848615697231394 J0.32512065024130044
G1 Z-0.9997459994919989 F500
G3 X120.03810007620015 Y3.398526797053594 I-0.8509017018034036 J0 F1500
G3 X119.85267970535942 Y3.6728473456946915 I-0.7848615697231394 J-0.32512065024130044
G3 X119.5758191516383 Y3.858267716535433 I-0.601981203962408 J-0.601981203962408
G3 X119.250698501397 Y3.9217678435356875 I-0.32512065024130044 J-0.7848615697231394
G3 X118.92557785115571 Y3.858267716535433 I0 J-0.8509017018034036
G3 X118.65125730251461 Y3.6728473456946915 I0.32512065024130044 J-0.7848615697231394
G3 X118.46583693167386 Y3.398526797053594 I0.601981203962408 J-0.601981203962408
G3 X118.40233680467361 Y3.0734061468122937 I0.7848615697231394 J-0.32512065024130044
G3 X118.46583693167386 Y2.748285496570993 I0.8509017018034036 J0
G3 X118.65125730251461 Y2.471424942849886 I0.7848615697231394 J0.32512065024130044
G3 X118.92557785115571 Y2.288544577089154 I0.601981203962408 J0.601981203962408
G3 X119.250698501397 Y2.22250444500889 I0.32512065024130044 J0.7848615697231394
G3 X119.5758191516383 Y2.288544577089154 I0 J0.8509017018034036
G3 X119.85267970535942 Y2.471424942849886 I-0.32512065024130044 J0.7848615697231394
G3 X120.03810007620015 Y2.748285496570993 I-0.601981203962408 J0.601981203962408
G3 X120.1016002032004 Y3.0734061468122937 I-0.7848615697231394 J0.32512065024130044
G1 Z-1.2496824993649986 F500
G3 X120.03810007620015 Y3.398526797053594 I-0.8509017018034036 J0 F1500
G3 X119.85267970535942 Y3.6728473456946915 I-0.7848615697231394 J-0.32512065024130044
G3 X119.5758191516383 Y3.858267716535433 I-0.601981203962408 J-0.601981203962408
G3 X119.250698501397 Y3.9217678435356875 I-0.32512065024130044 J-0.7848615697231394
G3 X118.92557785115571 Y3.858267716535433 I0 J-0.8509017018034036
G3 X118.65125730251461 Y3.6728473456946915 I0.32512065024130044 J-0.7848615697231394
G3 X118.46583693167386 Y3.398526797053594 I0.601981203962408 J-0.601981203962408
G3 X118.40233680467361 Y3.0734061468122937 I0.7848615697231394 J-0.32512065024130044
G3 X118.46583693167386 Y2.748285496570993 I0.8509017018034036 J0
G3 X118.65125730251461 Y2.471424942849886 I0.7848615697231394 J0.32512065024130044
G3 X118.92557785115571 Y2.288544577089154 I0.601981203962408 J0.601981203962408
G3 X119.250698501397 Y2.22250444500889 I0.32512065024130044 J0.7848615697231394
G3 X119.5758191516383 Y2.288544577089154 I0 J0.8509017018034036
G3 X119.85267970535942 Y2.471424942849886 I-0.32512065024130044 J0.7848615697231394
G3 X120.03810007620015 Y2.748285496570993 I-0.601981203962408 J0.601981203962408
G3 X120.1016002032004 Y3.0734061468122937 I-0.7848615697231394 J0.32512065024130044
G1 Z-1.4996189992379985 F500
G3 X120.03810007620015 Y3.398526797053594 I-0.8509017018034036 J0 F1500
G3 X119.85267970535942 Y3.6728473456946915 I-0.7848615697231394 J-0.32512065024130044
G3 X119.5758191516383 Y3.858267716535433 I-0.601981203962408 J-0.601981203962408
G3 X119.250698501397 Y3.9217678435356875 I-0.32512065024130044 J-0.7848615697231394
G3 X118.92557785115571 Y3.858267716535433 I0 J-0.8509017018034036
G3 X118.65125730251461 Y3.6728473456946915 I0.32512065024130044 J-0.7848615697231394
G3 X118.46583693167386 Y3.398526797053594 I0.601981203962408 J-0.601981203962408
G3 X118.40233680467361 Y3.0734061468122937 I0.7848615697231394 J-0.32512065024130044
G3 X118.46583693167386 Y2.748285496570993 I0.8509017018034036 J0
G3 X118.65125730251461 Y2.471424942849886 I0.7848615697231394 J0.32512065024130044
G3 X118.92557785115571 Y2.288544577089154 I0.601981203962408 J0.601981203962408
G3 X119.250698501397 Y2.22250444500889 I0.32512065024130044 J0.7848615697231394
G3 X119.5758191516383 Y2.288544577089154 I0 J0.8509017018034036
G3 X119.85267970535942 Y2.471424942849886 I-0.32512065024130044 J0.7848615697231394
G3 X120.03810007620015 Y2.748285496570993 I-0.601981203962408 J0.601981203962408
G3 X120.1016002032004 Y3.0734061468122937 I-0.7848615697231394 J0.32512065024130044
G1 Z-1.7495554991109983 F500
G3 X120.03810007620015 Y3.398526797053594 I-0.8509017018034036 J0 F1500
G3 X119.85267970535942 Y3.6728473456946915 I-0.7848615697231394 J-0.32512065024130044
G3 X119.5758191516383 Y3.858267716535433 I-0.601981203962408 J-0.601981203962408
G3 X119.250698501397 Y3.9217678435356875 I-0.32512065024130044 J-0.7848615697231394
G3 X118.92557785115571 Y3.858267716535433 I0 J-0.8509017018034036
G3 X118.65125730251461 Y3.6728473456946915 I0.32512065024130044 J-0.7848615697231394
G3 X118.46583693167386 Y3.398526797053594 I0.601981203962408 J-0.601981203962408
G3 X118.40233680467361 Y3.0734061468122937 I0.7848615697231394 J-0.32512065024130044
G3 X118.46583693167386 Y2.748285496570993 I0.8509017018034036 J0
G3 X118.65125730251461 Y2.471424942849886 I0.7848615697231394 J0.32512065024130044
G3 X118.92557785115571 Y2.288544577089154 I0.601981203962408 J0.601981203962408
G3 X119.250698501397 Y2.22250444500889 I0.32512065024130044 J0.7848615697231394
G3 X119.5758191516383 Y2.288544577089154 I0 J0.8509017018034036
G3 X119.85267970535942 Y2.471424942849886 I-0.32512065024130044 J0.7848615697231394
G3 X120.03810007620015 Y2.748285496570993 I-0.601981203962408 J0.601981203962408
G3 X120.1016002032004 Y3.0734061468122937 I-0.7848615697231394 J0.32512065024130044
G1 Z-1.9994919989839979 F500
G3 X120.03810007620015 Y3.398526797053594 I-0.8509017018034036 J0 F1500
G3 X119.85267970535942 Y3.6728473456946915 I-0.7848615697231394 J-0.32512065024130044
G3 X119.5758191516383 Y3.858267716535433 I-0.601981203962408 J-0.601981203962408
G3 X119.250698501397 Y3.9217678435356875 I-0.32512065024130044 J-0.7848615697231394
G3 X118.92557785115571 Y3.858267716535433 I0 J-0.8509017018034036
G3 X118.65125730251461 Y3.6728473456946915 I0.32512065024130044 J-0.7848615697231394
G3 X118.46583693167386 Y3.398526797053594 I0.601981203962408 J-0.601981203962408
G3 X118.40233680467361 Y3.0734061468122937 I0.7848615697231394 J-0.32512065024130044
G3 X118.46583693167386 Y2.748285496570993 I0.8509017018034036 J0
G3 X118.65125730251461 Y2.471424942849886 I0.7848615697231394 J0.32512065024130044
G3 X118.92557785115571 Y2.288544577089154 I0.601981203962408 J0.601981203962408
G3 X119.250698501397 Y2.22250444500889 I0.32512065024130044 J0.7848615697231394
G3 X119.5758191516383 Y2.288544577089154 I0 J0.8509017018034036
G3 X119.85267970535942 Y2.471424942849886 I-0.32512065024130044 J0.7848615697231394
G3 X120.03810007620015 Y2.748285496570993 I-0.601981203962408 J0.601981203962408
G3 X120.1016002032004 Y3.0734061468122937 I-0.7848615697231394 J0.32512065024130044
G1 Z-2.249428498856998 F500
G3 X120.03810007620015 Y3.398526797053594 I-0.8509017018034036 J0 F1500
G3 X119.85267970535942 Y3.6728473456946915 I-0.7848615697231394 J-0.32512065024130044
G3 X119.5758191516383 Y3.858267716535433 I-0.601981203962408 J-0.601981203962408
G3 X119.250698501397 Y3.9217678435356875 I-0.32512065024130044 J-0.7848615697231394
G3 X118.92557785115571 Y3.858267716535433 I0 J-0.8509017018034036
G3 X118.65125730251461 Y3.6728473456946915 I0.32512065024130044 J-0.7848615697231394
G3 X118.46583693167386 Y3.398526797053594 I0.601981203962408 J-0.601981203962408
G3 X118.40233680467361 Y3.0734061468122937 I0.7848615697231394 J-0.32512065024130044
G3 X118.46583693167386 Y2.748285496570993 I0.8509017018034036 J0
G3 X118.65125730251461 Y2.471424942849886 I0.7848615697231394 J0.32512065024130044
G3 X118.92557785115571 Y2.288544577089154 I0.601981203962408 J0.601981203962408
G3 X119.250698501397 Y2.22250444500889 I0.32512065024130044 J0.7848615697231394
G3 X119.5758191516383 Y2.288544577089154 I0 J0.8509017018034036
G3 X119.85267970535942 Y2.471424942849886 I-0.32512065024130044 J0.7848615697231394
G3 X120.03810007620015 Y2.748285496570993 I-0.601981203962408 J0.601981203962408
G3 X120.1016002032004 Y3.0734061468122937 I-0.7848615697231394 J0.32512065024130044
G1 Z-2.4993649987299973 F500
G3 X120.03810007620015 Y3.398526797053594 I-0.8509017018034036 J0 F1500
G3 X119.85267970535942 Y3.6728473456946915 I-0.7848615697231394 J-0.32512065024130044
G3 X119.5758191516383 Y3.858267716535433 I-0.601981203962408 J-0.601981203962408
G3 X119.250698501397 Y3.9217678435356875 I-0.32512065024130044 J-0.7848615697231394
G3 X118.92557785115571 Y3.858267716535433 I0 J-0.8509017018034036
G3 X118.65125730251461 Y3.6728473456946915 I0.32512065024130044 J-0.7848615697231394
G3 X118.46583693167386 Y3.398526797053594 I0.601981203962408 J-0.601981203962408
G3 X118.40233680467361 Y3.0734061468122937 I0.7848615697231394 J-0.32512065024130044
G3 X118.46583693167386 Y2.748285496570993 I0.8509017018034036 J0
G3 X118.65125730251461 Y2.471424942849886 I0.7848615697231394 J0.32512065024130044
G3 X118.92557785115571 Y2.288544577089154 I0.601981203962408 J0.601981203962408
G3 X119.250698501397 Y2.22250444500889 I0.32512065024130044 J0.7848615697231394
G3 X119.5758191516383 Y2.288544577089154 I0 J0.8509017018034036
G3 X119.85267970535942 Y2.471424942849886 I-0.32512065024130044 J0.7848615697231394
G3 X120.03810007620015 Y2.748285496570993 I-0.601981203962408 J0.601981203962408
G3 X120.1016002032004 Y3.0734061468122937 I-0.7848615697231394 J0.32512065024130044
G1 Z-2.749301498602997 F500
G3 X120.03810007620015 Y3.398526797053594 I-0.8509017018034036 J0 F1500
G3 X119.85267970535942 Y3.6728473456946915 I-0.7848615697231394 J-0.32512065024130044
G3 X119.5758191516383 Y3.858267716535433 I-0.601981203962408 J-0.601981203962408
G3 X119.250698501397 Y3.9217678435356875 I-0.32512065024130044 J-0.7848615697231394
G3 X118.92557785115571 Y3.858267716535433 I0 J-0.8509017018034036
G3 X118.65125730251461 Y3.6728473456946915 I0.32512065024130044 J-0.7848615697231394
G3 X118.46583693167386 Y3.398526797053594 I0.601981203962408 J-0.601981203962408
G3 X118.40233680467361 Y3.0734061468122937 I0.7848615697231394 J-0.32512065024130044
G3 X118.46583693167386 Y2.748285496570993 I0.8509017018034036 J0
G3 X118.65125730251461 Y2.471424942849886 I0.7848615697231394 J0.32512065024130044
G3 X118.92557785115571 Y2.288544577089154 I0.601981203962408 J0.601981203962408
G3 X119.250698501397 Y2.22250444500889 I0.32512065024130044 J0.7848615697231394
G3 X119.5758191516383 Y2.288544577089154 I0 J0.8509017018034036
G3 X119.85267970535942 Y2.471424942849886 I-0.32512065024130044 J0.7848615697231394
G3 X120.03810007620015 Y2.748285496570993 I-0.601981203962408 J0.601981203962408
G3 X120.1016002032004 Y3.0734061468122937 I-0.7848615697231394 J0.32512065024130044
G1 Z-2.999237998475997 F500
G3 X120.03810007620015 Y3.398526797053594 I-0.8509017018034036 J0 F1500
G3 X119.85267970535942 Y3.6728473456946915 I-0.7848615697231394 J-0.32512065024130044
G3 X119.5758191516383 Y3.858267716535433 I-0.601981203962408 J-0.601981203962408
G3 X119.250698501397 Y3.9217678435356875 I-0.32512065024130044 J-0.7848615697231394
G3 X118.92557785115571 Y3.858267716535433 I0 J-0.8509017018034036
G3 X118.65125730251461 Y3.6728473456946915 I0.32512065024130044 J-0.7848615697231394
G3 X118.46583693167386 Y3.398526797053594 I0.601981203962408 J-0.601981203962408
G3 X118.40233680467361 Y3.0734061468122937 I0.7848615697231394 J-0.32512065024130044
G3 X118.46583693167386 Y2.748285496570993 I0.8509017018034036 J0
G3 X118.65125730251461 Y2.471424942849886 I0.7848615697231394 J0.32512065024130044
G3 X118.92557785115571 Y2.288544577089154 I0.601981203962408 J0.601981203962408
G3 X119.250698501397 Y2.22250444500889 I0.32512065024130044 J0.7848615697231394
G3 X119.5758191516383 Y2.288544577089154 I0 J0.8509017018034036
G3 X119.85267970535942 Y2.471424942849886 I-0.32512065024130044 J0.7848615697231394
G3 X120.03810007620015 Y2.748285496570993 I-0.601981203962408 J0.601981203962408
G3 X120.1016002032004 Y3.0734061468122937 I-0.7848615697231394 J0.32512065024130044
G1 Z-3 F500
G3 X120.03810007620015 Y3.398526797053594 I-0.8509017018034036 J0 F1500
G3 X119.85267970535942 Y3.6728473456946915 I-0.7848615697231394 J-0.32512065024130044
G3 X119.5758191516383 Y3.858267716535433 I-0.601981203962408 J-0.601981203962408
G3 X119.250698501397 Y3.9217678435356875 I-0.32512065024130044 J-0.7848615697231394
G3 X118.92557785115571 Y3.858267716535433 I0 J-0.8509017018034036
G3 X118.65125730251461 Y3.6728473456946915 I0.32512065024130044 J-0.7848615697231394
G3 X118.46583693167386 Y3.398526797053594 I0.601981203962408 J-0.601981203962408
G3 X118.40233680467361 Y3.0734061468122937 I0.7848615697231394 J-0.32512065024130044
G3 X118.46583693167386 Y2.748285496570993 I0.8509017018034036 J0
G3 X118.65125730251461 Y2.471424942849886 I0.7848615697231394 J0.32512065024130044
G3 X118.92557785115571 Y2.288544577089154 I0.601981203962408 J0.601981203962408
G3 X119.250698501397 Y2.22250444500889 I0.32512065024130044 J0.7848615697231394
G3 X119.5758191516383 Y2.288544577089154 I0 J0.8509017018034036
G3 X119.85267970535942 Y2.471424942849886 I-0.32512065024130044 J0.7848615697231394
G3 X120.03810007620015 Y2.748285496570993 I-0.601981203962408 J0.601981203962408
G3 X120.1016002032004 Y3.0734061468122937 I-0.7848615697231394 J0.32512065024130044
G0 Z3
G0 X120.1016002032004 Y51.96824993649987
G1 Z-0.24993649987299973 F500
G3 X120.03810007620015 Y52.29362458724918 I-0.8509017018034036 J0 F1500
G3 X119.85267970535942 Y52.56794513589028 I-0.7848615697231394 J-0.32512065024130044
G3 X119.5758191516383 Y52.753365506731015 I-0.601981203962408 J-0.601981203962408
G3 X119.250698501397 Y52.81940563881128 I-0.32512065024130044 J-0.7848615697231394
G3 X118.92557785115571 Y52.753365506731015 I0 J-0.8509017018034036
G3 X118.65125730251461 Y52.56794513589028 I0.32512065024130044 J-0.7848615697231394
G3 X118.46583693167386 Y52.29362458724918 I0.601981203962408 J-0.601981203962408
G3 X118.40233680467361 Y51.96850393700787 I0.7848615697231394 J-0.32512065024130044
G3 X118.46583693167386 Y51.64338328676657 I0.8509017018034036 J0
G3 X118.65125730251461 Y51.36652273304547 I0.7848615697231394 J0.32512065024130044
G3 X118.92557785115571 Y51.18364236728474 I0.601981203962408 J0.601981203962408
G3 X119.250698501397 Y51.11760223520447 I0.32512065024130044 J0.7848615697231394
G3 X119.5758191516383 Y51.18364236728474 I0 J0.8509017018034036
G3 X119.85267970535942 Y51.36652273304547 I-0.32512065024130044 J0.7848615697231394
G3 X120.03810007620015 Y51.64338328676657 I-0.601981203962408 J0.601981203962408
G3 X120.1016002032004 Y51.96850393700787 I-0.7848615697231394 J0.32512065024130044
G1 Z-0.49987299974599947 F500
G3 X120.03810007620015 Y52.29362458724918 I-0.8509017018034036 J0 F1500
G3 X119.85267970535942 Y52.56794513589028 I-0.7848615697231394 J-0.32512065024130044
G3 X119.5758191516383 Y52.753365506731015 I-0.601981203962408 J-0.601981203962408
G3 X119.250698501397 Y52.81940563881128 I-0.32512065024130044 J-0.7848615697231394
G3 X118.92557785115571 Y52.753365506731015 I0 J-0.8509017018034036
G3 X118.65125730251461 Y52.56794513589028 I0.32512065024130044 J-0.7848615697231394
G3 X118.46583693167386 Y52.29362458724918 I0.601981203962408 J-0.601981203962408
G3 X118.40233680467361 Y51.96850393700787 I0.7848615697231394 J-0.32512065024130044
G3 X118.46583693167386 Y51.64338328676657 I0.8509017018034036 J0
G3 X118.65125730251461 Y51.36652273304547 I0.7848615697231394 J0.32512065024130044
G3 X118.92557785115571 Y51.18364236728474 I0.601981203962408 J0.601981203962408
G3 X119.250698501397 Y51.11760223520447 I0.32512065024130044 J0.7848615697231394
G3 X119.5758191516383 Y51.18364236728474 I0 J0.8509017018034036
G3 X119.85267970535942 Y51.36652273304547 I-0.32512065024130044 J0.7848615697231394
G3 X120.03810007620015 Y51.64338328676657 I-0.601981203962408 J0.601981203962408
G3 X120.1016002032004 Y51.96850393700787 I-0.7848615697231394 J0.32512065024130044
G1 Z-0.7498094996189992 F500
G3 X120.03810007620015 Y52.29362458724918 I-0.8509017018034036 J0 F1500
G3 X119.85267970535942 Y52.56794513589028 I-0.7848615697231394 J-0.32512065024130044
G3 X119.5758191516383 Y52.753365506731015 I-0.601981203962408 J-0.601981203962408
G3 X119.250698501397 Y52.81940563881128 I-0.32512065024130044 J-0.7848615697231394
G3 X118.92557785115571 Y52.753365506731015 I0 J-0.8509017018034036
G3 X118.65125730251461 Y52.56794513589028 I0.32512065024130044 J-0.7848615697231394
G3 X118.46583693167386 Y52.29362458724918 I0.601981203962408 J-0.601981203962408
G3 X118.40233680467361 Y51.96850393700787 I0.7848615697231394 J-0.32512065024130044
G3 X118.46583693167386 Y51.64338328676657 I0.8509017018034036 J0
G3 X118.65125730251461 Y51.36652273304547 I0.7848615697231394 J0.32512065024130044
G3 X118.92557785115571 Y51.18364236728474 I0.601981203962408 J0.601981203962408
G3 X119.250698501397 Y51.11760223520447 I0.32512065024130044 J0.7848615697231394
G3 X119.5758191516383 Y51.18364236728474 I0 J0.8509017018034036
G3 X119.85267970535942 Y51.36652273304547 I-0.32512065024130044 J0.7848615697231394
G3 X120.03810007620015 Y51.64338328676657 I-0.601981203962408 J0.601981203962408
G3 X120.1016002032004 Y51.96850393700787 I-0.7848615697231394 J0.32512065024130044
G1 Z-0.9997459994919989 F500
G3 X120.03810007620015 Y52.29362458724918 I-0.8509017018034036 J0 F1500
G3 X119.85267970535942 Y52.56794513589028 I-0.7848615697231394 J-0.32512065024130044
G3 X119.5758191516383 Y52.753365506731015 I-0.601981203962408 J-0.601981203962408
G3 X119.250698501397 Y52.81940563881128 I-0.32512065024130044 J-0.7848615697231394
G3 X118.92557785115571 Y52.753365506731015 I0 J-0.8509017018034036
G3 X118.65125730251461 Y52.56794513589028 I0.32512065024130044 J-0.7848615697231394
G3 X118.46583693167386 Y52.29362458724918 I0.601981203962408 J-0.601981203962408
G3 X118.40233680467361 Y51.96850393700787 I0.7848615697231394 J-0.32512065024130044
G3 X118.46583693167386 Y51.64338328676657 I0.8509017018034036 J0
G3 X118.65125730251461 Y51.36652273304547 I0.7848615697231394 J0.32512065024130044
G3 X118.92557785115571 Y51.18364236728474 I0.601981203962408 J0.601981203962408
G3 X119.250698501397 Y51.11760223520447 I0.32512065024130044 J0.7848615697231394
G3 X119.5758191516383 Y51.18364236728474 I0 J0.8509017018034036
G3 X119.85267970535942 Y51.36652273304547 I-0.32512065024130044 J0.7848615697231394
G3 X120.03810007620015 Y51.64338328676657 I-0.601981203962408 J0.601981203962408
G3 X120.1016002032004 Y51.96850393700787 I-0.7848615697231394 J0.32512065024130044
G1 Z-1.2496824993649986 F500
G3 X120.03810007620015 Y52.29362458724918 I-0.8509017018034036 J0 F1500
G3 X119.85267970535942 Y52.56794513589028 I-0.7848615697231394 J-0.32512065024130044
G3 X119.5758191516383 Y52.753365506731015 I-0.601981203962408 J-0.601981203962408
G3 X119.250698501397 Y52.81940563881128 I-0.32512065024130044 J-0.7848615697231394
G3 X118.92557785115571 Y52.753365506731015 I0 J-0.8509017018034036
G3 X118.65125730251461 Y52.56794513589028 I0.32512065024130044 J-0.7848615697231394
G3 X118.46583693167386 Y52.29362458724918 I0.601981203962408 J-0.601981203962408
G3 X118.40233680467361 Y51.96850393700787 I0.7848615697231394 J-0.32512065024130044
G3 X118.46583693167386 Y51.64338328676657 I0.8509017018034036 J0
G3 X118.65125730251461 Y51.36652273304547 I0.7848615697231394 J0.32512065024130044
G3 X118.92557785115571 Y51.18364236728474 I0.601981203962408 J0.601981203962408
G3 X119.250698501397 Y51.11760223520447 I0.32512065024130044 J0.7848615697231394
G3 X119.5758191516383 Y51.18364236728474 I0 J0.8509017018034036
G3 X119.85267970535942 Y51.36652273304547 I-0.32512065024130044 J0.7848615697231394
G3 X120.03810007620015 Y51.64338328676657 I-0.601981203962408 J0.601981203962408
G3 X120.1016002032004 Y51.96850393700787 I-0.7848615697231394 J0.32512065024130044
G1 Z-1.4996189992379985 F500
G3 X120.03810007620015 Y52.29362458724918 I-0.8509017018034036 J0 F1500
G3 X119.85267970535942 Y52.56794513589028 I-0.7848615697231394 J-0.32512065024130044
G3 X119.5758191516383 Y52.753365506731015 I-0.601981203962408 J-0.601981203962408
G3 X119.250698501397 Y52.81940563881128 I-0.32512065024130044 J-0.7848615697231394
G3 X118.92557785115571 Y52.753365506731015 I0 J-0.8509017018034036
G3 X118.65125730251461 Y52.56794513589028 I0.32512065024130044 J-0.7848615697231394
G3 X118.46583693167386 Y52.29362458724918 I0.601981203962408 J-0.601981203962408
G3 X118.40233680467361 Y51.96850393700787 I0.7848615697231394 J-0.32512065024130044
G3 X118.46583693167386 Y51.64338328676657 I0.8509017018034036 J0
G3 X118.65125730251461 Y51.36652273304547 I0.7848615697231394 J0.32512065024130044
G3 X118.92557785115571 Y51.18364236728474 I0.601981203962408 J0.601981203962408
G3 X119.250698501397 Y51.11760223520447 I0.32512065024130044 J0.7848615697231394
G3 X119.5758191516383 Y51.18364236728474 I0 J0.8509017018034036
G3 X119.85267970535942 Y51.36652273304547 I-0.32512065024130044 J0.7848615697231394
G3 X120.03810007620015 Y51.64338328676657 I-0.601981203962408 J0.601981203962408
G3 X120.1016002032004 Y51.96850393700787 I-0.7848615697231394 J0.32512065024130044
G1 Z-1.7495554991109983 F500
G3 X120.03810007620015 Y52.29362458724918 I-0.8509017018034036 J0 F1500
G3 X119.85267970535942 Y52.56794513589028 I-0.7848615697231394 J-0.32512065024130044
G3 X119.5758191516383 Y52.753365506731015 I-0.601981203962408 J-0.601981203962408
G3 X119.250698501397 Y52.81940563881128 I-0.32512065024130044 J-0.7848615697231394
G3 X118.92557785115571 Y52.753365506731015 I0 J-0.8509017018034036
G3 X118.65125730251461 Y52.56794513589028 I0.32512065024130044 J-0.7848615697231394
G3 X118.46583693167386 Y52.29362458724918 I0.601981203962408 J-0.601981203962408
G3 X118.40233680467361 Y51.96850393700787 I0.7848615697231394 J-0.32512065024130044
G3 X118.46583693167386 Y51.64338328676657 I0.8509017018034036 J0
G3 X118.65125730251461 Y51.36652273304547 I0.7848615697231394 J0.32512065024130044
G3 X118.92557785115571 Y51.18364236728474 I0.601981203962408 J0.601981203962408
G3 X119.250698501397 Y51.11760223520447 I0.32512065024130044 J0.7848615697231394
G3 X119.5758191516383 Y51.18364236728474 I0 J0.8509017018034036
G3 X119.85267970535942 Y51.36652273304547 I-0.32512065024130044 J0.7848615697231394
G3 X120.03810007620015 Y51.64338328676657 I-0.601981203962408 J0.601981203962408
G3 X120.1016002032004 Y51.96850393700787 I-0.7848615697231394 J0.32512065024130044
G1 Z-1.9994919989839979 F500
G3 X120.03810007620015 Y52.29362458724918 I-0.8509017018034036 J0 F1500
G3 X119.85267970535942 Y52.56794513589028 I-0.7848615697231394 J-0.32512065024130044
G3 X119.5758191516383 Y52.753365506731015 I-0.601981203962408 J-0.601981203962408
G3 X119.250698501397 Y52.81940563881128 I-0.32512065024130044 J-0.7848615697231394
G3 X118.92557785115571 Y52.753365506731015 I0 J-0.8509017018034036
G3 X118.65125730251461 Y52.56794513589028 I0.32512065024130044 J-0.7848615697231394
G3 X118.46583693167386 Y52.29362458724918 I0.601981203962408 J-0.601981203962408
G3 X118.40233680467361 Y51.96850393700787 I0.7848615697231394 J-0.32512065024130044
G3 X118.46583693167386 Y51.64338328676657 I0.8509017018034036 J0
G3 X118.65125730251461 Y51.36652273304547 I0.7848615697231394 J0.32512065024130044
G3 X118.92557785115571 Y51.18364236728474 I0.601981203962408 J0.601981203962408
G3 X119.250698501397 Y51.11760223520447 I0.32512065024130044 J0.7848615697231394
G3 X119.5758191516383 Y51.18364236728474 I0 J0.8509017018034036
G3 X119.85267970535942 Y51.36652273304547 I-0.32512065024130044 J0.7848615697231394
G3 X120.03810007620015 Y51.64338328676657 I-0.601981203962408 J0.601981203962408
G3 X120.1016002032004 Y51.96850393700787 I-0.7848615697231394 J0.32512065024130044
G1 Z-2.249428498856998 F500
G3 X120.03810007620015 Y52.29362458724918 I-0.8509017018034036 J0 F1500
G3 X119.85267970535942 Y52.56794513589028 I-0.7848615697231394 J-0.32512065024130044
G3 X119.5758191516383 Y52.753365506731015 I-0.601981203962408 J-0.601981203962408
G3 X119.250698501397 Y52.81940563881128 I-0.32512065024130044 J-0.7848615697231394
G3 X118.92557785115571 Y52.753365506731015 I0 J-0.8509017018034036
G3 X118.65125730251461 Y52.56794513589028 I0.32512065024130044 J-0.7848615697231394
G3 X118.46583693167386 Y52.29362458724918 I0.601981203962408 J-0.601981203962408
G3 X118.40233680467361 Y51.96850393700787 I0.7848615697231394 J-0.32512065024130044
G3 X118.46583693167386 Y51.64338328676657 I0.8509017018034036 J0
G3 X118.65125730251461 Y51.36652273304547 I0.7848615697231394 J0.32512065024130044
G3 X118.92557785115571 Y51.18364236728474 I0.601981203962408 J0.601981203962408
G3 X119.250698501397 Y51.11760223520447 I0.32512065024130044 J0.7848615697231394
G3 X119.5758191516383 Y51.18364236728474 I0 J0.8509017018034036
G3 X119.85267970535942 Y51.36652273304547 I-0.32512065024130044 J0.7848615697231394
G3 X120.03810007620015 Y51.64338328676657 I-0.601981203962408 J0.601981203962408
G3 X120.1016002032004 Y51.96850393700787 I-0.7848615697231394 J0.32512065024130044
G1 Z-2.4993649987299973 F500
G3 X120.03810007620015 Y52.29362458724918 I-0.8509017018034036 J0 F1500
G3 X119.85267970535942 Y52.56794513589028 I-0.7848615697231394 J-0.32512065024130044
G3 X119.5758191516383 Y52.753365506731015 I-0.601981203962408 J-0.601981203962408
G3 X119.250698501397 Y52.81940563881128 I-0.32512065024130044 J-0.7848615697231394
G3 X118.92557785115571 Y52.753365506731015 I0 J-0.8509017018034036
G3 X118.65125730251461 Y52.56794513589028 I0.32512065024130044 J-0.7848615697231394
G3 X118.46583693167386 Y52.29362458724918 I0.601981203962408 J-0.601981203962408
G3 X118.40233680467361 Y51.96850393700787 I0.7848615697231394 J-0.32512065024130044
G3 X118.46583693167386 Y51.64338328676657 I0.8509017018034036 J0
G3 X118.65125730251461 Y51.36652273304547 I0.7848615697231394 J0.32512065024130044
G3 X118.92557785115571 Y51.18364236728474 I0.601981203962408 J0.601981203962408
G3 X119.250698501397 Y51.11760223520447 I0.32512065024130044 J0.7848615697231394
G3 X119.5758191516383 Y51.18364236728474 I0 J0.8509017018034036
G3 X119.85267970535942 Y51.36652273304547 I-0.32512065024130044 J0.7848615697231394
G3 X120.03810007620015 Y51.64338328676657 I-0.601981203962408 J0.601981203962408
G3 X120.1016002032004 Y51.96850393700787 I-0.7848615697231394 J0.32512065024130044
G1 Z-2.749301498602997 F500
G3 X120.03810007620015 Y52.29362458724918 I-0.8509017018034036 J0 F1500
G3 X119.85267970535942 Y52.56794513589028 I-0.7848615697231394 J-0.32512065024130044
G3 X119.5758191516383 Y52.753365506731015 I-0.601981203962408 J-0.601981203962408
G3 X119.250698501397 Y52.81940563881128 I-0.32512065024130044 J-0.7848615697231394
G3 X118.92557785115571 Y52.753365506731015 I0 J-0.8509017018034036
G3 X118.65125730251461 Y52.56794513589028 I0.32512065024130044 J-0.7848615697231394
G3 X118.46583693167386 Y52.29362458724918 I0.601981203962408 J-0.601981203962408
G3 X118.40233680467361 Y51.96850393700787 I0.7848615697231394 J-0.32512065024130044
G3 X118.46583693167386 Y51.64338328676657 I0.8509017018034036 J0
G3 X118.65125730251461 Y51.36652273304547 I0.7848615697231394 J0.32512065024130044
G3 X118.92557785115571 Y51.18364236728474 I0.601981203962408 J0.601981203962408
G3 X119.250698501397 Y51.11760223520447 I0.32512065024130044 J0.7848615697231394
G3 X119.5758191516383 Y51.18364236728474 I0 J0.8509017018034036
G3 X119.85267970535942 Y51.36652273304547 I-0.32512065024130044 J0.7848615697231394
G3 X120.03810007620015 Y51.64338328676657 I-0.601981203962408 J0.601981203962408
G3 X120.1016002032004 Y51.96850393700787 I-0.7848615697231394 J0.32512065024130044
G1 Z-2.999237998475997 F500
G3 X120.03810007620015 Y52.29362458724918 I-0.8509017018034036 J0 F1500
G3 X119.85267970535942 Y52.56794513589028 I-0.7848615697231394 J-0.32512065024130044
G3 X119.5758191516383 Y52.753365506731015 I-0.601981203962408 J-0.601981203962408
G3 X119.250698501397 Y52.81940563881128 I-0.32512065024130044 J-0.7848615697231394
G3 X118.92557785115571 Y52.753365506731015 I0 J-0.8509017018034036
G3 X118.65125730251461 Y52.56794513589028 I0.32512065024130044 J-0.7848615697231394
G3 X118.46583693167386 Y52.29362458724918 I0.601981203962408 J-0.601981203962408
G3 X118.40233680467361 Y51.96850393700787 I0.7848615697231394 J-0.32512065024130044
G3 X118.46583693167386 Y51.64338328676657 I0.8509017018034036 J0
G3 X118.65125730251461 Y51.36652273304547 I0.7848615697231394 J0.32512065024130044
G3 X118.92557785115571 Y51.18364236728474 I0.601981203962408 J0.601981203962408
G3 X119.250698501397 Y51.11760223520447 I0.32512065024130044 J0.7848615697231394
G3 X119.5758191516383 Y51.18364236728474 I0 J0.8509017018034036
G3 X119.85267970535942 Y51.36652273304547 I-0.32512065024130044 J0.7848615697231394
G3 X120.03810007620015 Y51.64338328676657 I-0.601981203962408 J0.601981203962408
G3 X120.1016002032004 Y51.96850393700787 I-0.7848615697231394 J0.32512065024130044
G1 Z-3 F500
G3 X120.03810007620015 Y52.29362458724918 I-0.8509017018034036 J0 F1500
G3 X119.85267970535942 Y52.56794513589028 I-0.7848615697231394 J-0.32512065024130044
G3 X119.5758191516383 Y52.753365506731015 I-0.601981203962408 J-0.601981203962408
G3 X119.250698501397 Y52.81940563881128 I-0.32512065024130044 J-0.7848615697231394
G3 X118.92557785115571 Y52.753365506731015 I0 J-0.8509017018034036
G3 X118.65125730251461 Y52.56794513589028 I0.32512065024130044 J-0.7848615697231394
G3 X118.46583693167386 Y52.29362458724918 I0.601981203962408 J-0.601981203962408
G3 X118.40233680467361 Y51.96850393700787 I0.7848615697231394 J-0.32512065024130044
G3 X118.46583693167386 Y51.64338328676657 I0.8509017018034036 J0
G3 X118.65125730251461 Y51.36652273304547 I0.7848615697231394 J0.32512065024130044
G3 X118.92557785115571 Y51.18364236728474 I0.601981203962408 J0.601981203962408
G3 X119.250698501397 Y51.11760223520447 I0.32512065024130044 J0.7848615697231394
G3 X119.5758191516383 Y51.18364236728474 I0 J0.8509017018034036
G3 X119.85267970535942 Y51.36652273304547 I-0.32512065024130044 J0.7848615697231394
G3 X120.03810007620015 Y51.64338328676657 I-0.601981203962408 J0.601981203962408
G3 X120.1016002032004 Y51.96850393700787 I-0.7848615697231394 J0.32512065024130044
G0 Z3
M5
M30
