(Generated by PartKam Version 0.05)

G21 G90 G40

(cutout)
G0 Z3
T0 M6
G17
M3
G0 X0 Y-0.6403352806705613
G1 Z-0.24993649987299973 F500
G1 X122.53746507493014 Y-0.6400812801625604 F1500
G3 X123.28676657353314 Y0.10922021844043688 I0 J0.7493014986029972
G1 X123.28676657353314 Y55.05207010414021
G3 X122.53746507493014 Y55.8013716027432 I-0.7493014986029972 J0
G1 X0 Y55.8013716027432
G3 X-0.7493014986029972 Y55.05207010414021 I0 J-0.7493014986029972
G1 X-0.7493014986029972 Y54.96316992633985
G1 X-0.7493014986029972 Y0.10922021844043688
G3 X0 Y-0.6400812801625604 I0.7493014986029972 J0
G1 Z-0.49987299974599947 F500
G1 X122.53746507493014 Y-0.6400812801625604 F1500
G3 X123.28676657353314 Y0.10922021844043688 I0 J0.7493014986029972
G1 X123.28676657353314 Y55.05207010414021
G3 X122.53746507493014 Y55.8013716027432 I-0.7493014986029972 J0
G1 X0 Y55.8013716027432
G3 X-0.7493014986029972 Y55.05207010414021 I0 J-0.7493014986029972
G1 X-0.7493014986029972 Y54.96316992633985
G1 X-0.7493014986029972 Y0.10922021844043688
G3 X0 Y-0.6400812801625604 I0.7493014986029972 J0
G1 Z-0.7498094996189992 F500
G1 X122.53746507493014 Y-0.6400812801625604 F1500
G3 X123.28676657353314 Y0.10922021844043688 I0 J0.7493014986029972
G1 X123.28676657353314 Y55.05207010414021
G3 X122.53746507493014 Y55.8013716027432 I-0.7493014986029972 J0
G1 X0 Y55.8013716027432
G3 X-0.7493014986029972 Y55.05207010414021 I0 J-0.7493014986029972
G1 X-0.7493014986029972 Y54.96316992633985
G1 X-0.7493014986029972 Y0.10922021844043688
G3 X0 Y-0.6400812801625604 I0.7493014986029972 J0
G1 Z-0.9997459994919989 F500
G1 X122.53746507493014 Y-0.6400812801625604 F1500
G3 X123.28676657353314 Y0.10922021844043688 I0 J0.7493014986029972
G1 X123.28676657353314 Y55.05207010414021
G3 X122.53746507493014 Y55.8013716027432 I-0.7493014986029972 J0
G1 X0 Y55.8013716027432
G3 X-0.7493014986029972 Y55.05207010414021 I0 J-0.7493014986029972
G1 X-0.7493014986029972 Y54.96316992633985
G1 X-0.7493014986029972 Y0.10922021844043688
G3 X0 Y-0.6400812801625604 I0.7493014986029972 J0
G1 Z-1.2496824993649986 F500
G1 X122.53746507493014 Y-0.6400812801625604 F1500
G3 X123.28676657353314 Y0.10922021844043688 I0 J0.7493014986029972
G1 X123.28676657353314 Y55.05207010414021
G3 X122.53746507493014 Y55.8013716027432 I-0.7493014986029972 J0
G1 X0 Y55.8013716027432
G3 X-0.7493014986029972 Y55.05207010414021 I0 J-0.7493014986029972
G1 X-0.7493014986029972 Y54.96316992633985
G1 X-0.7493014986029972 Y0.10922021844043688
G3 X0 Y-0.6400812801625604 I0.7493014986029972 J0
G1 Z-1.4996189992379985 F500
G1 X122.53746507493014 Y-0.6400812801625604 F1500
G3 X123.28676657353314 Y0.10922021844043688 I0 J0.7493014986029972
G1 X123.28676657353314 Y55.05207010414021
G3 X122.53746507493014 Y55.8013716027432 I-0.7493014986029972 J0
G1 X0 Y55.8013716027432
G3 X-0.7493014986029972 Y55.05207010414021 I0 J-0.7493014986029972
G1 X-0.7493014986029972 Y54.96316992633985
G1 X-0.7493014986029972 Y0.10922021844043688
G3 X0 Y-0.6400812801625604 I0.7493014986029972 J0
G1 Z-1.7495554991109983 F500
G1 X122.53746507493014 Y-0.6400812801625604 F1500
G3 X123.28676657353314 Y0.10922021844043688 I0 J0.7493014986029972
G1 X123.28676657353314 Y55.05207010414021
G3 X122.53746507493014 Y55.8013716027432 I-0.7493014986029972 J0
G1 X0 Y55.8013716027432
G3 X-0.7493014986029972 Y55.05207010414021 I0 J-0.7493014986029972
G1 X-0.7493014986029972 Y54.96316992633985
G1 X-0.7493014986029972 Y0.10922021844043688
G3 X0 Y-0.6400812801625604 I0.7493014986029972 J0
G1 Z-1.9994919989839979 F500
G1 X122.53746507493014 Y-0.6400812801625604 F1500
G3 X123.28676657353314 Y0.10922021844043688 I0 J0.7493014986029972
G1 X123.28676657353314 Y55.05207010414021
G3 X122.53746507493014 Y55.8013716027432 I-0.7493014986029972 J0
G1 X0 Y55.8013716027432
G3 X-0.7493014986029972 Y55.05207010414021 I0 J-0.7493014986029972
G1 X-0.7493014986029972 Y54.96316992633985
G1 X-0.7493014986029972 Y0.10922021844043688
G3 X0 Y-0.6400812801625604 I0.7493014986029972 J0
G1 Z-2.249428498856998 F500
G1 X122.53746507493014 Y-0.6400812801625604 F1500
G3 X123.28676657353314 Y0.10922021844043688 I0 J0.7493014986029972
G1 X123.28676657353314 Y55.05207010414021
G3 X122.53746507493014 Y55.8013716027432 I-0.7493014986029972 J0
G1 X0 Y55.8013716027432
G3 X-0.7493014986029972 Y55.05207010414021 I0 J-0.7493014986029972
G1 X-0.7493014986029972 Y54.96316992633985
G1 X-0.7493014986029972 Y0.10922021844043688
G3 X0 Y-0.6400812801625604 I0.7493014986029972 J0
G1 Z-2.4993649987299973 F500
G1 X122.53746507493014 Y-0.6400812801625604 F1500
G3 X123.28676657353314 Y0.10922021844043688 I0 J0.7493014986029972
G1 X123.28676657353314 Y55.05207010414021
G3 X122.53746507493014 Y55.8013716027432 I-0.7493014986029972 J0
G1 X0 Y55.8013716027432
G3 X-0.7493014986029972 Y55.05207010414021 I0 J-0.7493014986029972
G1 X-0.7493014986029972 Y54.96316992633985
G1 X-0.7493014986029972 Y0.10922021844043688
G3 X0 Y-0.6400812801625604 I0.7493014986029972 J0
G1 Z-2.749301498602997 F500
G1 X122.53746507493014 Y-0.6400812801625604 F1500
G3 X123.28676657353314 Y0.10922021844043688 I0 J0.7493014986029972
G1 X123.28676657353314 Y55.05207010414021
G3 X122.53746507493014 Y55.8013716027432 I-0.7493014986029972 J0
G1 X0 Y55.8013716027432
G3 X-0.7493014986029972 Y55.05207010414021 I0 J-0.7493014986029972
G1 X-0.7493014986029972 Y54.96316992633985
G1 X-0.7493014986029972 Y0.10922021844043688
G3 X0 Y-0.6400812801625604 I0.7493014986029972 J0
G1 Z-2.999237998475997 F500
G1 X122.53746507493014 Y-0.6400812801625604 F1500
G3 X123.28676657353314 Y0.10922021844043688 I0 J0.7493014986029972
G1 X123.28676657353314 Y55.05207010414021
G3 X122.53746507493014 Y55.8013716027432 I-0.7493014986029972 J0
G1 X0 Y55.8013716027432
G3 X-0.7493014986029972 Y55.05207010414021 I0 J-0.7493014986029972
G1 X-0.7493014986029972 Y54.96316992633985
G1 X-0.7493014986029972 Y0.10922021844043688
G3 X0 Y-0.6400812801625604 I0.7493014986029972 J0
G1 Z-3 F500
G1 X122.53746507493014 Y-0.6400812801625604 F1500
G3 X123.28676657353314 Y0.10922021844043688 I0 J0.7493014986029972
G1 X123.28676657353314 Y55.05207010414021
G3 X122.53746507493014 Y55.8013716027432 I-0.7493014986029972 J0
G1 X0 Y55.8013716027432
G3 X-0.7493014986029972 Y55.05207010414021 I0 J-0.7493014986029972
G1 X-0.7493014986029972 Y54.96316992633985
G1 X-0.7493014986029972 Y0.10922021844043688
G3 X0 Y-0.6400812801625604 I0.7493014986029972 J0
G0 Z3
M5
M30
