(Generated by PartKam Version 0.05)

G21 G90 G40

(througholes)
G0 Z3
T0 M6
G17
M3
G0 X13.842011684023369 Y52.60299720599441
G1 Z-3 F400
G1 Z0 F400
G0 Z3
G0 X16.381762763525526 Y52.60299720599441
G1 Z-3 F400
G1 Z0 F400
G0 Z3
G0 X35.43180086360173 Y50.69824739649479
G1 Z-3 F400
G1 Z0 F400
G0 Z3
G0 X37.97180594361189 Y50.69824739649479
G1 Z-3 F400
G1 Z0 F400
G0 Z3
G0 X40.511557023114044 Y50.69824739649479
G1 Z-3 F400
G1 Z0 F400
G0 Z3
G0 X93.8516637033274 Y50.06324612649225
G1 Z-3 F400
G1 Z0 F400
G0 Z3
G0 X109.09144018288036 Y50.06324612649225
G1 Z-3 F400
G1 Z0 F400
G0 Z3
G0 X119.251460502921 Y46.88823977647955
G1 Z-3 F400
G1 Z0 F400
G0 Z3
G0 X45.61849123698247 Y46.263652527305055
G1 Z-3 F400
G1 Z0 F400
G0 Z3
G0 X55.75895351790704 Y46.254254508509014
G1 Z-3 F400
G1 Z0 F400
G0 Z3
G0 X48.16713233426467 Y46.25323850647701
G1 Z-3 F400
G1 Z0 F400
G0 Z3
G0 X50.707391414782826 Y46.25323850647701
G1 Z-3 F400
G1 Z0 F400
G0 Z3
G0 X53.24714249428499 Y46.25323850647701
G1 Z-3 F400
G1 Z0 F400
G0 Z3
G0 X13.841757683515366 Y46.25323850647701
G1 Z-3 F400
G1 Z0 F400
G0 Z3
G0 X16.381762763525526 Y46.25323850647701
G1 Z-3 F400
G1 Z0 F400
G0 Z3
G0 X18.921767843535687 Y46.25323850647701
G1 Z-3 F400
G1 Z0 F400
G0 Z3
G0 X21.461772923545848 Y46.25323850647701
G1 Z-3 F400
G1 Z0 F400
G0 Z3
G0 X24.00177800355601 Y46.25323850647701
G1 Z-3 F400
G1 Z0 F400
G0 Z3
G0 X26.541783083566166 Y46.25323850647701
G1 Z-3 F400
G1 Z0 F400
G0 Z3
G0 X29.081788163576327 Y46.25323850647701
G1 Z-3 F400
G1 Z0 F400
G0 Z3
G0 X35.43180086360173 Y45.61823723647447
G1 Z-3 F400
G1 Z0 F400
G0 Z3
G0 X37.97180594361189 Y45.61823723647447
G1 Z-3 F400
G1 Z0 F400
G0 Z3
G0 X40.511557023114044 Y45.61823723647447
G1 Z-3 F400
G1 Z0 F400
G0 Z3
G0 X114.17170434340869 Y44.34823469646939
G1 Z-3 F400
G1 Z0 F400
G0 Z3
G0 X119.251460502921 Y44.34823469646939
G1 Z-3 F400
G1 Z0 F400
G0 Z3
G0 X67.18161036322073 Y43.07823215646431
G1 Z-3 F400
G1 Z0 F400
G0 Z3
G0 X69.72186944373888 Y43.07823215646431
G1 Z-3 F400
G1 Z0 F400
G0 Z3
G0 X72.26162052324105 Y43.07823215646431
G1 Z-3 F400
G1 Z0 F400
G0 Z3
G0 X74.80162560325121 Y43.07823215646431
G1 Z-3 F400
G1 Z0 F400
G0 Z3
G0 X77.34163068326137 Y43.07823215646431
G1 Z-3 F400
G1 Z0 F400
G0 Z3
G0 X79.88163576327153 Y43.07823215646431
G1 Z-3 F400
G1 Z0 F400
G0 Z3
G0 X82.4216408432817 Y43.07823215646431
G1 Z-3 F400
G1 Z0 F400
G0 Z3
G0 X84.96164592329184 Y43.07823215646431
G1 Z-3 F400
G1 Z0 F400
G0 Z3
G0 X93.8516637033274 Y42.44323088646177
G1 Z-3 F400
G1 Z0 F400
G0 Z3
G0 X109.09144018288036 Y42.44323088646177
G1 Z-3 F400
G1 Z0 F400
G0 Z3
G0 X114.17170434340869 Y41.80848361696724
G1 Z-3 F400
G1 Z0 F400
G0 Z3
G0 X119.251460502921 Y41.80848361696724
G1 Z-3 F400
G1 Z0 F400
G0 Z3
G0 X2.4117348234696467 Y41.173228346456696
G1 Z-3 F400
G1 Z0 F400
G0 Z3
G0 X31.621793243586488 Y41.17780035560071
G1 Z-3 F400
G1 Z0 F400
G0 Z3
G0 X114.17170434340869 Y39.268224536449075
G1 Z-3 F400
G1 Z0 F400
G0 Z3
G0 X119.251460502921 Y39.268224536449075
G1 Z-3 F400
G1 Z0 F400
G0 Z3
G0 X2.4117348234696467 Y38.633223266446535
G1 Z-3 F400
G1 Z0 F400
G0 Z3
G0 X13.841757683515366 Y38.633223266446535
G1 Z-3 F400
G1 Z0 F400
G0 Z3
G0 X16.381762763525526 Y38.633223266446535
G1 Z-3 F400
G1 Z0 F400
G0 Z3
G0 X18.921767843535687 Y38.633223266446535
G1 Z-3 F400
G1 Z0 F400
G0 Z3
G0 X21.461772923545848 Y38.633223266446535
G1 Z-3 F400
G1 Z0 F400
G0 Z3
G0 X24.00177800355601 Y38.633223266446535
G1 Z-3 F400
G1 Z0 F400
G0 Z3
G0 X26.541783083566166 Y38.633223266446535
G1 Z-3 F400
G1 Z0 F400
G0 Z3
G0 X29.081788163576327 Y38.633223266446535
G1 Z-3 F400
G1 Z0 F400
G0 Z3
G0 X37.97180594361189 Y38.633223266446535
G1 Z-3 F400
G1 Z0 F400
G0 Z3
G0 X31.621793243586488 Y38.632969265938534
G1 Z-3 F400
G1 Z0 F400
G0 Z3
G0 X114.17170434340869 Y36.727965455930914
G1 Z-3 F400
G1 Z0 F400
G0 Z3
G0 X119.251460502921 Y36.727965455930914
G1 Z-3 F400
G1 Z0 F400
G0 Z3
G0 X37.97180594361189 Y36.093218186436374
G1 Z-3 F400
G1 Z0 F400
G0 Z3
G0 X67.18161036322073 Y35.458216916433834
G1 Z-3 F400
G1 Z0 F400
G0 Z3
G0 X69.72186944373888 Y35.458216916433834
G1 Z-3 F400
G1 Z0 F400
G0 Z3
G0 X72.26162052324105 Y35.458216916433834
G1 Z-3 F400
G1 Z0 F400
G0 Z3
G0 X74.80162560325121 Y35.458216916433834
G1 Z-3 F400
G1 Z0 F400
G0 Z3
G0 X77.34163068326137 Y35.458216916433834
G1 Z-3 F400
G1 Z0 F400
G0 Z3
G0 X79.88163576327153 Y35.458216916433834
G1 Z-3 F400
G1 Z0 F400
G0 Z3
G0 X82.4216408432817 Y35.458216916433834
G1 Z-3 F400
G1 Z0 F400
G0 Z3
G0 X84.96164592329184 Y35.458216916433834
G1 Z-3 F400
G1 Z0 F400
G0 Z3
G0 X114.17170434340869 Y34.18821437642875
G1 Z-3 F400
G1 Z0 F400
G0 Z3
G0 X119.251460502921 Y34.18821437642875
G1 Z-3 F400
G1 Z0 F400
G0 Z3
G0 X2.4117348234696467 Y31.013208026416052
G1 Z-3 F400
G1 Z0 F400
G0 Z3
G0 X55.72339344678689 Y31.01447802895606
G1 Z-3 F400
G1 Z0 F400
G0 Z3
G0 X45.591567183134366 Y31.013208026416052
G1 Z-3 F400
G1 Z0 F400
G0 Z3
G0 X48.131318262636526 Y31.013208026416052
G1 Z-3 F400
G1 Z0 F400
G0 Z3
G0 X50.67208534417069 Y31.013208026416052
G1 Z-3 F400
G1 Z0 F400
G0 Z3
G0 X53.21158242316485 Y31.013208026416052
G1 Z-3 F400
G1 Z0 F400
G0 Z3
G0 X119.251460502921 Y29.10820421640843
G1 Z-3 F400
G1 Z0 F400
G0 Z3
G0 X2.4117348234696467 Y28.47320294640589
G1 Z-3 F400
G1 Z0 F400
G0 Z3
G0 X81.15163830327661 Y28.47320294640589
G1 Z-3 F400
G1 Z0 F400
G0 Z3
G0 X83.69138938277877 Y28.47320294640589
G1 Z-3 F400
G1 Z0 F400
G0 Z3
G0 X86.23164846329692 Y28.47320294640589
G1 Z-3 F400
G1 Z0 F400
G0 Z3
G0 X72.89662179324358 Y28.47320294640589
G1 Z-3 F400
G1 Z0 F400
G0 Z3
G0 X72.89662179324358 Y25.928371856743713
G1 Z-3 F400
G1 Z0 F400
G0 Z3
G0 X13.841757683515366 Y25.298196596393193
G1 Z-3 F400
G1 Z0 F400
G0 Z3
G0 X16.381762763525526 Y25.298196596393193
G1 Z-3 F400
G1 Z0 F400
G0 Z3
G0 X18.921767843535687 Y25.298196596393193
G1 Z-3 F400
G1 Z0 F400
G0 Z3
G0 X21.461772923545848 Y25.298196596393193
G1 Z-3 F400
G1 Z0 F400
G0 Z3
G0 X24.00177800355601 Y25.298196596393193
G1 Z-3 F400
G1 Z0 F400
G0 Z3
G0 X26.541783083566166 Y25.298196596393193
G1 Z-3 F400
G1 Z0 F400
G0 Z3
G0 X29.081788163576327 Y25.298196596393193
G1 Z-3 F400
G1 Z0 F400
G0 Z3
G0 X43.051562103124205 Y24.028194056388113
G1 Z-3 F400
G1 Z0 F400
G0 Z3
G0 X58.291592583185164 Y24.028194056388113
G1 Z-3 F400
G1 Z0 F400
G0 Z3
G0 X67.18161036322073 Y24.027940055880112
G1 Z-3 F400
G1 Z0 F400
G0 Z3
G0 X60.831597663195325 Y24.033020066040134
G1 Z-3 F400
G1 Z0 F400
G0 Z3
G0 X97.66167132334265 Y24.028194056388113
G1 Z-3 F400
G1 Z0 F400
G0 Z3
G0 X100.20624841249682 Y24.028194056388113
G1 Z-3 F400
G1 Z0 F400
G0 Z3
G0 X81.15163830327661 Y23.393446786893573
G1 Z-3 F400
G1 Z0 F400
G0 Z3
G0 X83.69138938277877 Y23.393446786893573
G1 Z-3 F400
G1 Z0 F400
G0 Z3
G0 X86.23164846329692 Y23.393446786893573
G1 Z-3 F400
G1 Z0 F400
G0 Z3
G0 X58.291592583185164 Y21.488188976377952
G1 Z-3 F400
G1 Z0 F400
G0 Z3
G0 X92.58166116332232 Y21.488188976377952
G1 Z-3 F400
G1 Z0 F400
G0 Z3
G0 X100.2016764033528 Y21.488188976377952
G1 Z-3 F400
G1 Z0 F400
G0 Z3
G0 X62.736601473202946 Y21.492760985521972
G1 Z-3 F400
G1 Z0 F400
G0 Z3
G0 X60.831597663195325 Y21.488442976885953
G1 Z-3 F400
G1 Z0 F400
G0 Z3
G0 X2.4117348234696467 Y20.85318770637541
G1 Z-3 F400
G1 Z0 F400
G0 Z3
G0 X43.051562103124205 Y18.948183896367794
G1 Z-3 F400
G1 Z0 F400
G0 Z3
G0 X58.291592583185164 Y18.948183896367794
G1 Z-3 F400
G1 Z0 F400
G0 Z3
G0 X64.64160528321057 Y18.948183896367794
G1 Z-3 F400
G1 Z0 F400
G0 Z3
G0 X92.58166116332232 Y18.948183896367794
G1 Z-3 F400
G1 Z0 F400
G0 Z3
G0 X100.2016764033528 Y18.948183896367794
G1 Z-3 F400
G1 Z0 F400
G0 Z3
G0 X62.736601473202946 Y18.948183896367794
G1 Z-3 F400
G1 Z0 F400
G0 Z3
G0 X2.4117348234696467 Y18.313182626365254
G1 Z-3 F400
G1 Z0 F400
G0 Z3
G0 X13.841757683515366 Y17.678181356362714
G1 Z-3 F400
G1 Z0 F400
G0 Z3
G0 X16.381762763525526 Y17.678181356362714
G1 Z-3 F400
G1 Z0 F400
G0 Z3
G0 X18.921767843535687 Y17.678181356362714
G1 Z-3 F400
G1 Z0 F400
G0 Z3
G0 X21.461772923545848 Y17.678181356362714
G1 Z-3 F400
G1 Z0 F400
G0 Z3
G0 X24.00177800355601 Y17.678181356362714
G1 Z-3 F400
G1 Z0 F400
G0 Z3
G0 X26.541783083566166 Y17.678181356362714
G1 Z-3 F400
G1 Z0 F400
G0 Z3
G0 X29.081788163576327 Y17.678181356362714
G1 Z-3 F400
G1 Z0 F400
G0 Z3
G0 X119.251460502921 Y16.408178816357633
G1 Z-3 F400
G1 Z0 F400
G0 Z3
G0 X92.58166116332232 Y16.408178816357633
G1 Z-3 F400
G1 Z0 F400
G0 Z3
G0 X100.2016764033528 Y16.408178816357633
G1 Z-3 F400
G1 Z0 F400
G0 Z3
G0 X21.456946913893827 Y14.503175006350013
G1 Z-3 F400
G1 Z0 F400
G0 Z3
G0 X24.00177800355601 Y14.503175006350013
G1 Z-3 F400
G1 Z0 F400
G0 Z3
G0 X119.251460502921 Y13.868173736347472
G1 Z-3 F400
G1 Z0 F400
G0 Z3
G0 X67.18161036322073 Y13.868173736347472
G1 Z-3 F400
G1 Z0 F400
G0 Z3
G0 X92.58166116332232 Y13.868427736855473
G1 Z-3 F400
G1 Z0 F400
G0 Z3
G0 X100.2016764033528 Y13.868427736855473
G1 Z-3 F400
G1 Z0 F400
G0 Z3
G0 X119.251460502921 Y11.327914655829312
G1 Z-3 F400
G1 Z0 F400
G0 Z3
G0 X69.70383540767081 Y11.348742697485395
G1 Z-3 F400
G1 Z0 F400
G0 Z3
G0 X72.24409448818898 Y11.348742697485395
G1 Z-3 F400
G1 Z0 F400
G0 Z3
G0 X74.78409956819914 Y11.348742697485395
G1 Z-3 F400
G1 Z0 F400
G0 Z3
G0 X77.32385064770129 Y11.348742697485395
G1 Z-3 F400
G1 Z0 F400
G0 Z3
G0 X79.86410972821946 Y11.348742697485395
G1 Z-3 F400
G1 Z0 F400
G0 Z3
G0 X82.40386080772161 Y11.348742697485395
G1 Z-3 F400
G1 Z0 F400
G0 Z3
G0 X84.94411988823978 Y11.348742697485395
G1 Z-3 F400
G1 Z0 F400
G0 Z3
G0 X92.58166116332232 Y11.328168656337313
G1 Z-3 F400
G1 Z0 F400
G0 Z3
G0 X100.2016764033528 Y11.328168656337313
G1 Z-3 F400
G1 Z0 F400
G0 Z3
G0 X51.94183388366777 Y11.328168656337313
G1 Z-3 F400
G1 Z0 F400
G0 Z3
G0 X54.48615697231394 Y11.328168656337313
G1 Z-3 F400
G1 Z0 F400
G0 Z3
G0 X18.287020574041147 Y10.653289306578612
G1 Z-3 F400
G1 Z0 F400
G0 Z3
G0 X119.251460502921 Y8.788163576327152
G1 Z-3 F400
G1 Z0 F400
G0 Z3
G0 X51.94183388366777 Y8.788163576327152
G1 Z-3 F400
G1 Z0 F400
G0 Z3
G0 X62.101600203200405 Y8.788163576327152
G1 Z-3 F400
G1 Z0 F400
G0 Z3
G0 X64.64160528321057 Y8.788163576327152
G1 Z-3 F400
G1 Z0 F400
G0 Z3
G0 X92.58166116332232 Y8.788163576327152
G1 Z-3 F400
G1 Z0 F400
G0 Z3
G0 X100.2016764033528 Y8.788163576327152
G1 Z-3 F400
G1 Z0 F400
G0 Z3
G0 X18.287020574041147 Y8.153162306324612
G1 Z-3 F400
G1 Z0 F400
G0 Z3
G0 X92.58166116332232 Y6.248158496316993
G1 Z-3 F400
G1 Z0 F400
G0 Z3
G0 X100.2016764033528 Y6.248158496316993
G1 Z-3 F400
G1 Z0 F400
G0 Z3
G0 X88.77139954279909 Y6.2527305054610105
G1 Z-3 F400
G1 Z0 F400
G0 Z3
G0 X69.70383540767081 Y3.728727457454915
G1 Z-3 F400
G1 Z0 F400
G0 Z3
G0 X72.24409448818898 Y3.728727457454915
G1 Z-3 F400
G1 Z0 F400
G0 Z3
G0 X74.78409956819914 Y3.728727457454915
G1 Z-3 F400
G1 Z0 F400
G0 Z3
G0 X77.32385064770129 Y3.728727457454915
G1 Z-3 F400
G1 Z0 F400
G0 Z3
G0 X79.86410972821946 Y3.728727457454915
G1 Z-3 F400
G1 Z0 F400
G0 Z3
G0 X82.40386080772161 Y3.728727457454915
G1 Z-3 F400
G1 Z0 F400
G0 Z3
G0 X84.94411988823978 Y3.728727457454915
G1 Z-3 F400
G1 Z0 F400
G0 Z3
G0 X92.58166116332232 Y3.708153416306833
G1 Z-3 F400
G1 Z0 F400
G0 Z3
G0 X100.2016764033528 Y3.708153416306833
G1 Z-3 F400
G1 Z0 F400
G0 Z3
G0 X88.77139954279909 Y3.7078994157988316
G1 Z-3 F400
G1 Z0 F400
G0 Z3
M5
M30
