(Generated by PartKam Version 0.05)

G21 G90 G40

(vias)
G0 Z3
T0 M6
G17
M3
G0 X43.051562103124205 Y50.69824739649479
G1 Z-3 F300
G1 Z0 F300
G0 Z3
G0 X54.48133096266193 Y48.79324358648717
G1 Z-3 F300
G1 Z0 F300
G0 Z3
G0 X58.29133858267716 Y46.25298450596901
G1 Z-3 F300
G1 Z0 F300
G0 Z3
G0 X77.34137668275336 Y45.61823723647447
G1 Z-3 F300
G1 Z0 F300
G0 Z3
G0 X87.501651003302 Y45.61823723647447
G1 Z-3 F300
G1 Z0 F300
G0 Z3
G0 X73.55524511049022 Y45.61823723647447
G1 Z-3 F300
G1 Z0 F300
G0 Z3
G0 X13.842011684023369 Y42.44323088646177
G1 Z-3 F300
G1 Z0 F300
G0 Z3
G0 X24.001524003048004 Y42.44323088646177
G1 Z-3 F300
G1 Z0 F300
G0 Z3
G0 X89.40690881381762 Y41.173228346456696
G1 Z-3 F300
G1 Z0 F300
G0 Z3
G0 X68.45161290322581 Y40.538227076454156
G1 Z-3 F300
G1 Z0 F300
G0 Z3
G0 X70.99136398272796 Y38.633223266446535
G1 Z-3 F300
G1 Z0 F300
G0 Z3
G0 X91.31165862331724 Y37.998221996443995
G1 Z-3 F300
G1 Z0 F300
G0 Z3
G0 X48.131318262636526 Y36.093218186436374
G1 Z-3 F300
G1 Z0 F300
G0 Z3
G0 X53.21158242316485 Y36.093218186436374
G1 Z-3 F300
G1 Z0 F300
G0 Z3
G0 X24.001524003048004 Y35.458216916433834
G1 Z-3 F300
G1 Z0 F300
G0 Z3
G0 X64.64135128270256 Y35.458216916433834
G1 Z-3 F300
G1 Z0 F300
G0 Z3
G0 X45.591567183134366 Y33.55295910591821
G1 Z-3 F300
G1 Z0 F300
G0 Z3
G0 X95.12115824231648 Y31.648209296418592
G1 Z-3 F300
G1 Z0 F300
G0 Z3
G0 X93.8516637033274 Y29.743459486918972
G1 Z-3 F300
G1 Z0 F300
G0 Z3
G0 X114.17119634239269 Y29.10820421640843
G1 Z-3 F300
G1 Z0 F300
G0 Z3
G0 X22.731775463550928 Y28.47320294640589
G1 Z-3 F300
G1 Z0 F300
G0 Z3
G0 X70.35636271272543 Y28.47320294640589
G1 Z-3 F300
G1 Z0 F300
G0 Z3
G0 X88.77114554229108 Y28.47320294640589
G1 Z-3 F300
G1 Z0 F300
G0 Z3
G0 X100.2016764033528 Y26.568453136906275
G1 Z-3 F300
G1 Z0 F300
G0 Z3
G0 X8.761747523495046 Y22.123190246380492
G1 Z-3 F300
G1 Z0 F300
G0 Z3
G0 X19.556769113538227 Y22.123190246380492
G1 Z-3 F300
G1 Z0 F300
G0 Z3
G0 X103.3766827533655 Y20.218440436880872
G1 Z-3 F300
G1 Z0 F300
G0 Z3
G0 X74.16637033274067 Y18.948183896367794
G1 Z-3 F300
G1 Z0 F300
G0 Z3
G0 X69.72136144272288 Y17.043434086868174
G1 Z-3 F300
G1 Z0 F300
G0 Z3
G0 X105.28143256286512 Y16.408178816357633
G1 Z-3 F300
G1 Z0 F300
G0 Z3
G0 X37.33655067310135 Y14.503429006858013
G1 Z-3 F300
G1 Z0 F300
G0 Z3
G0 X82.42113284226568 Y13.868427736855473
G1 Z-3 F300
G1 Z0 F300
G0 Z3
G0 X107.18643637287275 Y13.868427736855473
G1 Z-3 F300
G1 Z0 F300
G0 Z3
G0 X110.99618999237998 Y11.328422656845314
G1 Z-3 F300
G1 Z0 F300
G0 Z3
G0 X88.77114554229108 Y8.788417576835153
G1 Z-3 F300
G1 Z0 F300
G0 Z3
G0 X109.09144018288036 Y8.788417576835153
G1 Z-3 F300
G1 Z0 F300
G0 Z3
G0 X103.3766827533655 Y5.613665227330455
G1 Z-3 F300
G1 Z0 F300
G0 Z3
M5
M30
