(Generated by PartKam Version 0.05)

G21 G90 G40

(bigholes)
G0 Z3
T0 M6
G17
M3
G0 X32.72186944373889 Y93.31369062738125
G1 Z-0.24993649987299973 F600
G3 X32.786385572771145 Y92.98958597917195 I0.8509017018034036 J0 F600
G3 X32.97180594361188 Y92.71272542545086 I0.7848615697231394 J0.32512065024130044
G3 X33.246126492252984 Y92.52730505461011 I0.601981203962408 J0.601981203962408
G3 X33.571247142494286 Y92.46380492760986 I0.32512065024130044 J0.7848615697231394
G3 X33.89636779273558 Y92.52730505461011 I0 J0.8509017018034036
G3 X34.173228346456696 Y92.71272542545086 I-0.32512065024130044 J0.7848615697231394
G3 X34.35610871221742 Y92.98958597917195 I-0.601981203962408 J0.601981203962408
G3 X34.42214884429769 Y93.31470662941327 I-0.7848615697231394 J0.32512065024130044
G1 X34.42214884429769 Y93.31470662941327
G1 X34.42214884429769 Y93.31470662941327
G3 X34.391668783337565 Y93.53314706629413 I-0.8509017018034036 J0
G3 X34.30784861569723 Y93.73888747777497 I-0.8204216408432817 J-0.22098044196088393
G3 X34.173228346456696 Y93.91414782829565 I-0.7366014732029464 J-0.42418084836169667
G3 X33.99542799085598 Y94.0487680975362 I-0.601981203962408 J-0.601981203962408
G3 X33.79222758445517 Y94.13512827025654 I-0.42418084836169667 J-0.7366014732029464
G3 X33.571247142494286 Y94.16306832613665 I-0.22098044196088393 J-0.8204216408432817
G3 X33.35280670561341 Y94.13512827025654 I0 J-0.8509017018034036
G3 X33.14706629413259 Y94.0487680975362 I0.22098044196088393 J-0.8204216408432817
G3 X32.97180594361188 Y93.91414782829565 I0.42418084836169667 J-0.7366014732029464
G3 X32.83464566929134 Y93.73888747777497 I0.601981203962408 J-0.601981203962408
G3 X32.75082550165101 Y93.53314706629413 I0.7366014732029464 J-0.42418084836169667
G3 X32.72288544577089 Y93.31470662941327 I0.8204216408432817 J-0.22098044196088393
G1 X32.72288544577089 Y93.31470662941327
G1 X32.72288544577089 Y93.31470662941327
G1 Z-0.49987299974599947 F600
G3 X32.786385572771145 Y92.98958597917195 I0.8509017018034036 J0 F600
G3 X32.97180594361188 Y92.71272542545086 I0.7848615697231394 J0.32512065024130044
G3 X33.246126492252984 Y92.52730505461011 I0.601981203962408 J0.601981203962408
G3 X33.571247142494286 Y92.46380492760986 I0.32512065024130044 J0.7848615697231394
G3 X33.89636779273558 Y92.52730505461011 I0 J0.8509017018034036
G3 X34.173228346456696 Y92.71272542545086 I-0.32512065024130044 J0.7848615697231394
G3 X34.35610871221742 Y92.98958597917195 I-0.601981203962408 J0.601981203962408
G3 X34.42214884429769 Y93.31470662941327 I-0.7848615697231394 J0.32512065024130044
G1 X34.42214884429769 Y93.31470662941327
G1 X34.42214884429769 Y93.31470662941327
G3 X34.391668783337565 Y93.53314706629413 I-0.8509017018034036 J0
G3 X34.30784861569723 Y93.73888747777497 I-0.8204216408432817 J-0.22098044196088393
G3 X34.173228346456696 Y93.91414782829565 I-0.7366014732029464 J-0.42418084836169667
G3 X33.99542799085598 Y94.0487680975362 I-0.601981203962408 J-0.601981203962408
G3 X33.79222758445517 Y94.13512827025654 I-0.42418084836169667 J-0.7366014732029464
G3 X33.571247142494286 Y94.16306832613665 I-0.22098044196088393 J-0.8204216408432817
G3 X33.35280670561341 Y94.13512827025654 I0 J-0.8509017018034036
G3 X33.14706629413259 Y94.0487680975362 I0.22098044196088393 J-0.8204216408432817
G3 X32.97180594361188 Y93.91414782829565 I0.42418084836169667 J-0.7366014732029464
G3 X32.83464566929134 Y93.73888747777497 I0.601981203962408 J-0.601981203962408
G3 X32.75082550165101 Y93.53314706629413 I0.7366014732029464 J-0.42418084836169667
G3 X32.72288544577089 Y93.31470662941327 I0.8204216408432817 J-0.22098044196088393
G1 X32.72288544577089 Y93.31470662941327
G1 X32.72288544577089 Y93.31470662941327
G1 Z-0.7498094996189992 F600
G3 X32.786385572771145 Y92.98958597917195 I0.8509017018034036 J0 F600
G3 X32.97180594361188 Y92.71272542545086 I0.7848615697231394 J0.32512065024130044
G3 X33.246126492252984 Y92.52730505461011 I0.601981203962408 J0.601981203962408
G3 X33.571247142494286 Y92.46380492760986 I0.32512065024130044 J0.7848615697231394
G3 X33.89636779273558 Y92.52730505461011 I0 J0.8509017018034036
G3 X34.173228346456696 Y92.71272542545086 I-0.32512065024130044 J0.7848615697231394
G3 X34.35610871221742 Y92.98958597917195 I-0.601981203962408 J0.601981203962408
G3 X34.42214884429769 Y93.31470662941327 I-0.7848615697231394 J0.32512065024130044
G1 X34.42214884429769 Y93.31470662941327
G1 X34.42214884429769 Y93.31470662941327
G3 X34.391668783337565 Y93.53314706629413 I-0.8509017018034036 J0
G3 X34.30784861569723 Y93.73888747777497 I-0.8204216408432817 J-0.22098044196088393
G3 X34.173228346456696 Y93.91414782829565 I-0.7366014732029464 J-0.42418084836169667
G3 X33.99542799085598 Y94.0487680975362 I-0.601981203962408 J-0.601981203962408
G3 X33.79222758445517 Y94.13512827025654 I-0.42418084836169667 J-0.7366014732029464
G3 X33.571247142494286 Y94.16306832613665 I-0.22098044196088393 J-0.8204216408432817
G3 X33.35280670561341 Y94.13512827025654 I0 J-0.8509017018034036
G3 X33.14706629413259 Y94.0487680975362 I0.22098044196088393 J-0.8204216408432817
G3 X32.97180594361188 Y93.91414782829565 I0.42418084836169667 J-0.7366014732029464
G3 X32.83464566929134 Y93.73888747777497 I0.601981203962408 J-0.601981203962408
G3 X32.75082550165101 Y93.53314706629413 I0.7366014732029464 J-0.42418084836169667
G3 X32.72288544577089 Y93.31470662941327 I0.8204216408432817 J-0.22098044196088393
G1 X32.72288544577089 Y93.31470662941327
G1 X32.72288544577089 Y93.31470662941327
G1 Z-0.9997459994919989 F600
G3 X32.786385572771145 Y92.98958597917195 I0.8509017018034036 J0 F600
G3 X32.97180594361188 Y92.71272542545086 I0.7848615697231394 J0.32512065024130044
G3 X33.246126492252984 Y92.52730505461011 I0.601981203962408 J0.601981203962408
G3 X33.571247142494286 Y92.46380492760986 I0.32512065024130044 J0.7848615697231394
G3 X33.89636779273558 Y92.52730505461011 I0 J0.8509017018034036
G3 X34.173228346456696 Y92.71272542545086 I-0.32512065024130044 J0.7848615697231394
G3 X34.35610871221742 Y92.98958597917195 I-0.601981203962408 J0.601981203962408
G3 X34.42214884429769 Y93.31470662941327 I-0.7848615697231394 J0.32512065024130044
G1 X34.42214884429769 Y93.31470662941327
G1 X34.42214884429769 Y93.31470662941327
G3 X34.391668783337565 Y93.53314706629413 I-0.8509017018034036 J0
G3 X34.30784861569723 Y93.73888747777497 I-0.8204216408432817 J-0.22098044196088393
G3 X34.173228346456696 Y93.91414782829565 I-0.7366014732029464 J-0.42418084836169667
G3 X33.99542799085598 Y94.0487680975362 I-0.601981203962408 J-0.601981203962408
G3 X33.79222758445517 Y94.13512827025654 I-0.42418084836169667 J-0.7366014732029464
G3 X33.571247142494286 Y94.16306832613665 I-0.22098044196088393 J-0.8204216408432817
G3 X33.35280670561341 Y94.13512827025654 I0 J-0.8509017018034036
G3 X33.14706629413259 Y94.0487680975362 I0.22098044196088393 J-0.8204216408432817
G3 X32.97180594361188 Y93.91414782829565 I0.42418084836169667 J-0.7366014732029464
G3 X32.83464566929134 Y93.73888747777497 I0.601981203962408 J-0.601981203962408
G3 X32.75082550165101 Y93.53314706629413 I0.7366014732029464 J-0.42418084836169667
G3 X32.72288544577089 Y93.31470662941327 I0.8204216408432817 J-0.22098044196088393
G1 X32.72288544577089 Y93.31470662941327
G1 X32.72288544577089 Y93.31470662941327
G1 Z-1.2496824993649986 F600
G3 X32.786385572771145 Y92.98958597917195 I0.8509017018034036 J0 F600
G3 X32.97180594361188 Y92.71272542545086 I0.7848615697231394 J0.32512065024130044
G3 X33.246126492252984 Y92.52730505461011 I0.601981203962408 J0.601981203962408
G3 X33.571247142494286 Y92.46380492760986 I0.32512065024130044 J0.7848615697231394
G3 X33.89636779273558 Y92.52730505461011 I0 J0.8509017018034036
G3 X34.173228346456696 Y92.71272542545086 I-0.32512065024130044 J0.7848615697231394
G3 X34.35610871221742 Y92.98958597917195 I-0.601981203962408 J0.601981203962408
G3 X34.42214884429769 Y93.31470662941327 I-0.7848615697231394 J0.32512065024130044
G1 X34.42214884429769 Y93.31470662941327
G1 X34.42214884429769 Y93.31470662941327
G3 X34.391668783337565 Y93.53314706629413 I-0.8509017018034036 J0
G3 X34.30784861569723 Y93.73888747777497 I-0.8204216408432817 J-0.22098044196088393
G3 X34.173228346456696 Y93.91414782829565 I-0.7366014732029464 J-0.42418084836169667
G3 X33.99542799085598 Y94.0487680975362 I-0.601981203962408 J-0.601981203962408
G3 X33.79222758445517 Y94.13512827025654 I-0.42418084836169667 J-0.7366014732029464
G3 X33.571247142494286 Y94.16306832613665 I-0.22098044196088393 J-0.8204216408432817
G3 X33.35280670561341 Y94.13512827025654 I0 J-0.8509017018034036
G3 X33.14706629413259 Y94.0487680975362 I0.22098044196088393 J-0.8204216408432817
G3 X32.97180594361188 Y93.91414782829565 I0.42418084836169667 J-0.7366014732029464
G3 X32.83464566929134 Y93.73888747777497 I0.601981203962408 J-0.601981203962408
G3 X32.75082550165101 Y93.53314706629413 I0.7366014732029464 J-0.42418084836169667
G3 X32.72288544577089 Y93.31470662941327 I0.8204216408432817 J-0.22098044196088393
G1 X32.72288544577089 Y93.31470662941327
G1 X32.72288544577089 Y93.31470662941327
G1 Z-1.4996189992379985 F600
G3 X32.786385572771145 Y92.98958597917195 I0.8509017018034036 J0 F600
G3 X32.97180594361188 Y92.71272542545086 I0.7848615697231394 J0.32512065024130044
G3 X33.246126492252984 Y92.52730505461011 I0.601981203962408 J0.601981203962408
G3 X33.571247142494286 Y92.46380492760986 I0.32512065024130044 J0.7848615697231394
G3 X33.89636779273558 Y92.52730505461011 I0 J0.8509017018034036
G3 X34.173228346456696 Y92.71272542545086 I-0.32512065024130044 J0.7848615697231394
G3 X34.35610871221742 Y92.98958597917195 I-0.601981203962408 J0.601981203962408
G3 X34.42214884429769 Y93.31470662941327 I-0.7848615697231394 J0.32512065024130044
G1 X34.42214884429769 Y93.31470662941327
G1 X34.42214884429769 Y93.31470662941327
G3 X34.391668783337565 Y93.53314706629413 I-0.8509017018034036 J0
G3 X34.30784861569723 Y93.73888747777497 I-0.8204216408432817 J-0.22098044196088393
G3 X34.173228346456696 Y93.91414782829565 I-0.7366014732029464 J-0.42418084836169667
G3 X33.99542799085598 Y94.0487680975362 I-0.601981203962408 J-0.601981203962408
G3 X33.79222758445517 Y94.13512827025654 I-0.42418084836169667 J-0.7366014732029464
G3 X33.571247142494286 Y94.16306832613665 I-0.22098044196088393 J-0.8204216408432817
G3 X33.35280670561341 Y94.13512827025654 I0 J-0.8509017018034036
G3 X33.14706629413259 Y94.0487680975362 I0.22098044196088393 J-0.8204216408432817
G3 X32.97180594361188 Y93.91414782829565 I0.42418084836169667 J-0.7366014732029464
G3 X32.83464566929134 Y93.73888747777497 I0.601981203962408 J-0.601981203962408
G3 X32.75082550165101 Y93.53314706629413 I0.7366014732029464 J-0.42418084836169667
G3 X32.72288544577089 Y93.31470662941327 I0.8204216408432817 J-0.22098044196088393
G1 X32.72288544577089 Y93.31470662941327
G1 X32.72288544577089 Y93.31470662941327
G1 Z-1.7495554991109983 F600
G3 X32.786385572771145 Y92.98958597917195 I0.8509017018034036 J0 F600
G3 X32.97180594361188 Y92.71272542545086 I0.7848615697231394 J0.32512065024130044
G3 X33.246126492252984 Y92.52730505461011 I0.601981203962408 J0.601981203962408
G3 X33.571247142494286 Y92.46380492760986 I0.32512065024130044 J0.7848615697231394
G3 X33.89636779273558 Y92.52730505461011 I0 J0.8509017018034036
G3 X34.173228346456696 Y92.71272542545086 I-0.32512065024130044 J0.7848615697231394
G3 X34.35610871221742 Y92.98958597917195 I-0.601981203962408 J0.601981203962408
G3 X34.42214884429769 Y93.31470662941327 I-0.7848615697231394 J0.32512065024130044
G1 X34.42214884429769 Y93.31470662941327
G1 X34.42214884429769 Y93.31470662941327
G3 X34.391668783337565 Y93.53314706629413 I-0.8509017018034036 J0
G3 X34.30784861569723 Y93.73888747777497 I-0.8204216408432817 J-0.22098044196088393
G3 X34.173228346456696 Y93.91414782829565 I-0.7366014732029464 J-0.42418084836169667
G3 X33.99542799085598 Y94.0487680975362 I-0.601981203962408 J-0.601981203962408
G3 X33.79222758445517 Y94.13512827025654 I-0.42418084836169667 J-0.7366014732029464
G3 X33.571247142494286 Y94.16306832613665 I-0.22098044196088393 J-0.8204216408432817
G3 X33.35280670561341 Y94.13512827025654 I0 J-0.8509017018034036
G3 X33.14706629413259 Y94.0487680975362 I0.22098044196088393 J-0.8204216408432817
G3 X32.97180594361188 Y93.91414782829565 I0.42418084836169667 J-0.7366014732029464
G3 X32.83464566929134 Y93.73888747777497 I0.601981203962408 J-0.601981203962408
G3 X32.75082550165101 Y93.53314706629413 I0.7366014732029464 J-0.42418084836169667
G3 X32.72288544577089 Y93.31470662941327 I0.8204216408432817 J-0.22098044196088393
G1 X32.72288544577089 Y93.31470662941327
G1 X32.72288544577089 Y93.31470662941327
G1 Z-1.9994919989839979 F600
G3 X32.786385572771145 Y92.98958597917195 I0.8509017018034036 J0 F600
G3 X32.97180594361188 Y92.71272542545086 I0.7848615697231394 J0.32512065024130044
G3 X33.246126492252984 Y92.52730505461011 I0.601981203962408 J0.601981203962408
G3 X33.571247142494286 Y92.46380492760986 I0.32512065024130044 J0.7848615697231394
G3 X33.89636779273558 Y92.52730505461011 I0 J0.8509017018034036
G3 X34.173228346456696 Y92.71272542545086 I-0.32512065024130044 J0.7848615697231394
G3 X34.35610871221742 Y92.98958597917195 I-0.601981203962408 J0.601981203962408
G3 X34.42214884429769 Y93.31470662941327 I-0.7848615697231394 J0.32512065024130044
G1 X34.42214884429769 Y93.31470662941327
G1 X34.42214884429769 Y93.31470662941327
G3 X34.391668783337565 Y93.53314706629413 I-0.8509017018034036 J0
G3 X34.30784861569723 Y93.73888747777497 I-0.8204216408432817 J-0.22098044196088393
G3 X34.173228346456696 Y93.91414782829565 I-0.7366014732029464 J-0.42418084836169667
G3 X33.99542799085598 Y94.0487680975362 I-0.601981203962408 J-0.601981203962408
G3 X33.79222758445517 Y94.13512827025654 I-0.42418084836169667 J-0.7366014732029464
G3 X33.571247142494286 Y94.16306832613665 I-0.22098044196088393 J-0.8204216408432817
G3 X33.35280670561341 Y94.13512827025654 I0 J-0.8509017018034036
G3 X33.14706629413259 Y94.0487680975362 I0.22098044196088393 J-0.8204216408432817
G3 X32.97180594361188 Y93.91414782829565 I0.42418084836169667 J-0.7366014732029464
G3 X32.83464566929134 Y93.73888747777497 I0.601981203962408 J-0.601981203962408
G3 X32.75082550165101 Y93.53314706629413 I0.7366014732029464 J-0.42418084836169667
G3 X32.72288544577089 Y93.31470662941327 I0.8204216408432817 J-0.22098044196088393
G1 X32.72288544577089 Y93.31470662941327
G1 X32.72288544577089 Y93.31470662941327
G1 Z-2.249428498856998 F600
G3 X32.786385572771145 Y92.98958597917195 I0.8509017018034036 J0 F600
G3 X32.97180594361188 Y92.71272542545086 I0.7848615697231394 J0.32512065024130044
G3 X33.246126492252984 Y92.52730505461011 I0.601981203962408 J0.601981203962408
G3 X33.571247142494286 Y92.46380492760986 I0.32512065024130044 J0.7848615697231394
G3 X33.89636779273558 Y92.52730505461011 I0 J0.8509017018034036
G3 X34.173228346456696 Y92.71272542545086 I-0.32512065024130044 J0.7848615697231394
G3 X34.35610871221742 Y92.98958597917195 I-0.601981203962408 J0.601981203962408
G3 X34.42214884429769 Y93.31470662941327 I-0.7848615697231394 J0.32512065024130044
G1 X34.42214884429769 Y93.31470662941327
G1 X34.42214884429769 Y93.31470662941327
G3 X34.391668783337565 Y93.53314706629413 I-0.8509017018034036 J0
G3 X34.30784861569723 Y93.73888747777497 I-0.8204216408432817 J-0.22098044196088393
G3 X34.173228346456696 Y93.91414782829565 I-0.7366014732029464 J-0.42418084836169667
G3 X33.99542799085598 Y94.0487680975362 I-0.601981203962408 J-0.601981203962408
G3 X33.79222758445517 Y94.13512827025654 I-0.42418084836169667 J-0.7366014732029464
G3 X33.571247142494286 Y94.16306832613665 I-0.22098044196088393 J-0.8204216408432817
G3 X33.35280670561341 Y94.13512827025654 I0 J-0.8509017018034036
G3 X33.14706629413259 Y94.0487680975362 I0.22098044196088393 J-0.8204216408432817
G3 X32.97180594361188 Y93.91414782829565 I0.42418084836169667 J-0.7366014732029464
G3 X32.83464566929134 Y93.73888747777497 I0.601981203962408 J-0.601981203962408
G3 X32.75082550165101 Y93.53314706629413 I0.7366014732029464 J-0.42418084836169667
G3 X32.72288544577089 Y93.31470662941327 I0.8204216408432817 J-0.22098044196088393
G1 X32.72288544577089 Y93.31470662941327
G1 X32.72288544577089 Y93.31470662941327
G1 Z-2.4993649987299973 F600
G3 X32.786385572771145 Y92.98958597917195 I0.8509017018034036 J0 F600
G3 X32.97180594361188 Y92.71272542545086 I0.7848615697231394 J0.32512065024130044
G3 X33.246126492252984 Y92.52730505461011 I0.601981203962408 J0.601981203962408
G3 X33.571247142494286 Y92.46380492760986 I0.32512065024130044 J0.7848615697231394
G3 X33.89636779273558 Y92.52730505461011 I0 J0.8509017018034036
G3 X34.173228346456696 Y92.71272542545086 I-0.32512065024130044 J0.7848615697231394
G3 X34.35610871221742 Y92.98958597917195 I-0.601981203962408 J0.601981203962408
G3 X34.42214884429769 Y93.31470662941327 I-0.7848615697231394 J0.32512065024130044
G1 X34.42214884429769 Y93.31470662941327
G1 X34.42214884429769 Y93.31470662941327
G3 X34.391668783337565 Y93.53314706629413 I-0.8509017018034036 J0
G3 X34.30784861569723 Y93.73888747777497 I-0.8204216408432817 J-0.22098044196088393
G3 X34.173228346456696 Y93.91414782829565 I-0.7366014732029464 J-0.42418084836169667
G3 X33.99542799085598 Y94.0487680975362 I-0.601981203962408 J-0.601981203962408
G3 X33.79222758445517 Y94.13512827025654 I-0.42418084836169667 J-0.7366014732029464
G3 X33.571247142494286 Y94.16306832613665 I-0.22098044196088393 J-0.8204216408432817
G3 X33.35280670561341 Y94.13512827025654 I0 J-0.8509017018034036
G3 X33.14706629413259 Y94.0487680975362 I0.22098044196088393 J-0.8204216408432817
G3 X32.97180594361188 Y93.91414782829565 I0.42418084836169667 J-0.7366014732029464
G3 X32.83464566929134 Y93.73888747777497 I0.601981203962408 J-0.601981203962408
G3 X32.75082550165101 Y93.53314706629413 I0.7366014732029464 J-0.42418084836169667
G3 X32.72288544577089 Y93.31470662941327 I0.8204216408432817 J-0.22098044196088393
G1 X32.72288544577089 Y93.31470662941327
G1 X32.72288544577089 Y93.31470662941327
G1 Z-2.749301498602997 F600
G3 X32.786385572771145 Y92.98958597917195 I0.8509017018034036 J0 F600
G3 X32.97180594361188 Y92.71272542545086 I0.7848615697231394 J0.32512065024130044
G3 X33.246126492252984 Y92.52730505461011 I0.601981203962408 J0.601981203962408
G3 X33.571247142494286 Y92.46380492760986 I0.32512065024130044 J0.7848615697231394
G3 X33.89636779273558 Y92.52730505461011 I0 J0.8509017018034036
G3 X34.173228346456696 Y92.71272542545086 I-0.32512065024130044 J0.7848615697231394
G3 X34.35610871221742 Y92.98958597917195 I-0.601981203962408 J0.601981203962408
G3 X34.42214884429769 Y93.31470662941327 I-0.7848615697231394 J0.32512065024130044
G1 X34.42214884429769 Y93.31470662941327
G1 X34.42214884429769 Y93.31470662941327
G3 X34.391668783337565 Y93.53314706629413 I-0.8509017018034036 J0
G3 X34.30784861569723 Y93.73888747777497 I-0.8204216408432817 J-0.22098044196088393
G3 X34.173228346456696 Y93.91414782829565 I-0.7366014732029464 J-0.42418084836169667
G3 X33.99542799085598 Y94.0487680975362 I-0.601981203962408 J-0.601981203962408
G3 X33.79222758445517 Y94.13512827025654 I-0.42418084836169667 J-0.7366014732029464
G3 X33.571247142494286 Y94.16306832613665 I-0.22098044196088393 J-0.8204216408432817
G3 X33.35280670561341 Y94.13512827025654 I0 J-0.8509017018034036
G3 X33.14706629413259 Y94.0487680975362 I0.22098044196088393 J-0.8204216408432817
G3 X32.97180594361188 Y93.91414782829565 I0.42418084836169667 J-0.7366014732029464
G3 X32.83464566929134 Y93.73888747777497 I0.601981203962408 J-0.601981203962408
G3 X32.75082550165101 Y93.53314706629413 I0.7366014732029464 J-0.42418084836169667
G3 X32.72288544577089 Y93.31470662941327 I0.8204216408432817 J-0.22098044196088393
G1 X32.72288544577089 Y93.31470662941327
G1 X32.72288544577089 Y93.31470662941327
G1 Z-2.999237998475997 F600
G3 X32.786385572771145 Y92.98958597917195 I0.8509017018034036 J0 F600
G3 X32.97180594361188 Y92.71272542545086 I0.7848615697231394 J0.32512065024130044
G3 X33.246126492252984 Y92.52730505461011 I0.601981203962408 J0.601981203962408
G3 X33.571247142494286 Y92.46380492760986 I0.32512065024130044 J0.7848615697231394
G3 X33.89636779273558 Y92.52730505461011 I0 J0.8509017018034036
G3 X34.173228346456696 Y92.71272542545086 I-0.32512065024130044 J0.7848615697231394
G3 X34.35610871221742 Y92.98958597917195 I-0.601981203962408 J0.601981203962408
G3 X34.42214884429769 Y93.31470662941327 I-0.7848615697231394 J0.32512065024130044
G1 X34.42214884429769 Y93.31470662941327
G1 X34.42214884429769 Y93.31470662941327
G3 X34.391668783337565 Y93.53314706629413 I-0.8509017018034036 J0
G3 X34.30784861569723 Y93.73888747777497 I-0.8204216408432817 J-0.22098044196088393
G3 X34.173228346456696 Y93.91414782829565 I-0.7366014732029464 J-0.42418084836169667
G3 X33.99542799085598 Y94.0487680975362 I-0.601981203962408 J-0.601981203962408
G3 X33.79222758445517 Y94.13512827025654 I-0.42418084836169667 J-0.7366014732029464
G3 X33.571247142494286 Y94.16306832613665 I-0.22098044196088393 J-0.8204216408432817
G3 X33.35280670561341 Y94.13512827025654 I0 J-0.8509017018034036
G3 X33.14706629413259 Y94.0487680975362 I0.22098044196088393 J-0.8204216408432817
G3 X32.97180594361188 Y93.91414782829565 I0.42418084836169667 J-0.7366014732029464
G3 X32.83464566929134 Y93.73888747777497 I0.601981203962408 J-0.601981203962408
G3 X32.75082550165101 Y93.53314706629413 I0.7366014732029464 J-0.42418084836169667
G3 X32.72288544577089 Y93.31470662941327 I0.8204216408432817 J-0.22098044196088393
G1 X32.72288544577089 Y93.31470662941327
G1 X32.72288544577089 Y93.31470662941327
G1 Z-3 F600
G3 X32.786385572771145 Y92.98958597917195 I0.8509017018034036 J0 F600
G3 X32.97180594361188 Y92.71272542545086 I0.7848615697231394 J0.32512065024130044
G3 X33.246126492252984 Y92.52730505461011 I0.601981203962408 J0.601981203962408
G3 X33.571247142494286 Y92.46380492760986 I0.32512065024130044 J0.7848615697231394
G3 X33.89636779273558 Y92.52730505461011 I0 J0.8509017018034036
G3 X34.173228346456696 Y92.71272542545086 I-0.32512065024130044 J0.7848615697231394
G3 X34.35610871221742 Y92.98958597917195 I-0.601981203962408 J0.601981203962408
G3 X34.42214884429769 Y93.31470662941327 I-0.7848615697231394 J0.32512065024130044
G1 X34.42214884429769 Y93.31470662941327
G1 X34.42214884429769 Y93.31470662941327
G3 X34.391668783337565 Y93.53314706629413 I-0.8509017018034036 J0
G3 X34.30784861569723 Y93.73888747777497 I-0.8204216408432817 J-0.22098044196088393
G3 X34.173228346456696 Y93.91414782829565 I-0.7366014732029464 J-0.42418084836169667
G3 X33.99542799085598 Y94.0487680975362 I-0.601981203962408 J-0.601981203962408
G3 X33.79222758445517 Y94.13512827025654 I-0.42418084836169667 J-0.7366014732029464
G3 X33.571247142494286 Y94.16306832613665 I-0.22098044196088393 J-0.8204216408432817
G3 X33.35280670561341 Y94.13512827025654 I0 J-0.8509017018034036
G3 X33.14706629413259 Y94.0487680975362 I0.22098044196088393 J-0.8204216408432817
G3 X32.97180594361188 Y93.91414782829565 I0.42418084836169667 J-0.7366014732029464
G3 X32.83464566929134 Y93.73888747777497 I0.601981203962408 J-0.601981203962408
G3 X32.75082550165101 Y93.53314706629413 I0.7366014732029464 J-0.42418084836169667
G3 X32.72288544577089 Y93.31470662941327 I0.8204216408432817 J-0.22098044196088393
G1 X32.72288544577089 Y93.31470662941327
G1 X32.72288544577089 Y93.31470662941327
G0 Z3
G0 X1.6068072136144271 Y93.31369062738125
G1 Z-0.24993649987299973 F600
G3 X1.6713233426466854 Y92.98958597917195 I0.8509017018034036 J0 F600
G3 X1.8567437134874272 Y92.71272542545086 I0.7848615697231394 J0.32512065024130044
G3 X2.131064262128524 Y92.52730505461011 I0.601981203962408 J0.601981203962408
G3 X2.456184912369825 Y92.46380492760986 I0.32512065024130044 J0.7848615697231394
G3 X2.7813055626111254 Y92.52730505461011 I0 J0.8509017018034036
G3 X3.0581661163322327 Y92.71272542545086 I-0.32512065024130044 J0.7848615697231394
G3 X3.241046482092964 Y92.98958597917195 I-0.601981203962408 J0.601981203962408
G3 X3.3070866141732287 Y93.31470662941327 I-0.7848615697231394 J0.32512065024130044
G1 X3.3070866141732287 Y93.31470662941327
G1 X3.3070866141732287 Y93.31470662941327
G3 X3.2766065532131066 Y93.53314706629413 I-0.8509017018034036 J0
G3 X3.192786385572771 Y93.73888747777497 I-0.8204216408432817 J-0.22098044196088393
G3 X3.0581661163322327 Y93.91414782829565 I-0.7366014732029464 J-0.42418084836169667
G3 X2.8829057658115316 Y94.0487680975362 I-0.601981203962408 J-0.601981203962408
G3 X2.677165354330709 Y94.13512827025654 I-0.42418084836169667 J-0.7366014732029464
G3 X2.456184912369825 Y94.16306832613665 I-0.22098044196088393 J-0.8204216408432817
G3 X2.237744475488951 Y94.13512827025654 I0 J-0.8509017018034036
G3 X2.032004064008128 Y94.0487680975362 I0.22098044196088393 J-0.8204216408432817
G3 X1.8567437134874272 Y93.91414782829565 I0.42418084836169667 J-0.7366014732029464
G3 X1.7195834391668783 Y93.73888747777497 I0.601981203962408 J-0.601981203962408
G3 X1.6357632715265429 Y93.53314706629413 I0.7366014732029464 J-0.42418084836169667
G3 X1.6078232156464312 Y93.31470662941327 I0.8204216408432817 J-0.22098044196088393
G1 X1.6078232156464312 Y93.31470662941327
G1 X1.6078232156464312 Y93.31470662941327
G1 Z-0.49987299974599947 F600
G3 X1.6713233426466854 Y92.98958597917195 I0.8509017018034036 J0 F600
G3 X1.8567437134874272 Y92.71272542545086 I0.7848615697231394 J0.32512065024130044
G3 X2.131064262128524 Y92.52730505461011 I0.601981203962408 J0.601981203962408
G3 X2.456184912369825 Y92.46380492760986 I0.32512065024130044 J0.7848615697231394
G3 X2.7813055626111254 Y92.52730505461011 I0 J0.8509017018034036
G3 X3.0581661163322327 Y92.71272542545086 I-0.32512065024130044 J0.7848615697231394
G3 X3.241046482092964 Y92.98958597917195 I-0.601981203962408 J0.601981203962408
G3 X3.3070866141732287 Y93.31470662941327 I-0.7848615697231394 J0.32512065024130044
G1 X3.3070866141732287 Y93.31470662941327
G1 X3.3070866141732287 Y93.31470662941327
G3 X3.2766065532131066 Y93.53314706629413 I-0.8509017018034036 J0
G3 X3.192786385572771 Y93.73888747777497 I-0.8204216408432817 J-0.22098044196088393
G3 X3.0581661163322327 Y93.91414782829565 I-0.7366014732029464 J-0.42418084836169667
G3 X2.8829057658115316 Y94.0487680975362 I-0.601981203962408 J-0.601981203962408
G3 X2.677165354330709 Y94.13512827025654 I-0.42418084836169667 J-0.7366014732029464
G3 X2.456184912369825 Y94.16306832613665 I-0.22098044196088393 J-0.8204216408432817
G3 X2.237744475488951 Y94.13512827025654 I0 J-0.8509017018034036
G3 X2.032004064008128 Y94.0487680975362 I0.22098044196088393 J-0.8204216408432817
G3 X1.8567437134874272 Y93.91414782829565 I0.42418084836169667 J-0.7366014732029464
G3 X1.7195834391668783 Y93.73888747777497 I0.601981203962408 J-0.601981203962408
G3 X1.6357632715265429 Y93.53314706629413 I0.7366014732029464 J-0.42418084836169667
G3 X1.6078232156464312 Y93.31470662941327 I0.8204216408432817 J-0.22098044196088393
G1 X1.6078232156464312 Y93.31470662941327
G1 X1.6078232156464312 Y93.31470662941327
G1 Z-0.7498094996189992 F600
G3 X1.6713233426466854 Y92.98958597917195 I0.8509017018034036 J0 F600
G3 X1.8567437134874272 Y92.71272542545086 I0.7848615697231394 J0.32512065024130044
G3 X2.131064262128524 Y92.52730505461011 I0.601981203962408 J0.601981203962408
G3 X2.456184912369825 Y92.46380492760986 I0.32512065024130044 J0.7848615697231394
G3 X2.7813055626111254 Y92.52730505461011 I0 J0.8509017018034036
G3 X3.0581661163322327 Y92.71272542545086 I-0.32512065024130044 J0.7848615697231394
G3 X3.241046482092964 Y92.98958597917195 I-0.601981203962408 J0.601981203962408
G3 X3.3070866141732287 Y93.31470662941327 I-0.7848615697231394 J0.32512065024130044
G1 X3.3070866141732287 Y93.31470662941327
G1 X3.3070866141732287 Y93.31470662941327
G3 X3.2766065532131066 Y93.53314706629413 I-0.8509017018034036 J0
G3 X3.192786385572771 Y93.73888747777497 I-0.8204216408432817 J-0.22098044196088393
G3 X3.0581661163322327 Y93.91414782829565 I-0.7366014732029464 J-0.42418084836169667
G3 X2.8829057658115316 Y94.0487680975362 I-0.601981203962408 J-0.601981203962408
G3 X2.677165354330709 Y94.13512827025654 I-0.42418084836169667 J-0.7366014732029464
G3 X2.456184912369825 Y94.16306832613665 I-0.22098044196088393 J-0.8204216408432817
G3 X2.237744475488951 Y94.13512827025654 I0 J-0.8509017018034036
G3 X2.032004064008128 Y94.0487680975362 I0.22098044196088393 J-0.8204216408432817
G3 X1.8567437134874272 Y93.91414782829565 I0.42418084836169667 J-0.7366014732029464
G3 X1.7195834391668783 Y93.73888747777497 I0.601981203962408 J-0.601981203962408
G3 X1.6357632715265429 Y93.53314706629413 I0.7366014732029464 J-0.42418084836169667
G3 X1.6078232156464312 Y93.31470662941327 I0.8204216408432817 J-0.22098044196088393
G1 X1.6078232156464312 Y93.31470662941327
G1 X1.6078232156464312 Y93.31470662941327
G1 Z-0.9997459994919989 F600
G3 X1.6713233426466854 Y92.98958597917195 I0.8509017018034036 J0 F600
G3 X1.8567437134874272 Y92.71272542545086 I0.7848615697231394 J0.32512065024130044
G3 X2.131064262128524 Y92.52730505461011 I0.601981203962408 J0.601981203962408
G3 X2.456184912369825 Y92.46380492760986 I0.32512065024130044 J0.7848615697231394
G3 X2.7813055626111254 Y92.52730505461011 I0 J0.8509017018034036
G3 X3.0581661163322327 Y92.71272542545086 I-0.32512065024130044 J0.7848615697231394
G3 X3.241046482092964 Y92.98958597917195 I-0.601981203962408 J0.601981203962408
G3 X3.3070866141732287 Y93.31470662941327 I-0.7848615697231394 J0.32512065024130044
G1 X3.3070866141732287 Y93.31470662941327
G1 X3.3070866141732287 Y93.31470662941327
G3 X3.2766065532131066 Y93.53314706629413 I-0.8509017018034036 J0
G3 X3.192786385572771 Y93.73888747777497 I-0.8204216408432817 J-0.22098044196088393
G3 X3.0581661163322327 Y93.91414782829565 I-0.7366014732029464 J-0.42418084836169667
G3 X2.8829057658115316 Y94.0487680975362 I-0.601981203962408 J-0.601981203962408
G3 X2.677165354330709 Y94.13512827025654 I-0.42418084836169667 J-0.7366014732029464
G3 X2.456184912369825 Y94.16306832613665 I-0.22098044196088393 J-0.8204216408432817
G3 X2.237744475488951 Y94.13512827025654 I0 J-0.8509017018034036
G3 X2.032004064008128 Y94.0487680975362 I0.22098044196088393 J-0.8204216408432817
G3 X1.8567437134874272 Y93.91414782829565 I0.42418084836169667 J-0.7366014732029464
G3 X1.7195834391668783 Y93.73888747777497 I0.601981203962408 J-0.601981203962408
G3 X1.6357632715265429 Y93.53314706629413 I0.7366014732029464 J-0.42418084836169667
G3 X1.6078232156464312 Y93.31470662941327 I0.8204216408432817 J-0.22098044196088393
G1 X1.6078232156464312 Y93.31470662941327
G1 X1.6078232156464312 Y93.31470662941327
G1 Z-1.2496824993649986 F600
G3 X1.6713233426466854 Y92.98958597917195 I0.8509017018034036 J0 F600
G3 X1.8567437134874272 Y92.71272542545086 I0.7848615697231394 J0.32512065024130044
G3 X2.131064262128524 Y92.52730505461011 I0.601981203962408 J0.601981203962408
G3 X2.456184912369825 Y92.46380492760986 I0.32512065024130044 J0.7848615697231394
G3 X2.7813055626111254 Y92.52730505461011 I0 J0.8509017018034036
G3 X3.0581661163322327 Y92.71272542545086 I-0.32512065024130044 J0.7848615697231394
G3 X3.241046482092964 Y92.98958597917195 I-0.601981203962408 J0.601981203962408
G3 X3.3070866141732287 Y93.31470662941327 I-0.7848615697231394 J0.32512065024130044
G1 X3.3070866141732287 Y93.31470662941327
G1 X3.3070866141732287 Y93.31470662941327
G3 X3.2766065532131066 Y93.53314706629413 I-0.8509017018034036 J0
G3 X3.192786385572771 Y93.73888747777497 I-0.8204216408432817 J-0.22098044196088393
G3 X3.0581661163322327 Y93.91414782829565 I-0.7366014732029464 J-0.42418084836169667
G3 X2.8829057658115316 Y94.0487680975362 I-0.601981203962408 J-0.601981203962408
G3 X2.677165354330709 Y94.13512827025654 I-0.42418084836169667 J-0.7366014732029464
G3 X2.456184912369825 Y94.16306832613665 I-0.22098044196088393 J-0.8204216408432817
G3 X2.237744475488951 Y94.13512827025654 I0 J-0.8509017018034036
G3 X2.032004064008128 Y94.0487680975362 I0.22098044196088393 J-0.8204216408432817
G3 X1.8567437134874272 Y93.91414782829565 I0.42418084836169667 J-0.7366014732029464
G3 X1.7195834391668783 Y93.73888747777497 I0.601981203962408 J-0.601981203962408
G3 X1.6357632715265429 Y93.53314706629413 I0.7366014732029464 J-0.42418084836169667
G3 X1.6078232156464312 Y93.31470662941327 I0.8204216408432817 J-0.22098044196088393
G1 X1.6078232156464312 Y93.31470662941327
G1 X1.6078232156464312 Y93.31470662941327
G1 Z-1.4996189992379985 F600
G3 X1.6713233426466854 Y92.98958597917195 I0.8509017018034036 J0 F600
G3 X1.8567437134874272 Y92.71272542545086 I0.7848615697231394 J0.32512065024130044
G3 X2.131064262128524 Y92.52730505461011 I0.601981203962408 J0.601981203962408
G3 X2.456184912369825 Y92.46380492760986 I0.32512065024130044 J0.7848615697231394
G3 X2.7813055626111254 Y92.52730505461011 I0 J0.8509017018034036
G3 X3.0581661163322327 Y92.71272542545086 I-0.32512065024130044 J0.7848615697231394
G3 X3.241046482092964 Y92.98958597917195 I-0.601981203962408 J0.601981203962408
G3 X3.3070866141732287 Y93.31470662941327 I-0.7848615697231394 J0.32512065024130044
G1 X3.3070866141732287 Y93.31470662941327
G1 X3.3070866141732287 Y93.31470662941327
G3 X3.2766065532131066 Y93.53314706629413 I-0.8509017018034036 J0
G3 X3.192786385572771 Y93.73888747777497 I-0.8204216408432817 J-0.22098044196088393
G3 X3.0581661163322327 Y93.91414782829565 I-0.7366014732029464 J-0.42418084836169667
G3 X2.8829057658115316 Y94.0487680975362 I-0.601981203962408 J-0.601981203962408
G3 X2.677165354330709 Y94.13512827025654 I-0.42418084836169667 J-0.7366014732029464
G3 X2.456184912369825 Y94.16306832613665 I-0.22098044196088393 J-0.8204216408432817
G3 X2.237744475488951 Y94.13512827025654 I0 J-0.8509017018034036
G3 X2.032004064008128 Y94.0487680975362 I0.22098044196088393 J-0.8204216408432817
G3 X1.8567437134874272 Y93.91414782829565 I0.42418084836169667 J-0.7366014732029464
G3 X1.7195834391668783 Y93.73888747777497 I0.601981203962408 J-0.601981203962408
G3 X1.6357632715265429 Y93.53314706629413 I0.7366014732029464 J-0.42418084836169667
G3 X1.6078232156464312 Y93.31470662941327 I0.8204216408432817 J-0.22098044196088393
G1 X1.6078232156464312 Y93.31470662941327
G1 X1.6078232156464312 Y93.31470662941327
G1 Z-1.7495554991109983 F600
G3 X1.6713233426466854 Y92.98958597917195 I0.8509017018034036 J0 F600
G3 X1.8567437134874272 Y92.71272542545086 I0.7848615697231394 J0.32512065024130044
G3 X2.131064262128524 Y92.52730505461011 I0.601981203962408 J0.601981203962408
G3 X2.456184912369825 Y92.46380492760986 I0.32512065024130044 J0.7848615697231394
G3 X2.7813055626111254 Y92.52730505461011 I0 J0.8509017018034036
G3 X3.0581661163322327 Y92.71272542545086 I-0.32512065024130044 J0.7848615697231394
G3 X3.241046482092964 Y92.98958597917195 I-0.601981203962408 J0.601981203962408
G3 X3.3070866141732287 Y93.31470662941327 I-0.7848615697231394 J0.32512065024130044
G1 X3.3070866141732287 Y93.31470662941327
G1 X3.3070866141732287 Y93.31470662941327
G3 X3.2766065532131066 Y93.53314706629413 I-0.8509017018034036 J0
G3 X3.192786385572771 Y93.73888747777497 I-0.8204216408432817 J-0.22098044196088393
G3 X3.0581661163322327 Y93.91414782829565 I-0.7366014732029464 J-0.42418084836169667
G3 X2.8829057658115316 Y94.0487680975362 I-0.601981203962408 J-0.601981203962408
G3 X2.677165354330709 Y94.13512827025654 I-0.42418084836169667 J-0.7366014732029464
G3 X2.456184912369825 Y94.16306832613665 I-0.22098044196088393 J-0.8204216408432817
G3 X2.237744475488951 Y94.13512827025654 I0 J-0.8509017018034036
G3 X2.032004064008128 Y94.0487680975362 I0.22098044196088393 J-0.8204216408432817
G3 X1.8567437134874272 Y93.91414782829565 I0.42418084836169667 J-0.7366014732029464
G3 X1.7195834391668783 Y93.73888747777497 I0.601981203962408 J-0.601981203962408
G3 X1.6357632715265429 Y93.53314706629413 I0.7366014732029464 J-0.42418084836169667
G3 X1.6078232156464312 Y93.31470662941327 I0.8204216408432817 J-0.22098044196088393
G1 X1.6078232156464312 Y93.31470662941327
G1 X1.6078232156464312 Y93.31470662941327
G1 Z-1.9994919989839979 F600
G3 X1.6713233426466854 Y92.98958597917195 I0.8509017018034036 J0 F600
G3 X1.8567437134874272 Y92.71272542545086 I0.7848615697231394 J0.32512065024130044
G3 X2.131064262128524 Y92.52730505461011 I0.601981203962408 J0.601981203962408
G3 X2.456184912369825 Y92.46380492760986 I0.32512065024130044 J0.7848615697231394
G3 X2.7813055626111254 Y92.52730505461011 I0 J0.8509017018034036
G3 X3.0581661163322327 Y92.71272542545086 I-0.32512065024130044 J0.7848615697231394
G3 X3.241046482092964 Y92.98958597917195 I-0.601981203962408 J0.601981203962408
G3 X3.3070866141732287 Y93.31470662941327 I-0.7848615697231394 J0.32512065024130044
G1 X3.3070866141732287 Y93.31470662941327
G1 X3.3070866141732287 Y93.31470662941327
G3 X3.2766065532131066 Y93.53314706629413 I-0.8509017018034036 J0
G3 X3.192786385572771 Y93.73888747777497 I-0.8204216408432817 J-0.22098044196088393
G3 X3.0581661163322327 Y93.91414782829565 I-0.7366014732029464 J-0.42418084836169667
G3 X2.8829057658115316 Y94.0487680975362 I-0.601981203962408 J-0.601981203962408
G3 X2.677165354330709 Y94.13512827025654 I-0.42418084836169667 J-0.7366014732029464
G3 X2.456184912369825 Y94.16306832613665 I-0.22098044196088393 J-0.8204216408432817
G3 X2.237744475488951 Y94.13512827025654 I0 J-0.8509017018034036
G3 X2.032004064008128 Y94.0487680975362 I0.22098044196088393 J-0.8204216408432817
G3 X1.8567437134874272 Y93.91414782829565 I0.42418084836169667 J-0.7366014732029464
G3 X1.7195834391668783 Y93.73888747777497 I0.601981203962408 J-0.601981203962408
G3 X1.6357632715265429 Y93.53314706629413 I0.7366014732029464 J-0.42418084836169667
G3 X1.6078232156464312 Y93.31470662941327 I0.8204216408432817 J-0.22098044196088393
G1 X1.6078232156464312 Y93.31470662941327
G1 X1.6078232156464312 Y93.31470662941327
G1 Z-2.249428498856998 F600
G3 X1.6713233426466854 Y92.98958597917195 I0.8509017018034036 J0 F600
G3 X1.8567437134874272 Y92.71272542545086 I0.7848615697231394 J0.32512065024130044
G3 X2.131064262128524 Y92.52730505461011 I0.601981203962408 J0.601981203962408
G3 X2.456184912369825 Y92.46380492760986 I0.32512065024130044 J0.7848615697231394
G3 X2.7813055626111254 Y92.52730505461011 I0 J0.8509017018034036
G3 X3.0581661163322327 Y92.71272542545086 I-0.32512065024130044 J0.7848615697231394
G3 X3.241046482092964 Y92.98958597917195 I-0.601981203962408 J0.601981203962408
G3 X3.3070866141732287 Y93.31470662941327 I-0.7848615697231394 J0.32512065024130044
G1 X3.3070866141732287 Y93.31470662941327
G1 X3.3070866141732287 Y93.31470662941327
G3 X3.2766065532131066 Y93.53314706629413 I-0.8509017018034036 J0
G3 X3.192786385572771 Y93.73888747777497 I-0.8204216408432817 J-0.22098044196088393
G3 X3.0581661163322327 Y93.91414782829565 I-0.7366014732029464 J-0.42418084836169667
G3 X2.8829057658115316 Y94.0487680975362 I-0.601981203962408 J-0.601981203962408
G3 X2.677165354330709 Y94.13512827025654 I-0.42418084836169667 J-0.7366014732029464
G3 X2.456184912369825 Y94.16306832613665 I-0.22098044196088393 J-0.8204216408432817
G3 X2.237744475488951 Y94.13512827025654 I0 J-0.8509017018034036
G3 X2.032004064008128 Y94.0487680975362 I0.22098044196088393 J-0.8204216408432817
G3 X1.8567437134874272 Y93.91414782829565 I0.42418084836169667 J-0.7366014732029464
G3 X1.7195834391668783 Y93.73888747777497 I0.601981203962408 J-0.601981203962408
G3 X1.6357632715265429 Y93.53314706629413 I0.7366014732029464 J-0.42418084836169667
G3 X1.6078232156464312 Y93.31470662941327 I0.8204216408432817 J-0.22098044196088393
G1 X1.6078232156464312 Y93.31470662941327
G1 X1.6078232156464312 Y93.31470662941327
G1 Z-2.4993649987299973 F600
G3 X1.6713233426466854 Y92.98958597917195 I0.8509017018034036 J0 F600
G3 X1.8567437134874272 Y92.71272542545086 I0.7848615697231394 J0.32512065024130044
G3 X2.131064262128524 Y92.52730505461011 I0.601981203962408 J0.601981203962408
G3 X2.456184912369825 Y92.46380492760986 I0.32512065024130044 J0.7848615697231394
G3 X2.7813055626111254 Y92.52730505461011 I0 J0.8509017018034036
G3 X3.0581661163322327 Y92.71272542545086 I-0.32512065024130044 J0.7848615697231394
G3 X3.241046482092964 Y92.98958597917195 I-0.601981203962408 J0.601981203962408
G3 X3.3070866141732287 Y93.31470662941327 I-0.7848615697231394 J0.32512065024130044
G1 X3.3070866141732287 Y93.31470662941327
G1 X3.3070866141732287 Y93.31470662941327
G3 X3.2766065532131066 Y93.53314706629413 I-0.8509017018034036 J0
G3 X3.192786385572771 Y93.73888747777497 I-0.8204216408432817 J-0.22098044196088393
G3 X3.0581661163322327 Y93.91414782829565 I-0.7366014732029464 J-0.42418084836169667
G3 X2.8829057658115316 Y94.0487680975362 I-0.601981203962408 J-0.601981203962408
G3 X2.677165354330709 Y94.13512827025654 I-0.42418084836169667 J-0.7366014732029464
G3 X2.456184912369825 Y94.16306832613665 I-0.22098044196088393 J-0.8204216408432817
G3 X2.237744475488951 Y94.13512827025654 I0 J-0.8509017018034036
G3 X2.032004064008128 Y94.0487680975362 I0.22098044196088393 J-0.8204216408432817
G3 X1.8567437134874272 Y93.91414782829565 I0.42418084836169667 J-0.7366014732029464
G3 X1.7195834391668783 Y93.73888747777497 I0.601981203962408 J-0.601981203962408
G3 X1.6357632715265429 Y93.53314706629413 I0.7366014732029464 J-0.42418084836169667
G3 X1.6078232156464312 Y93.31470662941327 I0.8204216408432817 J-0.22098044196088393
G1 X1.6078232156464312 Y93.31470662941327
G1 X1.6078232156464312 Y93.31470662941327
G1 Z-2.749301498602997 F600
G3 X1.6713233426466854 Y92.98958597917195 I0.8509017018034036 J0 F600
G3 X1.8567437134874272 Y92.71272542545086 I0.7848615697231394 J0.32512065024130044
G3 X2.131064262128524 Y92.52730505461011 I0.601981203962408 J0.601981203962408
G3 X2.456184912369825 Y92.46380492760986 I0.32512065024130044 J0.7848615697231394
G3 X2.7813055626111254 Y92.52730505461011 I0 J0.8509017018034036
G3 X3.0581661163322327 Y92.71272542545086 I-0.32512065024130044 J0.7848615697231394
G3 X3.241046482092964 Y92.98958597917195 I-0.601981203962408 J0.601981203962408
G3 X3.3070866141732287 Y93.31470662941327 I-0.7848615697231394 J0.32512065024130044
G1 X3.3070866141732287 Y93.31470662941327
G1 X3.3070866141732287 Y93.31470662941327
G3 X3.2766065532131066 Y93.53314706629413 I-0.8509017018034036 J0
G3 X3.192786385572771 Y93.73888747777497 I-0.8204216408432817 J-0.22098044196088393
G3 X3.0581661163322327 Y93.91414782829565 I-0.7366014732029464 J-0.42418084836169667
G3 X2.8829057658115316 Y94.0487680975362 I-0.601981203962408 J-0.601981203962408
G3 X2.677165354330709 Y94.13512827025654 I-0.42418084836169667 J-0.7366014732029464
G3 X2.456184912369825 Y94.16306832613665 I-0.22098044196088393 J-0.8204216408432817
G3 X2.237744475488951 Y94.13512827025654 I0 J-0.8509017018034036
G3 X2.032004064008128 Y94.0487680975362 I0.22098044196088393 J-0.8204216408432817
G3 X1.8567437134874272 Y93.91414782829565 I0.42418084836169667 J-0.7366014732029464
G3 X1.7195834391668783 Y93.73888747777497 I0.601981203962408 J-0.601981203962408
G3 X1.6357632715265429 Y93.53314706629413 I0.7366014732029464 J-0.42418084836169667
G3 X1.6078232156464312 Y93.31470662941327 I0.8204216408432817 J-0.22098044196088393
G1 X1.6078232156464312 Y93.31470662941327
G1 X1.6078232156464312 Y93.31470662941327
G1 Z-2.999237998475997 F600
G3 X1.6713233426466854 Y92.98958597917195 I0.8509017018034036 J0 F600
G3 X1.8567437134874272 Y92.71272542545086 I0.7848615697231394 J0.32512065024130044
G3 X2.131064262128524 Y92.52730505461011 I0.601981203962408 J0.601981203962408
G3 X2.456184912369825 Y92.46380492760986 I0.32512065024130044 J0.7848615697231394
G3 X2.7813055626111254 Y92.52730505461011 I0 J0.8509017018034036
G3 X3.0581661163322327 Y92.71272542545086 I-0.32512065024130044 J0.7848615697231394
G3 X3.241046482092964 Y92.98958597917195 I-0.601981203962408 J0.601981203962408
G3 X3.3070866141732287 Y93.31470662941327 I-0.7848615697231394 J0.32512065024130044
G1 X3.3070866141732287 Y93.31470662941327
G1 X3.3070866141732287 Y93.31470662941327
G3 X3.2766065532131066 Y93.53314706629413 I-0.8509017018034036 J0
G3 X3.192786385572771 Y93.73888747777497 I-0.8204216408432817 J-0.22098044196088393
G3 X3.0581661163322327 Y93.91414782829565 I-0.7366014732029464 J-0.42418084836169667
G3 X2.8829057658115316 Y94.0487680975362 I-0.601981203962408 J-0.601981203962408
G3 X2.677165354330709 Y94.13512827025654 I-0.42418084836169667 J-0.7366014732029464
G3 X2.456184912369825 Y94.16306832613665 I-0.22098044196088393 J-0.8204216408432817
G3 X2.237744475488951 Y94.13512827025654 I0 J-0.8509017018034036
G3 X2.032004064008128 Y94.0487680975362 I0.22098044196088393 J-0.8204216408432817
G3 X1.8567437134874272 Y93.91414782829565 I0.42418084836169667 J-0.7366014732029464
G3 X1.7195834391668783 Y93.73888747777497 I0.601981203962408 J-0.601981203962408
G3 X1.6357632715265429 Y93.53314706629413 I0.7366014732029464 J-0.42418084836169667
G3 X1.6078232156464312 Y93.31470662941327 I0.8204216408432817 J-0.22098044196088393
G1 X1.6078232156464312 Y93.31470662941327
G1 X1.6078232156464312 Y93.31470662941327
G1 Z-3 F600
G3 X1.6713233426466854 Y92.98958597917195 I0.8509017018034036 J0 F600
G3 X1.8567437134874272 Y92.71272542545086 I0.7848615697231394 J0.32512065024130044
G3 X2.131064262128524 Y92.52730505461011 I0.601981203962408 J0.601981203962408
G3 X2.456184912369825 Y92.46380492760986 I0.32512065024130044 J0.7848615697231394
G3 X2.7813055626111254 Y92.52730505461011 I0 J0.8509017018034036
G3 X3.0581661163322327 Y92.71272542545086 I-0.32512065024130044 J0.7848615697231394
G3 X3.241046482092964 Y92.98958597917195 I-0.601981203962408 J0.601981203962408
G3 X3.3070866141732287 Y93.31470662941327 I-0.7848615697231394 J0.32512065024130044
G1 X3.3070866141732287 Y93.31470662941327
G1 X3.3070866141732287 Y93.31470662941327
G3 X3.2766065532131066 Y93.53314706629413 I-0.8509017018034036 J0
G3 X3.192786385572771 Y93.73888747777497 I-0.8204216408432817 J-0.22098044196088393
G3 X3.0581661163322327 Y93.91414782829565 I-0.7366014732029464 J-0.42418084836169667
G3 X2.8829057658115316 Y94.0487680975362 I-0.601981203962408 J-0.601981203962408
G3 X2.677165354330709 Y94.13512827025654 I-0.42418084836169667 J-0.7366014732029464
G3 X2.456184912369825 Y94.16306832613665 I-0.22098044196088393 J-0.8204216408432817
G3 X2.237744475488951 Y94.13512827025654 I0 J-0.8509017018034036
G3 X2.032004064008128 Y94.0487680975362 I0.22098044196088393 J-0.8204216408432817
G3 X1.8567437134874272 Y93.91414782829565 I0.42418084836169667 J-0.7366014732029464
G3 X1.7195834391668783 Y93.73888747777497 I0.601981203962408 J-0.601981203962408
G3 X1.6357632715265429 Y93.53314706629413 I0.7366014732029464 J-0.42418084836169667
G3 X1.6078232156464312 Y93.31470662941327 I0.8204216408432817 J-0.22098044196088393
G1 X1.6078232156464312 Y93.31470662941327
G1 X1.6078232156464312 Y93.31470662941327
G0 Z3
G0 X32.72186944373889 Y2.509779019558039
G1 Z-0.24993649987299973 F600
G3 X32.786385572771145 Y2.1844043688087376 I0.8509017018034036 J0 F600
G3 X32.97180594361188 Y1.9100838201676404 I0.7848615697231394 J0.32512065024130044
G3 X33.246126492252984 Y1.7246634493268986 I0.601981203962408 J0.601981203962408
G3 X33.571247142494286 Y1.6586233172466345 I0.32512065024130044 J0.7848615697231394
G3 X33.89636779273558 Y1.7246634493268986 I0 J0.8509017018034036
G3 X34.173228346456696 Y1.9100838201676404 I-0.32512065024130044 J0.7848615697231394
G3 X34.35610871221742 Y2.1844043688087376 I-0.601981203962408 J0.601981203962408
G3 X34.42214884429769 Y2.509525019050038 I-0.7848615697231394 J0.32512065024130044
G3 X34.35610871221742 Y2.8346456692913384 I-0.8509017018034036 J0
G3 X34.173228346456696 Y3.111506223012446 I-0.7848615697231394 J-0.32512065024130044
G3 X33.89636779273558 Y3.2943865887731776 I-0.601981203962408 J-0.601981203962408
G3 X33.571247142494286 Y3.3604267208534417 I-0.32512065024130044 J-0.7848615697231394
G3 X33.246126492252984 Y3.2943865887731776 I0 J-0.8509017018034036
G3 X32.97180594361188 Y3.111506223012446 I0.32512065024130044 J-0.7848615697231394
G3 X32.786385572771145 Y2.8346456692913384 I0.601981203962408 J-0.601981203962408
G3 X32.72288544577089 Y2.509525019050038 I0.7848615697231394 J-0.32512065024130044
G1 Z-0.49987299974599947 F600
G3 X32.786385572771145 Y2.1844043688087376 I0.8509017018034036 J0 F600
G3 X32.97180594361188 Y1.9100838201676404 I0.7848615697231394 J0.32512065024130044
G3 X33.246126492252984 Y1.7246634493268986 I0.601981203962408 J0.601981203962408
G3 X33.571247142494286 Y1.6586233172466345 I0.32512065024130044 J0.7848615697231394
G3 X33.89636779273558 Y1.7246634493268986 I0 J0.8509017018034036
G3 X34.173228346456696 Y1.9100838201676404 I-0.32512065024130044 J0.7848615697231394
G3 X34.35610871221742 Y2.1844043688087376 I-0.601981203962408 J0.601981203962408
G3 X34.42214884429769 Y2.509525019050038 I-0.7848615697231394 J0.32512065024130044
G3 X34.35610871221742 Y2.8346456692913384 I-0.8509017018034036 J0
G3 X34.173228346456696 Y3.111506223012446 I-0.7848615697231394 J-0.32512065024130044
G3 X33.89636779273558 Y3.2943865887731776 I-0.601981203962408 J-0.601981203962408
G3 X33.571247142494286 Y3.3604267208534417 I-0.32512065024130044 J-0.7848615697231394
G3 X33.246126492252984 Y3.2943865887731776 I0 J-0.8509017018034036
G3 X32.97180594361188 Y3.111506223012446 I0.32512065024130044 J-0.7848615697231394
G3 X32.786385572771145 Y2.8346456692913384 I0.601981203962408 J-0.601981203962408
G3 X32.72288544577089 Y2.509525019050038 I0.7848615697231394 J-0.32512065024130044
G1 Z-0.7498094996189992 F600
G3 X32.786385572771145 Y2.1844043688087376 I0.8509017018034036 J0 F600
G3 X32.97180594361188 Y1.9100838201676404 I0.7848615697231394 J0.32512065024130044
G3 X33.246126492252984 Y1.7246634493268986 I0.601981203962408 J0.601981203962408
G3 X33.571247142494286 Y1.6586233172466345 I0.32512065024130044 J0.7848615697231394
G3 X33.89636779273558 Y1.7246634493268986 I0 J0.8509017018034036
G3 X34.173228346456696 Y1.9100838201676404 I-0.32512065024130044 J0.7848615697231394
G3 X34.35610871221742 Y2.1844043688087376 I-0.601981203962408 J0.601981203962408
G3 X34.42214884429769 Y2.509525019050038 I-0.7848615697231394 J0.32512065024130044
G3 X34.35610871221742 Y2.8346456692913384 I-0.8509017018034036 J0
G3 X34.173228346456696 Y3.111506223012446 I-0.7848615697231394 J-0.32512065024130044
G3 X33.89636779273558 Y3.2943865887731776 I-0.601981203962408 J-0.601981203962408
G3 X33.571247142494286 Y3.3604267208534417 I-0.32512065024130044 J-0.7848615697231394
G3 X33.246126492252984 Y3.2943865887731776 I0 J-0.8509017018034036
G3 X32.97180594361188 Y3.111506223012446 I0.32512065024130044 J-0.7848615697231394
G3 X32.786385572771145 Y2.8346456692913384 I0.601981203962408 J-0.601981203962408
G3 X32.72288544577089 Y2.509525019050038 I0.7848615697231394 J-0.32512065024130044
G1 Z-0.9997459994919989 F600
G3 X32.786385572771145 Y2.1844043688087376 I0.8509017018034036 J0 F600
G3 X32.97180594361188 Y1.9100838201676404 I0.7848615697231394 J0.32512065024130044
G3 X33.246126492252984 Y1.7246634493268986 I0.601981203962408 J0.601981203962408
G3 X33.571247142494286 Y1.6586233172466345 I0.32512065024130044 J0.7848615697231394
G3 X33.89636779273558 Y1.7246634493268986 I0 J0.8509017018034036
G3 X34.173228346456696 Y1.9100838201676404 I-0.32512065024130044 J0.7848615697231394
G3 X34.35610871221742 Y2.1844043688087376 I-0.601981203962408 J0.601981203962408
G3 X34.42214884429769 Y2.509525019050038 I-0.7848615697231394 J0.32512065024130044
G3 X34.35610871221742 Y2.8346456692913384 I-0.8509017018034036 J0
G3 X34.173228346456696 Y3.111506223012446 I-0.7848615697231394 J-0.32512065024130044
G3 X33.89636779273558 Y3.2943865887731776 I-0.601981203962408 J-0.601981203962408
G3 X33.571247142494286 Y3.3604267208534417 I-0.32512065024130044 J-0.7848615697231394
G3 X33.246126492252984 Y3.2943865887731776 I0 J-0.8509017018034036
G3 X32.97180594361188 Y3.111506223012446 I0.32512065024130044 J-0.7848615697231394
G3 X32.786385572771145 Y2.8346456692913384 I0.601981203962408 J-0.601981203962408
G3 X32.72288544577089 Y2.509525019050038 I0.7848615697231394 J-0.32512065024130044
G1 Z-1.2496824993649986 F600
G3 X32.786385572771145 Y2.1844043688087376 I0.8509017018034036 J0 F600
G3 X32.97180594361188 Y1.9100838201676404 I0.7848615697231394 J0.32512065024130044
G3 X33.246126492252984 Y1.7246634493268986 I0.601981203962408 J0.601981203962408
G3 X33.571247142494286 Y1.6586233172466345 I0.32512065024130044 J0.7848615697231394
G3 X33.89636779273558 Y1.7246634493268986 I0 J0.8509017018034036
G3 X34.173228346456696 Y1.9100838201676404 I-0.32512065024130044 J0.7848615697231394
G3 X34.35610871221742 Y2.1844043688087376 I-0.601981203962408 J0.601981203962408
G3 X34.42214884429769 Y2.509525019050038 I-0.7848615697231394 J0.32512065024130044
G3 X34.35610871221742 Y2.8346456692913384 I-0.8509017018034036 J0
G3 X34.173228346456696 Y3.111506223012446 I-0.7848615697231394 J-0.32512065024130044
G3 X33.89636779273558 Y3.2943865887731776 I-0.601981203962408 J-0.601981203962408
G3 X33.571247142494286 Y3.3604267208534417 I-0.32512065024130044 J-0.7848615697231394
G3 X33.246126492252984 Y3.2943865887731776 I0 J-0.8509017018034036
G3 X32.97180594361188 Y3.111506223012446 I0.32512065024130044 J-0.7848615697231394
G3 X32.786385572771145 Y2.8346456692913384 I0.601981203962408 J-0.601981203962408
G3 X32.72288544577089 Y2.509525019050038 I0.7848615697231394 J-0.32512065024130044
G1 Z-1.4996189992379985 F600
G3 X32.786385572771145 Y2.1844043688087376 I0.8509017018034036 J0 F600
G3 X32.97180594361188 Y1.9100838201676404 I0.7848615697231394 J0.32512065024130044
G3 X33.246126492252984 Y1.7246634493268986 I0.601981203962408 J0.601981203962408
G3 X33.571247142494286 Y1.6586233172466345 I0.32512065024130044 J0.7848615697231394
G3 X33.89636779273558 Y1.7246634493268986 I0 J0.8509017018034036
G3 X34.173228346456696 Y1.9100838201676404 I-0.32512065024130044 J0.7848615697231394
G3 X34.35610871221742 Y2.1844043688087376 I-0.601981203962408 J0.601981203962408
G3 X34.42214884429769 Y2.509525019050038 I-0.7848615697231394 J0.32512065024130044
G3 X34.35610871221742 Y2.8346456692913384 I-0.8509017018034036 J0
G3 X34.173228346456696 Y3.111506223012446 I-0.7848615697231394 J-0.32512065024130044
G3 X33.89636779273558 Y3.2943865887731776 I-0.601981203962408 J-0.601981203962408
G3 X33.571247142494286 Y3.3604267208534417 I-0.32512065024130044 J-0.7848615697231394
G3 X33.246126492252984 Y3.2943865887731776 I0 J-0.8509017018034036
G3 X32.97180594361188 Y3.111506223012446 I0.32512065024130044 J-0.7848615697231394
G3 X32.786385572771145 Y2.8346456692913384 I0.601981203962408 J-0.601981203962408
G3 X32.72288544577089 Y2.509525019050038 I0.7848615697231394 J-0.32512065024130044
G1 Z-1.7495554991109983 F600
G3 X32.786385572771145 Y2.1844043688087376 I0.8509017018034036 J0 F600
G3 X32.97180594361188 Y1.9100838201676404 I0.7848615697231394 J0.32512065024130044
G3 X33.246126492252984 Y1.7246634493268986 I0.601981203962408 J0.601981203962408
G3 X33.571247142494286 Y1.6586233172466345 I0.32512065024130044 J0.7848615697231394
G3 X33.89636779273558 Y1.7246634493268986 I0 J0.8509017018034036
G3 X34.173228346456696 Y1.9100838201676404 I-0.32512065024130044 J0.7848615697231394
G3 X34.35610871221742 Y2.1844043688087376 I-0.601981203962408 J0.601981203962408
G3 X34.42214884429769 Y2.509525019050038 I-0.7848615697231394 J0.32512065024130044
G3 X34.35610871221742 Y2.8346456692913384 I-0.8509017018034036 J0
G3 X34.173228346456696 Y3.111506223012446 I-0.7848615697231394 J-0.32512065024130044
G3 X33.89636779273558 Y3.2943865887731776 I-0.601981203962408 J-0.601981203962408
G3 X33.571247142494286 Y3.3604267208534417 I-0.32512065024130044 J-0.7848615697231394
G3 X33.246126492252984 Y3.2943865887731776 I0 J-0.8509017018034036
G3 X32.97180594361188 Y3.111506223012446 I0.32512065024130044 J-0.7848615697231394
G3 X32.786385572771145 Y2.8346456692913384 I0.601981203962408 J-0.601981203962408
G3 X32.72288544577089 Y2.509525019050038 I0.7848615697231394 J-0.32512065024130044
G1 Z-1.9994919989839979 F600
G3 X32.786385572771145 Y2.1844043688087376 I0.8509017018034036 J0 F600
G3 X32.97180594361188 Y1.9100838201676404 I0.7848615697231394 J0.32512065024130044
G3 X33.246126492252984 Y1.7246634493268986 I0.601981203962408 J0.601981203962408
G3 X33.571247142494286 Y1.6586233172466345 I0.32512065024130044 J0.7848615697231394
G3 X33.89636779273558 Y1.7246634493268986 I0 J0.8509017018034036
G3 X34.173228346456696 Y1.9100838201676404 I-0.32512065024130044 J0.7848615697231394
G3 X34.35610871221742 Y2.1844043688087376 I-0.601981203962408 J0.601981203962408
G3 X34.42214884429769 Y2.509525019050038 I-0.7848615697231394 J0.32512065024130044
G3 X34.35610871221742 Y2.8346456692913384 I-0.8509017018034036 J0
G3 X34.173228346456696 Y3.111506223012446 I-0.7848615697231394 J-0.32512065024130044
G3 X33.89636779273558 Y3.2943865887731776 I-0.601981203962408 J-0.601981203962408
G3 X33.571247142494286 Y3.3604267208534417 I-0.32512065024130044 J-0.7848615697231394
G3 X33.246126492252984 Y3.2943865887731776 I0 J-0.8509017018034036
G3 X32.97180594361188 Y3.111506223012446 I0.32512065024130044 J-0.7848615697231394
G3 X32.786385572771145 Y2.8346456692913384 I0.601981203962408 J-0.601981203962408
G3 X32.72288544577089 Y2.509525019050038 I0.7848615697231394 J-0.32512065024130044
G1 Z-2.249428498856998 F600
G3 X32.786385572771145 Y2.1844043688087376 I0.8509017018034036 J0 F600
G3 X32.97180594361188 Y1.9100838201676404 I0.7848615697231394 J0.32512065024130044
G3 X33.246126492252984 Y1.7246634493268986 I0.601981203962408 J0.601981203962408
G3 X33.571247142494286 Y1.6586233172466345 I0.32512065024130044 J0.7848615697231394
G3 X33.89636779273558 Y1.7246634493268986 I0 J0.8509017018034036
G3 X34.173228346456696 Y1.9100838201676404 I-0.32512065024130044 J0.7848615697231394
G3 X34.35610871221742 Y2.1844043688087376 I-0.601981203962408 J0.601981203962408
G3 X34.42214884429769 Y2.509525019050038 I-0.7848615697231394 J0.32512065024130044
G3 X34.35610871221742 Y2.8346456692913384 I-0.8509017018034036 J0
G3 X34.173228346456696 Y3.111506223012446 I-0.7848615697231394 J-0.32512065024130044
G3 X33.89636779273558 Y3.2943865887731776 I-0.601981203962408 J-0.601981203962408
G3 X33.571247142494286 Y3.3604267208534417 I-0.32512065024130044 J-0.7848615697231394
G3 X33.246126492252984 Y3.2943865887731776 I0 J-0.8509017018034036
G3 X32.97180594361188 Y3.111506223012446 I0.32512065024130044 J-0.7848615697231394
G3 X32.786385572771145 Y2.8346456692913384 I0.601981203962408 J-0.601981203962408
G3 X32.72288544577089 Y2.509525019050038 I0.7848615697231394 J-0.32512065024130044
G1 Z-2.4993649987299973 F600
G3 X32.786385572771145 Y2.1844043688087376 I0.8509017018034036 J0 F600
G3 X32.97180594361188 Y1.9100838201676404 I0.7848615697231394 J0.32512065024130044
G3 X33.246126492252984 Y1.7246634493268986 I0.601981203962408 J0.601981203962408
G3 X33.571247142494286 Y1.6586233172466345 I0.32512065024130044 J0.7848615697231394
G3 X33.89636779273558 Y1.7246634493268986 I0 J0.8509017018034036
G3 X34.173228346456696 Y1.9100838201676404 I-0.32512065024130044 J0.7848615697231394
G3 X34.35610871221742 Y2.1844043688087376 I-0.601981203962408 J0.601981203962408
G3 X34.42214884429769 Y2.509525019050038 I-0.7848615697231394 J0.32512065024130044
G3 X34.35610871221742 Y2.8346456692913384 I-0.8509017018034036 J0
G3 X34.173228346456696 Y3.111506223012446 I-0.7848615697231394 J-0.32512065024130044
G3 X33.89636779273558 Y3.2943865887731776 I-0.601981203962408 J-0.601981203962408
G3 X33.571247142494286 Y3.3604267208534417 I-0.32512065024130044 J-0.7848615697231394
G3 X33.246126492252984 Y3.2943865887731776 I0 J-0.8509017018034036
G3 X32.97180594361188 Y3.111506223012446 I0.32512065024130044 J-0.7848615697231394
G3 X32.786385572771145 Y2.8346456692913384 I0.601981203962408 J-0.601981203962408
G3 X32.72288544577089 Y2.509525019050038 I0.7848615697231394 J-0.32512065024130044
G1 Z-2.749301498602997 F600
G3 X32.786385572771145 Y2.1844043688087376 I0.8509017018034036 J0 F600
G3 X32.97180594361188 Y1.9100838201676404 I0.7848615697231394 J0.32512065024130044
G3 X33.246126492252984 Y1.7246634493268986 I0.601981203962408 J0.601981203962408
G3 X33.571247142494286 Y1.6586233172466345 I0.32512065024130044 J0.7848615697231394
G3 X33.89636779273558 Y1.7246634493268986 I0 J0.8509017018034036
G3 X34.173228346456696 Y1.9100838201676404 I-0.32512065024130044 J0.7848615697231394
G3 X34.35610871221742 Y2.1844043688087376 I-0.601981203962408 J0.601981203962408
G3 X34.42214884429769 Y2.509525019050038 I-0.7848615697231394 J0.32512065024130044
G3 X34.35610871221742 Y2.8346456692913384 I-0.8509017018034036 J0
G3 X34.173228346456696 Y3.111506223012446 I-0.7848615697231394 J-0.32512065024130044
G3 X33.89636779273558 Y3.2943865887731776 I-0.601981203962408 J-0.601981203962408
G3 X33.571247142494286 Y3.3604267208534417 I-0.32512065024130044 J-0.7848615697231394
G3 X33.246126492252984 Y3.2943865887731776 I0 J-0.8509017018034036
G3 X32.97180594361188 Y3.111506223012446 I0.32512065024130044 J-0.7848615697231394
G3 X32.786385572771145 Y2.8346456692913384 I0.601981203962408 J-0.601981203962408
G3 X32.72288544577089 Y2.509525019050038 I0.7848615697231394 J-0.32512065024130044
G1 Z-2.999237998475997 F600
G3 X32.786385572771145 Y2.1844043688087376 I0.8509017018034036 J0 F600
G3 X32.97180594361188 Y1.9100838201676404 I0.7848615697231394 J0.32512065024130044
G3 X33.246126492252984 Y1.7246634493268986 I0.601981203962408 J0.601981203962408
G3 X33.571247142494286 Y1.6586233172466345 I0.32512065024130044 J0.7848615697231394
G3 X33.89636779273558 Y1.7246634493268986 I0 J0.8509017018034036
G3 X34.173228346456696 Y1.9100838201676404 I-0.32512065024130044 J0.7848615697231394
G3 X34.35610871221742 Y2.1844043688087376 I-0.601981203962408 J0.601981203962408
G3 X34.42214884429769 Y2.509525019050038 I-0.7848615697231394 J0.32512065024130044
G3 X34.35610871221742 Y2.8346456692913384 I-0.8509017018034036 J0
G3 X34.173228346456696 Y3.111506223012446 I-0.7848615697231394 J-0.32512065024130044
G3 X33.89636779273558 Y3.2943865887731776 I-0.601981203962408 J-0.601981203962408
G3 X33.571247142494286 Y3.3604267208534417 I-0.32512065024130044 J-0.7848615697231394
G3 X33.246126492252984 Y3.2943865887731776 I0 J-0.8509017018034036
G3 X32.97180594361188 Y3.111506223012446 I0.32512065024130044 J-0.7848615697231394
G3 X32.786385572771145 Y2.8346456692913384 I0.601981203962408 J-0.601981203962408
G3 X32.72288544577089 Y2.509525019050038 I0.7848615697231394 J-0.32512065024130044
G1 Z-3 F600
G3 X32.786385572771145 Y2.1844043688087376 I0.8509017018034036 J0 F600
G3 X32.97180594361188 Y1.9100838201676404 I0.7848615697231394 J0.32512065024130044
G3 X33.246126492252984 Y1.7246634493268986 I0.601981203962408 J0.601981203962408
G3 X33.571247142494286 Y1.6586233172466345 I0.32512065024130044 J0.7848615697231394
G3 X33.89636779273558 Y1.7246634493268986 I0 J0.8509017018034036
G3 X34.173228346456696 Y1.9100838201676404 I-0.32512065024130044 J0.7848615697231394
G3 X34.35610871221742 Y2.1844043688087376 I-0.601981203962408 J0.601981203962408
G3 X34.42214884429769 Y2.509525019050038 I-0.7848615697231394 J0.32512065024130044
G3 X34.35610871221742 Y2.8346456692913384 I-0.8509017018034036 J0
G3 X34.173228346456696 Y3.111506223012446 I-0.7848615697231394 J-0.32512065024130044
G3 X33.89636779273558 Y3.2943865887731776 I-0.601981203962408 J-0.601981203962408
G3 X33.571247142494286 Y3.3604267208534417 I-0.32512065024130044 J-0.7848615697231394
G3 X33.246126492252984 Y3.2943865887731776 I0 J-0.8509017018034036
G3 X32.97180594361188 Y3.111506223012446 I0.32512065024130044 J-0.7848615697231394
G3 X32.786385572771145 Y2.8346456692913384 I0.601981203962408 J-0.601981203962408
G3 X32.72288544577089 Y2.509525019050038 I0.7848615697231394 J-0.32512065024130044
G0 Z3
G0 X1.6068072136144271 Y2.509779019558039
G1 Z-0.24993649987299973 F600
G3 X1.6713233426466854 Y2.1844043688087376 I0.8509017018034036 J0 F600
G3 X1.8567437134874272 Y1.9100838201676404 I0.7848615697231394 J0.32512065024130044
G3 X2.131064262128524 Y1.7246634493268986 I0.601981203962408 J0.601981203962408
G3 X2.456184912369825 Y1.6586233172466345 I0.32512065024130044 J0.7848615697231394
G3 X2.7813055626111254 Y1.7246634493268986 I0 J0.8509017018034036
G3 X3.0581661163322327 Y1.9100838201676404 I-0.32512065024130044 J0.7848615697231394
G3 X3.241046482092964 Y2.1844043688087376 I-0.601981203962408 J0.601981203962408
G3 X3.3070866141732287 Y2.509525019050038 I-0.7848615697231394 J0.32512065024130044
G3 X3.241046482092964 Y2.8346456692913384 I-0.8509017018034036 J0
G3 X3.0581661163322327 Y3.111506223012446 I-0.7848615697231394 J-0.32512065024130044
G3 X2.7813055626111254 Y3.2943865887731776 I-0.601981203962408 J-0.601981203962408
G3 X2.456184912369825 Y3.3604267208534417 I-0.32512065024130044 J-0.7848615697231394
G3 X2.131064262128524 Y3.2943865887731776 I0 J-0.8509017018034036
G3 X1.8567437134874272 Y3.111506223012446 I0.32512065024130044 J-0.7848615697231394
G3 X1.6713233426466854 Y2.8346456692913384 I0.601981203962408 J-0.601981203962408
G3 X1.6078232156464312 Y2.509525019050038 I0.7848615697231394 J-0.32512065024130044
G1 Z-0.49987299974599947 F600
G3 X1.6713233426466854 Y2.1844043688087376 I0.8509017018034036 J0 F600
G3 X1.8567437134874272 Y1.9100838201676404 I0.7848615697231394 J0.32512065024130044
G3 X2.131064262128524 Y1.7246634493268986 I0.601981203962408 J0.601981203962408
G3 X2.456184912369825 Y1.6586233172466345 I0.32512065024130044 J0.7848615697231394
G3 X2.7813055626111254 Y1.7246634493268986 I0 J0.8509017018034036
G3 X3.0581661163322327 Y1.9100838201676404 I-0.32512065024130044 J0.7848615697231394
G3 X3.241046482092964 Y2.1844043688087376 I-0.601981203962408 J0.601981203962408
G3 X3.3070866141732287 Y2.509525019050038 I-0.7848615697231394 J0.32512065024130044
G3 X3.241046482092964 Y2.8346456692913384 I-0.8509017018034036 J0
G3 X3.0581661163322327 Y3.111506223012446 I-0.7848615697231394 J-0.32512065024130044
G3 X2.7813055626111254 Y3.2943865887731776 I-0.601981203962408 J-0.601981203962408
G3 X2.456184912369825 Y3.3604267208534417 I-0.32512065024130044 J-0.7848615697231394
G3 X2.131064262128524 Y3.2943865887731776 I0 J-0.8509017018034036
G3 X1.8567437134874272 Y3.111506223012446 I0.32512065024130044 J-0.7848615697231394
G3 X1.6713233426466854 Y2.8346456692913384 I0.601981203962408 J-0.601981203962408
G3 X1.6078232156464312 Y2.509525019050038 I0.7848615697231394 J-0.32512065024130044
G1 Z-0.7498094996189992 F600
G3 X1.6713233426466854 Y2.1844043688087376 I0.8509017018034036 J0 F600
G3 X1.8567437134874272 Y1.9100838201676404 I0.7848615697231394 J0.32512065024130044
G3 X2.131064262128524 Y1.7246634493268986 I0.601981203962408 J0.601981203962408
G3 X2.456184912369825 Y1.6586233172466345 I0.32512065024130044 J0.7848615697231394
G3 X2.7813055626111254 Y1.7246634493268986 I0 J0.8509017018034036
G3 X3.0581661163322327 Y1.9100838201676404 I-0.32512065024130044 J0.7848615697231394
G3 X3.241046482092964 Y2.1844043688087376 I-0.601981203962408 J0.601981203962408
G3 X3.3070866141732287 Y2.509525019050038 I-0.7848615697231394 J0.32512065024130044
G3 X3.241046482092964 Y2.8346456692913384 I-0.8509017018034036 J0
G3 X3.0581661163322327 Y3.111506223012446 I-0.7848615697231394 J-0.32512065024130044
G3 X2.7813055626111254 Y3.2943865887731776 I-0.601981203962408 J-0.601981203962408
G3 X2.456184912369825 Y3.3604267208534417 I-0.32512065024130044 J-0.7848615697231394
G3 X2.131064262128524 Y3.2943865887731776 I0 J-0.8509017018034036
G3 X1.8567437134874272 Y3.111506223012446 I0.32512065024130044 J-0.7848615697231394
G3 X1.6713233426466854 Y2.8346456692913384 I0.601981203962408 J-0.601981203962408
G3 X1.6078232156464312 Y2.509525019050038 I0.7848615697231394 J-0.32512065024130044
G1 Z-0.9997459994919989 F600
G3 X1.6713233426466854 Y2.1844043688087376 I0.8509017018034036 J0 F600
G3 X1.8567437134874272 Y1.9100838201676404 I0.7848615697231394 J0.32512065024130044
G3 X2.131064262128524 Y1.7246634493268986 I0.601981203962408 J0.601981203962408
G3 X2.456184912369825 Y1.6586233172466345 I0.32512065024130044 J0.7848615697231394
G3 X2.7813055626111254 Y1.7246634493268986 I0 J0.8509017018034036
G3 X3.0581661163322327 Y1.9100838201676404 I-0.32512065024130044 J0.7848615697231394
G3 X3.241046482092964 Y2.1844043688087376 I-0.601981203962408 J0.601981203962408
G3 X3.3070866141732287 Y2.509525019050038 I-0.7848615697231394 J0.32512065024130044
G3 X3.241046482092964 Y2.8346456692913384 I-0.8509017018034036 J0
G3 X3.0581661163322327 Y3.111506223012446 I-0.7848615697231394 J-0.32512065024130044
G3 X2.7813055626111254 Y3.2943865887731776 I-0.601981203962408 J-0.601981203962408
G3 X2.456184912369825 Y3.3604267208534417 I-0.32512065024130044 J-0.7848615697231394
G3 X2.131064262128524 Y3.2943865887731776 I0 J-0.8509017018034036
G3 X1.8567437134874272 Y3.111506223012446 I0.32512065024130044 J-0.7848615697231394
G3 X1.6713233426466854 Y2.8346456692913384 I0.601981203962408 J-0.601981203962408
G3 X1.6078232156464312 Y2.509525019050038 I0.7848615697231394 J-0.32512065024130044
G1 Z-1.2496824993649986 F600
G3 X1.6713233426466854 Y2.1844043688087376 I0.8509017018034036 J0 F600
G3 X1.8567437134874272 Y1.9100838201676404 I0.7848615697231394 J0.32512065024130044
G3 X2.131064262128524 Y1.7246634493268986 I0.601981203962408 J0.601981203962408
G3 X2.456184912369825 Y1.6586233172466345 I0.32512065024130044 J0.7848615697231394
G3 X2.7813055626111254 Y1.7246634493268986 I0 J0.8509017018034036
G3 X3.0581661163322327 Y1.9100838201676404 I-0.32512065024130044 J0.7848615697231394
G3 X3.241046482092964 Y2.1844043688087376 I-0.601981203962408 J0.601981203962408
G3 X3.3070866141732287 Y2.509525019050038 I-0.7848615697231394 J0.32512065024130044
G3 X3.241046482092964 Y2.8346456692913384 I-0.8509017018034036 J0
G3 X3.0581661163322327 Y3.111506223012446 I-0.7848615697231394 J-0.32512065024130044
G3 X2.7813055626111254 Y3.2943865887731776 I-0.601981203962408 J-0.601981203962408
G3 X2.456184912369825 Y3.3604267208534417 I-0.32512065024130044 J-0.7848615697231394
G3 X2.131064262128524 Y3.2943865887731776 I0 J-0.8509017018034036
G3 X1.8567437134874272 Y3.111506223012446 I0.32512065024130044 J-0.7848615697231394
G3 X1.6713233426466854 Y2.8346456692913384 I0.601981203962408 J-0.601981203962408
G3 X1.6078232156464312 Y2.509525019050038 I0.7848615697231394 J-0.32512065024130044
G1 Z-1.4996189992379985 F600
G3 X1.6713233426466854 Y2.1844043688087376 I0.8509017018034036 J0 F600
G3 X1.8567437134874272 Y1.9100838201676404 I0.7848615697231394 J0.32512065024130044
G3 X2.131064262128524 Y1.7246634493268986 I0.601981203962408 J0.601981203962408
G3 X2.456184912369825 Y1.6586233172466345 I0.32512065024130044 J0.7848615697231394
G3 X2.7813055626111254 Y1.7246634493268986 I0 J0.8509017018034036
G3 X3.0581661163322327 Y1.9100838201676404 I-0.32512065024130044 J0.7848615697231394
G3 X3.241046482092964 Y2.1844043688087376 I-0.601981203962408 J0.601981203962408
G3 X3.3070866141732287 Y2.509525019050038 I-0.7848615697231394 J0.32512065024130044
G3 X3.241046482092964 Y2.8346456692913384 I-0.8509017018034036 J0
G3 X3.0581661163322327 Y3.111506223012446 I-0.7848615697231394 J-0.32512065024130044
G3 X2.7813055626111254 Y3.2943865887731776 I-0.601981203962408 J-0.601981203962408
G3 X2.456184912369825 Y3.3604267208534417 I-0.32512065024130044 J-0.7848615697231394
G3 X2.131064262128524 Y3.2943865887731776 I0 J-0.8509017018034036
G3 X1.8567437134874272 Y3.111506223012446 I0.32512065024130044 J-0.7848615697231394
G3 X1.6713233426466854 Y2.8346456692913384 I0.601981203962408 J-0.601981203962408
G3 X1.6078232156464312 Y2.509525019050038 I0.7848615697231394 J-0.32512065024130044
G1 Z-1.7495554991109983 F600
G3 X1.6713233426466854 Y2.1844043688087376 I0.8509017018034036 J0 F600
G3 X1.8567437134874272 Y1.9100838201676404 I0.7848615697231394 J0.32512065024130044
G3 X2.131064262128524 Y1.7246634493268986 I0.601981203962408 J0.601981203962408
G3 X2.456184912369825 Y1.6586233172466345 I0.32512065024130044 J0.7848615697231394
G3 X2.7813055626111254 Y1.7246634493268986 I0 J0.8509017018034036
G3 X3.0581661163322327 Y1.9100838201676404 I-0.32512065024130044 J0.7848615697231394
G3 X3.241046482092964 Y2.1844043688087376 I-0.601981203962408 J0.601981203962408
G3 X3.3070866141732287 Y2.509525019050038 I-0.7848615697231394 J0.32512065024130044
G3 X3.241046482092964 Y2.8346456692913384 I-0.8509017018034036 J0
G3 X3.0581661163322327 Y3.111506223012446 I-0.7848615697231394 J-0.32512065024130044
G3 X2.7813055626111254 Y3.2943865887731776 I-0.601981203962408 J-0.601981203962408
G3 X2.456184912369825 Y3.3604267208534417 I-0.32512065024130044 J-0.7848615697231394
G3 X2.131064262128524 Y3.2943865887731776 I0 J-0.8509017018034036
G3 X1.8567437134874272 Y3.111506223012446 I0.32512065024130044 J-0.7848615697231394
G3 X1.6713233426466854 Y2.8346456692913384 I0.601981203962408 J-0.601981203962408
G3 X1.6078232156464312 Y2.509525019050038 I0.7848615697231394 J-0.32512065024130044
G1 Z-1.9994919989839979 F600
G3 X1.6713233426466854 Y2.1844043688087376 I0.8509017018034036 J0 F600
G3 X1.8567437134874272 Y1.9100838201676404 I0.7848615697231394 J0.32512065024130044
G3 X2.131064262128524 Y1.7246634493268986 I0.601981203962408 J0.601981203962408
G3 X2.456184912369825 Y1.6586233172466345 I0.32512065024130044 J0.7848615697231394
G3 X2.7813055626111254 Y1.7246634493268986 I0 J0.8509017018034036
G3 X3.0581661163322327 Y1.9100838201676404 I-0.32512065024130044 J0.7848615697231394
G3 X3.241046482092964 Y2.1844043688087376 I-0.601981203962408 J0.601981203962408
G3 X3.3070866141732287 Y2.509525019050038 I-0.7848615697231394 J0.32512065024130044
G3 X3.241046482092964 Y2.8346456692913384 I-0.8509017018034036 J0
G3 X3.0581661163322327 Y3.111506223012446 I-0.7848615697231394 J-0.32512065024130044
G3 X2.7813055626111254 Y3.2943865887731776 I-0.601981203962408 J-0.601981203962408
G3 X2.456184912369825 Y3.3604267208534417 I-0.32512065024130044 J-0.7848615697231394
G3 X2.131064262128524 Y3.2943865887731776 I0 J-0.8509017018034036
G3 X1.8567437134874272 Y3.111506223012446 I0.32512065024130044 J-0.7848615697231394
G3 X1.6713233426466854 Y2.8346456692913384 I0.601981203962408 J-0.601981203962408
G3 X1.6078232156464312 Y2.509525019050038 I0.7848615697231394 J-0.32512065024130044
G1 Z-2.249428498856998 F600
G3 X1.6713233426466854 Y2.1844043688087376 I0.8509017018034036 J0 F600
G3 X1.8567437134874272 Y1.9100838201676404 I0.7848615697231394 J0.32512065024130044
G3 X2.131064262128524 Y1.7246634493268986 I0.601981203962408 J0.601981203962408
G3 X2.456184912369825 Y1.6586233172466345 I0.32512065024130044 J0.7848615697231394
G3 X2.7813055626111254 Y1.7246634493268986 I0 J0.8509017018034036
G3 X3.0581661163322327 Y1.9100838201676404 I-0.32512065024130044 J0.7848615697231394
G3 X3.241046482092964 Y2.1844043688087376 I-0.601981203962408 J0.601981203962408
G3 X3.3070866141732287 Y2.509525019050038 I-0.7848615697231394 J0.32512065024130044
G3 X3.241046482092964 Y2.8346456692913384 I-0.8509017018034036 J0
G3 X3.0581661163322327 Y3.111506223012446 I-0.7848615697231394 J-0.32512065024130044
G3 X2.7813055626111254 Y3.2943865887731776 I-0.601981203962408 J-0.601981203962408
G3 X2.456184912369825 Y3.3604267208534417 I-0.32512065024130044 J-0.7848615697231394
G3 X2.131064262128524 Y3.2943865887731776 I0 J-0.8509017018034036
G3 X1.8567437134874272 Y3.111506223012446 I0.32512065024130044 J-0.7848615697231394
G3 X1.6713233426466854 Y2.8346456692913384 I0.601981203962408 J-0.601981203962408
G3 X1.6078232156464312 Y2.509525019050038 I0.7848615697231394 J-0.32512065024130044
G1 Z-2.4993649987299973 F600
G3 X1.6713233426466854 Y2.1844043688087376 I0.8509017018034036 J0 F600
G3 X1.8567437134874272 Y1.9100838201676404 I0.7848615697231394 J0.32512065024130044
G3 X2.131064262128524 Y1.7246634493268986 I0.601981203962408 J0.601981203962408
G3 X2.456184912369825 Y1.6586233172466345 I0.32512065024130044 J0.7848615697231394
G3 X2.7813055626111254 Y1.7246634493268986 I0 J0.8509017018034036
G3 X3.0581661163322327 Y1.9100838201676404 I-0.32512065024130044 J0.7848615697231394
G3 X3.241046482092964 Y2.1844043688087376 I-0.601981203962408 J0.601981203962408
G3 X3.3070866141732287 Y2.509525019050038 I-0.7848615697231394 J0.32512065024130044
G3 X3.241046482092964 Y2.8346456692913384 I-0.8509017018034036 J0
G3 X3.0581661163322327 Y3.111506223012446 I-0.7848615697231394 J-0.32512065024130044
G3 X2.7813055626111254 Y3.2943865887731776 I-0.601981203962408 J-0.601981203962408
G3 X2.456184912369825 Y3.3604267208534417 I-0.32512065024130044 J-0.7848615697231394
G3 X2.131064262128524 Y3.2943865887731776 I0 J-0.8509017018034036
G3 X1.8567437134874272 Y3.111506223012446 I0.32512065024130044 J-0.7848615697231394
G3 X1.6713233426466854 Y2.8346456692913384 I0.601981203962408 J-0.601981203962408
G3 X1.6078232156464312 Y2.509525019050038 I0.7848615697231394 J-0.32512065024130044
G1 Z-2.749301498602997 F600
G3 X1.6713233426466854 Y2.1844043688087376 I0.8509017018034036 J0 F600
G3 X1.8567437134874272 Y1.9100838201676404 I0.7848615697231394 J0.32512065024130044
G3 X2.131064262128524 Y1.7246634493268986 I0.601981203962408 J0.601981203962408
G3 X2.456184912369825 Y1.6586233172466345 I0.32512065024130044 J0.7848615697231394
G3 X2.7813055626111254 Y1.7246634493268986 I0 J0.8509017018034036
G3 X3.0581661163322327 Y1.9100838201676404 I-0.32512065024130044 J0.7848615697231394
G3 X3.241046482092964 Y2.1844043688087376 I-0.601981203962408 J0.601981203962408
G3 X3.3070866141732287 Y2.509525019050038 I-0.7848615697231394 J0.32512065024130044
G3 X3.241046482092964 Y2.8346456692913384 I-0.8509017018034036 J0
G3 X3.0581661163322327 Y3.111506223012446 I-0.7848615697231394 J-0.32512065024130044
G3 X2.7813055626111254 Y3.2943865887731776 I-0.601981203962408 J-0.601981203962408
G3 X2.456184912369825 Y3.3604267208534417 I-0.32512065024130044 J-0.7848615697231394
G3 X2.131064262128524 Y3.2943865887731776 I0 J-0.8509017018034036
G3 X1.8567437134874272 Y3.111506223012446 I0.32512065024130044 J-0.7848615697231394
G3 X1.6713233426466854 Y2.8346456692913384 I0.601981203962408 J-0.601981203962408
G3 X1.6078232156464312 Y2.509525019050038 I0.7848615697231394 J-0.32512065024130044
G1 Z-2.999237998475997 F600
G3 X1.6713233426466854 Y2.1844043688087376 I0.8509017018034036 J0 F600
G3 X1.8567437134874272 Y1.9100838201676404 I0.7848615697231394 J0.32512065024130044
G3 X2.131064262128524 Y1.7246634493268986 I0.601981203962408 J0.601981203962408
G3 X2.456184912369825 Y1.6586233172466345 I0.32512065024130044 J0.7848615697231394
G3 X2.7813055626111254 Y1.7246634493268986 I0 J0.8509017018034036
G3 X3.0581661163322327 Y1.9100838201676404 I-0.32512065024130044 J0.7848615697231394
G3 X3.241046482092964 Y2.1844043688087376 I-0.601981203962408 J0.601981203962408
G3 X3.3070866141732287 Y2.509525019050038 I-0.7848615697231394 J0.32512065024130044
G3 X3.241046482092964 Y2.8346456692913384 I-0.8509017018034036 J0
G3 X3.0581661163322327 Y3.111506223012446 I-0.7848615697231394 J-0.32512065024130044
G3 X2.7813055626111254 Y3.2943865887731776 I-0.601981203962408 J-0.601981203962408
G3 X2.456184912369825 Y3.3604267208534417 I-0.32512065024130044 J-0.7848615697231394
G3 X2.131064262128524 Y3.2943865887731776 I0 J-0.8509017018034036
G3 X1.8567437134874272 Y3.111506223012446 I0.32512065024130044 J-0.7848615697231394
G3 X1.6713233426466854 Y2.8346456692913384 I0.601981203962408 J-0.601981203962408
G3 X1.6078232156464312 Y2.509525019050038 I0.7848615697231394 J-0.32512065024130044
G1 Z-3 F600
G3 X1.6713233426466854 Y2.1844043688087376 I0.8509017018034036 J0 F600
G3 X1.8567437134874272 Y1.9100838201676404 I0.7848615697231394 J0.32512065024130044
G3 X2.131064262128524 Y1.7246634493268986 I0.601981203962408 J0.601981203962408
G3 X2.456184912369825 Y1.6586233172466345 I0.32512065024130044 J0.7848615697231394
G3 X2.7813055626111254 Y1.7246634493268986 I0 J0.8509017018034036
G3 X3.0581661163322327 Y1.9100838201676404 I-0.32512065024130044 J0.7848615697231394
G3 X3.241046482092964 Y2.1844043688087376 I-0.601981203962408 J0.601981203962408
G3 X3.3070866141732287 Y2.509525019050038 I-0.7848615697231394 J0.32512065024130044
G3 X3.241046482092964 Y2.8346456692913384 I-0.8509017018034036 J0
G3 X3.0581661163322327 Y3.111506223012446 I-0.7848615697231394 J-0.32512065024130044
G3 X2.7813055626111254 Y3.2943865887731776 I-0.601981203962408 J-0.601981203962408
G3 X2.456184912369825 Y3.3604267208534417 I-0.32512065024130044 J-0.7848615697231394
G3 X2.131064262128524 Y3.2943865887731776 I0 J-0.8509017018034036
G3 X1.8567437134874272 Y3.111506223012446 I0.32512065024130044 J-0.7848615697231394
G3 X1.6713233426466854 Y2.8346456692913384 I0.601981203962408 J-0.601981203962408
G3 X1.6078232156464312 Y2.509525019050038 I0.7848615697231394 J-0.32512065024130044
G0 Z3
M5
M30
