(Generated by PartKam Version 0.05)

G21 G90 G40

(cutout)
G0 Z3
T0 M6
G17
M3
G0 X-1.6319532639065277 Y96.82550165100331
G1 Z-0.24993649987299973 F600
G1 X-1.630683261366523 Y90.22606045212089 F600
G1 Z0 F600
G1 X-1.630683261366523 Y85.2273304546609 F600
G1 Z-0.24993649987299973 F600
G1 X-1.630683261366523 Y-0.8813817627635255 F600
G3 X-0.8813817627635255 Y-1.630683261366523 I0.7493014986029972 J0
G1 X36.918973837947675 Y-1.630683261366523
G3 X37.66827533655067 Y-0.8813817627635255 I0 J0.7493014986029972
G1 X37.66827533655067 Y2.407924815849632
G1 Z0 F600
G1 X37.66827533655067 Y7.409194818389637 F600
G1 Z-0.24993649987299973 F600
G1 X37.66827533655067 Y96.8249936499873 F600
G3 X36.918973837947675 Y97.5742951485903 I-0.7493014986029972 J0
G1 X-0.8813817627635255 Y97.5742951485903
G3 X-1.630683261366523 Y96.8249936499873 I0 J-0.7493014986029972
G1 Z-0.49987299974599947 F600
G1 X-1.630683261366523 Y90.22606045212089 F600
G1 Z0 F600
G1 X-1.630683261366523 Y85.2273304546609 F600
G1 Z-0.49987299974599947 F600
G1 X-1.630683261366523 Y-0.8813817627635255 F600
G3 X-0.8813817627635255 Y-1.630683261366523 I0.7493014986029972 J0
G1 X36.918973837947675 Y-1.630683261366523
G3 X37.66827533655067 Y-0.8813817627635255 I0 J0.7493014986029972
G1 X37.66827533655067 Y2.407924815849632
G1 Z0 F600
G1 X37.66827533655067 Y7.409194818389637 F600
G1 Z-0.49987299974599947 F600
G1 X37.66827533655067 Y96.8249936499873 F600
G3 X36.918973837947675 Y97.5742951485903 I-0.7493014986029972 J0
G1 X-0.8813817627635255 Y97.5742951485903
G3 X-1.630683261366523 Y96.8249936499873 I0 J-0.7493014986029972
G1 Z-0.7498094996189992 F600
G1 X-1.630683261366523 Y90.22606045212089 F600
G1 Z0 F600
G1 X-1.630683261366523 Y85.2273304546609 F600
G1 Z-0.7498094996189992 F600
G1 X-1.630683261366523 Y-0.8813817627635255 F600
G3 X-0.8813817627635255 Y-1.630683261366523 I0.7493014986029972 J0
G1 X36.918973837947675 Y-1.630683261366523
G3 X37.66827533655067 Y-0.8813817627635255 I0 J0.7493014986029972
G1 X37.66827533655067 Y2.407924815849632
G1 Z0 F600
G1 X37.66827533655067 Y7.409194818389637 F600
G1 Z-0.7498094996189992 F600
G1 X37.66827533655067 Y96.8249936499873 F600
G3 X36.918973837947675 Y97.5742951485903 I-0.7493014986029972 J0
G1 X-0.8813817627635255 Y97.5742951485903
G3 X-1.630683261366523 Y96.8249936499873 I0 J-0.7493014986029972
G1 Z-0.9997459994919989 F600
G1 X-1.630683261366523 Y90.22606045212089 F600
G1 Z0 F600
G1 X-1.630683261366523 Y85.2273304546609 F600
G1 Z-0.9997459994919989 F600
G1 X-1.630683261366523 Y-0.8813817627635255 F600
G3 X-0.8813817627635255 Y-1.630683261366523 I0.7493014986029972 J0
G1 X36.918973837947675 Y-1.630683261366523
G3 X37.66827533655067 Y-0.8813817627635255 I0 J0.7493014986029972
G1 X37.66827533655067 Y2.407924815849632
G1 Z0 F600
G1 X37.66827533655067 Y7.409194818389637 F600
G1 Z-0.9997459994919989 F600
G1 X37.66827533655067 Y96.8249936499873 F600
G3 X36.918973837947675 Y97.5742951485903 I-0.7493014986029972 J0
G1 X-0.8813817627635255 Y97.5742951485903
G3 X-1.630683261366523 Y96.8249936499873 I0 J-0.7493014986029972
G1 Z-1.2496824993649986 F600
G1 X-1.630683261366523 Y90.22606045212089 F600
G1 Z0 F600
G1 X-1.630683261366523 Y85.2273304546609 F600
G1 Z-1.2496824993649986 F600
G1 X-1.630683261366523 Y-0.8813817627635255 F600
G3 X-0.8813817627635255 Y-1.630683261366523 I0.7493014986029972 J0
G1 X36.918973837947675 Y-1.630683261366523
G3 X37.66827533655067 Y-0.8813817627635255 I0 J0.7493014986029972
G1 X37.66827533655067 Y2.407924815849632
G1 Z0 F600
G1 X37.66827533655067 Y7.409194818389637 F600
G1 Z-1.2496824993649986 F600
G1 X37.66827533655067 Y96.8249936499873 F600
G3 X36.918973837947675 Y97.5742951485903 I-0.7493014986029972 J0
G1 X-0.8813817627635255 Y97.5742951485903
G3 X-1.630683261366523 Y96.8249936499873 I0 J-0.7493014986029972
G1 Z-1.4996189992379985 F600
G1 X-1.630683261366523 Y90.22606045212089 F600
G1 Z0 F600
G1 X-1.630683261366523 Y85.2273304546609 F600
G1 Z-1.4996189992379985 F600
G1 X-1.630683261366523 Y-0.8813817627635255 F600
G3 X-0.8813817627635255 Y-1.630683261366523 I0.7493014986029972 J0
G1 X36.918973837947675 Y-1.630683261366523
G3 X37.66827533655067 Y-0.8813817627635255 I0 J0.7493014986029972
G1 X37.66827533655067 Y2.407924815849632
G1 Z0 F600
G1 X37.66827533655067 Y7.409194818389637 F600
G1 Z-1.4996189992379985 F600
G1 X37.66827533655067 Y96.8249936499873 F600
G3 X36.918973837947675 Y97.5742951485903 I-0.7493014986029972 J0
G1 X-0.8813817627635255 Y97.5742951485903
G3 X-1.630683261366523 Y96.8249936499873 I0 J-0.7493014986029972
G1 Z-1.7495554991109983 F600
G1 X-1.630683261366523 Y90.22606045212089 F600
G1 Z0 F600
G1 X-1.630683261366523 Y85.2273304546609 F600
G1 Z-1.7495554991109983 F600
G1 X-1.630683261366523 Y-0.8813817627635255 F600
G3 X-0.8813817627635255 Y-1.630683261366523 I0.7493014986029972 J0
G1 X36.918973837947675 Y-1.630683261366523
G3 X37.66827533655067 Y-0.8813817627635255 I0 J0.7493014986029972
G1 X37.66827533655067 Y2.407924815849632
G1 Z0 F600
G1 X37.66827533655067 Y7.409194818389637 F600
G1 Z-1.7495554991109983 F600
G1 X37.66827533655067 Y96.8249936499873 F600
G3 X36.918973837947675 Y97.5742951485903 I-0.7493014986029972 J0
G1 X-0.8813817627635255 Y97.5742951485903
G3 X-1.630683261366523 Y96.8249936499873 I0 J-0.7493014986029972
G1 Z-1.9994919989839979 F600
G1 X-1.630683261366523 Y90.22606045212089 F600
G1 Z0 F600
G1 X-1.630683261366523 Y85.2273304546609 F600
G1 Z-1.9994919989839979 F600
G1 X-1.630683261366523 Y-0.8813817627635255 F600
G3 X-0.8813817627635255 Y-1.630683261366523 I0.7493014986029972 J0
G1 X36.918973837947675 Y-1.630683261366523
G3 X37.66827533655067 Y-0.8813817627635255 I0 J0.7493014986029972
G1 X37.66827533655067 Y2.407924815849632
G1 Z0 F600
G1 X37.66827533655067 Y7.409194818389637 F600
G1 Z-1.9994919989839979 F600
G1 X37.66827533655067 Y96.8249936499873 F600
G3 X36.918973837947675 Y97.5742951485903 I-0.7493014986029972 J0
G1 X-0.8813817627635255 Y97.5742951485903
G3 X-1.630683261366523 Y96.8249936499873 I0 J-0.7493014986029972
G1 Z-2.249428498856998 F600
G1 X-1.630683261366523 Y90.22606045212089 F600
G1 Z0 F600
G1 X-1.630683261366523 Y85.2273304546609 F600
G1 Z-2.249428498856998 F600
G1 X-1.630683261366523 Y-0.8813817627635255 F600
G3 X-0.8813817627635255 Y-1.630683261366523 I0.7493014986029972 J0
G1 X36.918973837947675 Y-1.630683261366523
G3 X37.66827533655067 Y-0.8813817627635255 I0 J0.7493014986029972
G1 X37.66827533655067 Y2.407924815849632
G1 Z0 F600
G1 X37.66827533655067 Y7.409194818389637 F600
G1 Z-2.249428498856998 F600
G1 X37.66827533655067 Y96.8249936499873 F600
G3 X36.918973837947675 Y97.5742951485903 I-0.7493014986029972 J0
G1 X-0.8813817627635255 Y97.5742951485903
G3 X-1.630683261366523 Y96.8249936499873 I0 J-0.7493014986029972
G1 Z-2.4993649987299973 F600
G1 X-1.630683261366523 Y90.22606045212089 F600
G1 Z0 F600
G1 X-1.630683261366523 Y85.2273304546609 F600
G1 Z-2.4993649987299973 F600
G1 X-1.630683261366523 Y-0.8813817627635255 F600
G3 X-0.8813817627635255 Y-1.630683261366523 I0.7493014986029972 J0
G1 X36.918973837947675 Y-1.630683261366523
G3 X37.66827533655067 Y-0.8813817627635255 I0 J0.7493014986029972
G1 X37.66827533655067 Y2.407924815849632
G1 Z0 F600
G1 X37.66827533655067 Y7.409194818389637 F600
G1 Z-2.4993649987299973 F600
G1 X37.66827533655067 Y96.8249936499873 F600
G3 X36.918973837947675 Y97.5742951485903 I-0.7493014986029972 J0
G1 X-0.8813817627635255 Y97.5742951485903
G3 X-1.630683261366523 Y96.8249936499873 I0 J-0.7493014986029972
G1 Z-2.749301498602997 F600
G1 X-1.630683261366523 Y90.22606045212089 F600
G1 Z0 F600
G1 X-1.630683261366523 Y85.2273304546609 F600
G1 Z-2.749301498602997 F600
G1 X-1.630683261366523 Y-0.8813817627635255 F600
G3 X-0.8813817627635255 Y-1.630683261366523 I0.7493014986029972 J0
G1 X36.918973837947675 Y-1.630683261366523
G3 X37.66827533655067 Y-0.8813817627635255 I0 J0.7493014986029972
G1 X37.66827533655067 Y2.407924815849632
G1 Z0 F600
G1 X37.66827533655067 Y7.409194818389637 F600
G1 Z-2.749301498602997 F600
G1 X37.66827533655067 Y96.8249936499873 F600
G3 X36.918973837947675 Y97.5742951485903 I-0.7493014986029972 J0
G1 X-0.8813817627635255 Y97.5742951485903
G3 X-1.630683261366523 Y96.8249936499873 I0 J-0.7493014986029972
G1 Z-2.999237998475997 F600
G1 X-1.630683261366523 Y90.22606045212089 F600
G1 Z0 F600
G1 X-1.630683261366523 Y85.2273304546609 F600
G1 Z-2.999237998475997 F600
G1 X-1.630683261366523 Y-0.8813817627635255 F600
G3 X-0.8813817627635255 Y-1.630683261366523 I0.7493014986029972 J0
G1 X36.918973837947675 Y-1.630683261366523
G3 X37.66827533655067 Y-0.8813817627635255 I0 J0.7493014986029972
G1 X37.66827533655067 Y2.407924815849632
G1 Z0 F600
G1 X37.66827533655067 Y7.409194818389637 F600
G1 Z-2.999237998475997 F600
G1 X37.66827533655067 Y96.8249936499873 F600
G3 X36.918973837947675 Y97.5742951485903 I-0.7493014986029972 J0
G1 X-0.8813817627635255 Y97.5742951485903
G3 X-1.630683261366523 Y96.8249936499873 I0 J-0.7493014986029972
G1 Z-3 F600
G1 X-1.630683261366523 Y90.22606045212089 F600
G1 Z0 F600
G1 X-1.630683261366523 Y85.2273304546609 F600
G1 Z-3 F600
G1 X-1.630683261366523 Y-0.8813817627635255 F600
G3 X-0.8813817627635255 Y-1.630683261366523 I0.7493014986029972 J0
G1 X36.918973837947675 Y-1.630683261366523
G3 X37.66827533655067 Y-0.8813817627635255 I0 J0.7493014986029972
G1 X37.66827533655067 Y2.407924815849632
G1 Z0 F600
G1 X37.66827533655067 Y7.409194818389637 F600
G1 Z-3 F600
G1 X37.66827533655067 Y96.8249936499873 F600
G3 X36.918973837947675 Y97.5742951485903 I-0.7493014986029972 J0
G1 X-0.8813817627635255 Y97.5742951485903
G3 X-1.630683261366523 Y96.8249936499873 I0 J-0.7493014986029972
G0 Z3
M5
M30
