(Generated by PartKam Version 0.05)

G21 G90 G40

(throughholes)
G0 Z3
T0 M6
G17
M3
G0 X2.428752857505715 Y88.26187452374904
G1 Z-3 F400
G1 Z0 F400
G0 Z3
G0 X33.57175514351029 Y88.23393446786893
G1 Z-3 F400
G1 Z0 F400
G0 Z3
G0 X2.428752857505715 Y85.72212344424689
G1 Z-3 F400
G1 Z0 F400
G0 Z3
G0 X33.57175514351029 Y85.69392938785877
G1 Z-3 F400
G1 Z0 F400
G0 Z3
G0 X2.428752857505715 Y83.18211836423673
G1 Z-3 F400
G1 Z0 F400
G0 Z3
G0 X33.57175514351029 Y83.15367030734062
G1 Z-3 F400
G1 Z0 F400
G0 Z3
G0 X2.428752857505715 Y80.64236728473458
G1 Z-3 F400
G1 Z0 F400
G0 Z3
G0 X33.57175514351029 Y80.61391922783845
G1 Z-3 F400
G1 Z0 F400
G0 Z3
G0 X2.428752857505715 Y78.1021082042164
G1 Z-3 F400
G1 Z0 F400
G0 Z3
G0 X33.57175514351029 Y78.07391414782829
G1 Z-3 F400
G1 Z0 F400
G0 Z3
G0 X2.428752857505715 Y75.56184912369825
G1 Z-3 F400
G1 Z0 F400
G0 Z3
G0 X33.57175514351029 Y75.53416306832614
G1 Z-3 F400
G1 Z0 F400
G0 Z3
G0 X2.428752857505715 Y73.02209804419608
G1 Z-3 F400
G1 Z0 F400
G0 Z3
G0 X33.57175514351029 Y72.99390398780798
G1 Z-3 F400
G1 Z0 F400
G0 Z3
G0 X2.428752857505715 Y70.48209296418592
G1 Z-3 F400
G1 Z0 F400
G0 Z3
G0 X33.57175514351029 Y70.45389890779782
G1 Z-3 F400
G1 Z0 F400
G0 Z3
G0 X11.346964693929388 Y64.10414020828041
G1 Z-3 F400
G1 Z0 F400
G0 Z3
G0 X13.886969773939548 Y64.10414020828041
G1 Z-3 F400
G1 Z0 F400
G0 Z3
G0 X16.426720853441708 Y64.10414020828041
G1 Z-3 F400
G1 Z0 F400
G0 Z3
G0 X18.966979933959866 Y64.10414020828041
G1 Z-3 F400
G1 Z0 F400
G0 Z3
G0 X21.506731013462026 Y64.10414020828041
G1 Z-3 F400
G1 Z0 F400
G0 Z3
G0 X24.046990093980188 Y64.10414020828041
G1 Z-3 F400
G1 Z0 F400
G0 Z3
G0 X26.58674117348235 Y64.10414020828041
G1 Z-3 F400
G1 Z0 F400
G0 Z3
G0 X29.126746253492506 Y64.10414020828041
G1 Z-3 F400
G1 Z0 F400
G0 Z3
G0 X2.4569469138938276 Y61.56413512827026
G1 Z-3 F400
G1 Z0 F400
G0 Z3
G0 X4.996951993903988 Y61.56413512827026
G1 Z-3 F400
G1 Z0 F400
G0 Z3
G0 X7.536957073914148 Y61.56413512827026
G1 Z-3 F400
G1 Z0 F400
G0 Z3
G0 X2.4569469138938276 Y56.48412496824994
G1 Z-3 F400
G1 Z0 F400
G0 Z3
G0 X4.996951993903988 Y56.48412496824994
G1 Z-3 F400
G1 Z0 F400
G0 Z3
G0 X7.536957073914148 Y56.48412496824994
G1 Z-3 F400
G1 Z0 F400
G0 Z3
G0 X11.346964693929388 Y56.48412496824994
G1 Z-3 F400
G1 Z0 F400
G0 Z3
G0 X13.886969773939548 Y56.48412496824994
G1 Z-3 F400
G1 Z0 F400
G0 Z3
G0 X16.426720853441708 Y56.48412496824994
G1 Z-3 F400
G1 Z0 F400
G0 Z3
G0 X18.966979933959866 Y56.48412496824994
G1 Z-3 F400
G1 Z0 F400
G0 Z3
G0 X21.506731013462026 Y56.48412496824994
G1 Z-3 F400
G1 Z0 F400
G0 Z3
G0 X24.046990093980188 Y56.48412496824994
G1 Z-3 F400
G1 Z0 F400
G0 Z3
G0 X26.58674117348235 Y56.48412496824994
G1 Z-3 F400
G1 Z0 F400
G0 Z3
G0 X29.126746253492506 Y56.48412496824994
G1 Z-3 F400
G1 Z0 F400
G0 Z3
G0 X2.428752857505715 Y50.79730759461519
G1 Z-3 F400
G1 Z0 F400
G0 Z3
G0 X33.57175514351029 Y50.769367538735075
G1 Z-3 F400
G1 Z0 F400
G0 Z3
G0 X2.428752857505715 Y45.71729743459487
G1 Z-3 F400
G1 Z0 F400
G0 Z3
G0 X33.57175514351029 Y45.68935737871476
G1 Z-3 F400
G1 Z0 F400
G0 Z3
G0 X2.428752857505715 Y40.63754127508255
G1 Z-3 F400
G1 Z0 F400
G0 Z3
G0 X33.57175514351029 Y40.60909321818644
G1 Z-3 F400
G1 Z0 F400
G0 Z3
G0 X2.428752857505715 Y35.55753111506223
G1 Z-3 F400
G1 Z0 F400
G0 Z3
G0 X33.57175514351029 Y35.529337058674116
G1 Z-3 F400
G1 Z0 F400
G0 Z3
G0 X2.428752857505715 Y33.01752603505207
G1 Z-3 F400
G1 Z0 F400
G0 Z3
G0 X33.57175514351029 Y32.989585979171956
G1 Z-3 F400
G1 Z0 F400
G0 Z3
G0 X2.428752857505715 Y30.47752095504191
G1 Z-3 F400
G1 Z0 F400
G0 Z3
G0 X33.57175514351029 Y30.449326898653798
G1 Z-3 F400
G1 Z0 F400
G0 Z3
G0 X2.428752857505715 Y27.93776987553975
G1 Z-3 F400
G1 Z0 F400
G0 Z3
G0 X33.57175514351029 Y27.909321818643637
G1 Z-3 F400
G1 Z0 F400
G0 Z3
G0 X2.4569469138938276 Y25.369316738633476
G1 Z-3 F400
G1 Z0 F400
G0 Z3
G0 X33.5999491998984 Y25.341376682753367
G1 Z-3 F400
G1 Z0 F400
G0 Z3
G0 X2.4569469138938276 Y22.82956565913132
G1 Z-3 F400
G1 Z0 F400
G0 Z3
G0 X33.5999491998984 Y22.801117602235205
G1 Z-3 F400
G1 Z0 F400
G0 Z3
G0 X2.4569469138938276 Y20.28981457962916
G1 Z-3 F400
G1 Z0 F400
G0 Z3
G0 X33.5999491998984 Y20.261366522733045
G1 Z-3 F400
G1 Z0 F400
G0 Z3
G0 X2.4569469138938276 Y17.749809499618998
G1 Z-3 F400
G1 Z0 F400
G0 Z3
G0 X33.5999491998984 Y17.721361442722884
G1 Z-3 F400
G1 Z0 F400
G0 Z3
G0 X2.4569469138938276 Y15.209804419608838
G1 Z-3 F400
G1 Z0 F400
G0 Z3
G0 X33.5999491998984 Y15.181610363220727
G1 Z-3 F400
G1 Z0 F400
G0 Z3
G0 X2.4569469138938276 Y12.669545339090678
G1 Z-3 F400
G1 Z0 F400
G0 Z3
G0 X33.5999491998984 Y12.641605283210566
G1 Z-3 F400
G1 Z0 F400
G0 Z3
G0 X2.4569469138938276 Y10.129540259080517
G1 Z-3 F400
G1 Z0 F400
G0 Z3
G0 X33.5999491998984 Y10.101600203200407
G1 Z-3 F400
G1 Z0 F400
G0 Z3
G0 X2.4569469138938276 Y7.589789179578359
G1 Z-3 F400
G1 Z0 F400
G0 Z3
G0 X33.5999491998984 Y7.561341122682245
G1 Z-3 F400
G1 Z0 F400
G0 Z3
G0 X6.266954533909068 Y1.8750317500635
G1 Z-3 F400
G1 Z0 F400
G0 Z3
G0 X11.346964693929388 Y1.8750317500635
G1 Z-3 F400
G1 Z0 F400
G0 Z3
G0 X13.886969773939548 Y1.8750317500635
G1 Z-3 F400
G1 Z0 F400
G0 Z3
G0 X16.426720853441708 Y1.8750317500635
G1 Z-3 F400
G1 Z0 F400
G0 Z3
G0 X18.966979933959866 Y1.8750317500635
G1 Z-3 F400
G1 Z0 F400
G0 Z3
G0 X21.506985013970027 Y1.8750317500635
G1 Z-3 F400
G1 Z0 F400
G0 Z3
G0 X24.046990093980188 Y1.8750317500635
G1 Z-3 F400
G1 Z0 F400
G0 Z3
G0 X29.126746253492506 Y1.8750317500635
G1 Z-3 F400
G1 Z0 F400
G0 Z3
M5
M30
