(Generated by PartKam Version 0.05)

G21 G90 G40

(vias)
G0 Z3
T0 M6
G17
M3
G0 X13.886969773939548 Y53.309118618237235
G1 Z-3 F200
G1 Z0 F200
G0 Z3
G0 X16.426720853441708 Y53.309118618237235
G1 Z-3 F200
G1 Z0 F200
G0 Z3
G0 X18.966725933451865 Y53.309118618237235
G1 Z-3 F200
G1 Z0 F200
G0 Z3
G0 X21.506985013970027 Y53.309118618237235
G1 Z-3 F200
G1 Z0 F200
G0 Z3
G0 X24.046990093980188 Y53.309118618237235
G1 Z-3 F200
G1 Z0 F200
G0 Z3
G0 X26.58674117348235 Y53.309118618237235
G1 Z-3 F200
G1 Z0 F200
G0 Z3
G0 X29.126746253492506 Y50.769367538735075
G1 Z-3 F200
G1 Z0 F200
G0 Z3
G0 X21.506985013970027 Y47.59436118872238
G1 Z-3 F200
G1 Z0 F200
G0 Z3
G0 X26.58674117348235 Y47.59436118872238
G1 Z-3 F200
G1 Z0 F200
G0 Z3
G0 X13.886969773939548 Y43.1490982981966
G1 Z-3 F200
G1 Z0 F200
G0 Z3
G0 X18.966979933959866 Y43.1490982981966
G1 Z-3 F200
G1 Z0 F200
G0 Z3
G0 X6.266954533909068 Y5.684531369062738
G1 Z-3 F200
G1 Z0 F200
G0 Z3
G0 X24.046990093980188 Y5.684531369062738
G1 Z-3 F200
G1 Z0 F200
G0 Z3
G0 X29.126746253492506 Y5.684531369062738
G1 Z-3 F200
G1 Z0 F200
G0 Z3
M5
M30
