(Generated by PartKam Version 0.05)

G21 G90 G40

(bigholes)
G0 Z3
T0 M6
G17
M3
G0 X94.93446786893574 Y46.98526797053594
G1 Z-0.24993649987299973 F800
G3 X95.22225044450089 Y47.043434086868174 I0 J0.7493014986029972 F800
G3 X95.46355092710185 Y47.205994411988826 I-0.28702057404114806 J0.6934213868427737
G3 X95.6261112522225 Y47.44729489458979 I-0.5308610617221234 J0.5308610617221234
G3 X95.68453136906274 Y47.73431546863094 I-0.6934213868427737 J0.28702057404114806
G1 X95.68453136906274 Y47.73431546863094
G1 X95.68453136906274 Y47.736855473710946
G3 X95.6261112522225 Y48.02133604267208 I-0.7493014986029972 J0
G3 X95.46355092710185 Y48.26517653035306 I-0.6934213868427737 J-0.28702057404114806
G3 X95.22225044450089 Y48.42773685547371 I-0.5308610617221234 J-0.5308610617221234
G3 X94.93522987045975 Y48.48615697231394 I-0.28702057404114806 J-0.6934213868427737
G3 X94.73964947929895 Y48.46075692151384 I0 J-0.7493014986029972
G3 X94.55930911861824 Y48.384556769113544 I0.19304038608077217 J-0.7239014478028956
G3 X94.40436880873762 Y48.26517653035306 I0.3759207518415037 J-0.6502413004826009
G3 X94.28498856997714 Y48.110236220472444 I0.5308610617221234 J-0.5308610617221234
G3 X94.20878841757684 Y47.92989585979172 I0.6502413004826009 J-0.3759207518415037
G3 X94.18338836677674 Y47.736855473710946 I0.7239014478028956 J-0.19304038608077217
G1 X94.18338836677674 Y47.73431546863094
G1 X94.18338836677674 Y47.73431546863094
G3 X94.20878841757684 Y47.541275082550165 I0.7493014986029972 J0
G3 X94.28498856997714 Y47.36093472186944 I0.7239014478028956 J0.19304038608077217
G3 X94.40436880873762 Y47.205994411988826 I0.6502413004826009 J0.3759207518415037
G3 X94.55930911861824 Y47.08661417322834 I0.5308610617221234 J0.5308610617221234
G3 X94.73964947929895 Y47.010414020828044 I0.3759207518415037 J0.6502413004826009
G3 X94.93522987045975 Y46.985013970027936 I0.19304038608077217 J0.7239014478028956
G1 Z-0.49987299974599947 F800
G3 X95.22225044450089 Y47.043434086868174 I0 J0.7493014986029972 F800
G3 X95.46355092710185 Y47.205994411988826 I-0.28702057404114806 J0.6934213868427737
G3 X95.6261112522225 Y47.44729489458979 I-0.5308610617221234 J0.5308610617221234
G3 X95.68453136906274 Y47.73431546863094 I-0.6934213868427737 J0.28702057404114806
G1 X95.68453136906274 Y47.73431546863094
G1 X95.68453136906274 Y47.736855473710946
G3 X95.6261112522225 Y48.02133604267208 I-0.7493014986029972 J0
G3 X95.46355092710185 Y48.26517653035306 I-0.6934213868427737 J-0.28702057404114806
G3 X95.22225044450089 Y48.42773685547371 I-0.5308610617221234 J-0.5308610617221234
G3 X94.93522987045975 Y48.48615697231394 I-0.28702057404114806 J-0.6934213868427737
G3 X94.73964947929895 Y48.46075692151384 I0 J-0.7493014986029972
G3 X94.55930911861824 Y48.384556769113544 I0.19304038608077217 J-0.7239014478028956
G3 X94.40436880873762 Y48.26517653035306 I0.3759207518415037 J-0.6502413004826009
G3 X94.28498856997714 Y48.110236220472444 I0.5308610617221234 J-0.5308610617221234
G3 X94.20878841757684 Y47.92989585979172 I0.6502413004826009 J-0.3759207518415037
G3 X94.18338836677674 Y47.736855473710946 I0.7239014478028956 J-0.19304038608077217
G1 X94.18338836677674 Y47.73431546863094
G1 X94.18338836677674 Y47.73431546863094
G3 X94.20878841757684 Y47.541275082550165 I0.7493014986029972 J0
G3 X94.28498856997714 Y47.36093472186944 I0.7239014478028956 J0.19304038608077217
G3 X94.40436880873762 Y47.205994411988826 I0.6502413004826009 J0.3759207518415037
G3 X94.55930911861824 Y47.08661417322834 I0.5308610617221234 J0.5308610617221234
G3 X94.73964947929895 Y47.010414020828044 I0.3759207518415037 J0.6502413004826009
G3 X94.93522987045975 Y46.985013970027936 I0.19304038608077217 J0.7239014478028956
G1 Z-0.7498094996189992 F800
G3 X95.22225044450089 Y47.043434086868174 I0 J0.7493014986029972 F800
G3 X95.46355092710185 Y47.205994411988826 I-0.28702057404114806 J0.6934213868427737
G3 X95.6261112522225 Y47.44729489458979 I-0.5308610617221234 J0.5308610617221234
G3 X95.68453136906274 Y47.73431546863094 I-0.6934213868427737 J0.28702057404114806
G1 X95.68453136906274 Y47.73431546863094
G1 X95.68453136906274 Y47.736855473710946
G3 X95.6261112522225 Y48.02133604267208 I-0.7493014986029972 J0
G3 X95.46355092710185 Y48.26517653035306 I-0.6934213868427737 J-0.28702057404114806
G3 X95.22225044450089 Y48.42773685547371 I-0.5308610617221234 J-0.5308610617221234
G3 X94.93522987045975 Y48.48615697231394 I-0.28702057404114806 J-0.6934213868427737
G3 X94.73964947929895 Y48.46075692151384 I0 J-0.7493014986029972
G3 X94.55930911861824 Y48.384556769113544 I0.19304038608077217 J-0.7239014478028956
G3 X94.40436880873762 Y48.26517653035306 I0.3759207518415037 J-0.6502413004826009
G3 X94.28498856997714 Y48.110236220472444 I0.5308610617221234 J-0.5308610617221234
G3 X94.20878841757684 Y47.92989585979172 I0.6502413004826009 J-0.3759207518415037
G3 X94.18338836677674 Y47.736855473710946 I0.7239014478028956 J-0.19304038608077217
G1 X94.18338836677674 Y47.73431546863094
G1 X94.18338836677674 Y47.73431546863094
G3 X94.20878841757684 Y47.541275082550165 I0.7493014986029972 J0
G3 X94.28498856997714 Y47.36093472186944 I0.7239014478028956 J0.19304038608077217
G3 X94.40436880873762 Y47.205994411988826 I0.6502413004826009 J0.3759207518415037
G3 X94.55930911861824 Y47.08661417322834 I0.5308610617221234 J0.5308610617221234
G3 X94.73964947929895 Y47.010414020828044 I0.3759207518415037 J0.6502413004826009
G3 X94.93522987045975 Y46.985013970027936 I0.19304038608077217 J0.7239014478028956
G1 Z-0.9997459994919989 F800
G3 X95.22225044450089 Y47.043434086868174 I0 J0.7493014986029972 F800
G3 X95.46355092710185 Y47.205994411988826 I-0.28702057404114806 J0.6934213868427737
G3 X95.6261112522225 Y47.44729489458979 I-0.5308610617221234 J0.5308610617221234
G3 X95.68453136906274 Y47.73431546863094 I-0.6934213868427737 J0.28702057404114806
G1 X95.68453136906274 Y47.73431546863094
G1 X95.68453136906274 Y47.736855473710946
G3 X95.6261112522225 Y48.02133604267208 I-0.7493014986029972 J0
G3 X95.46355092710185 Y48.26517653035306 I-0.6934213868427737 J-0.28702057404114806
G3 X95.22225044450089 Y48.42773685547371 I-0.5308610617221234 J-0.5308610617221234
G3 X94.93522987045975 Y48.48615697231394 I-0.28702057404114806 J-0.6934213868427737
G3 X94.73964947929895 Y48.46075692151384 I0 J-0.7493014986029972
G3 X94.55930911861824 Y48.384556769113544 I0.19304038608077217 J-0.7239014478028956
G3 X94.40436880873762 Y48.26517653035306 I0.3759207518415037 J-0.6502413004826009
G3 X94.28498856997714 Y48.110236220472444 I0.5308610617221234 J-0.5308610617221234
G3 X94.20878841757684 Y47.92989585979172 I0.6502413004826009 J-0.3759207518415037
G3 X94.18338836677674 Y47.736855473710946 I0.7239014478028956 J-0.19304038608077217
G1 X94.18338836677674 Y47.73431546863094
G1 X94.18338836677674 Y47.73431546863094
G3 X94.20878841757684 Y47.541275082550165 I0.7493014986029972 J0
G3 X94.28498856997714 Y47.36093472186944 I0.7239014478028956 J0.19304038608077217
G3 X94.40436880873762 Y47.205994411988826 I0.6502413004826009 J0.3759207518415037
G3 X94.55930911861824 Y47.08661417322834 I0.5308610617221234 J0.5308610617221234
G3 X94.73964947929895 Y47.010414020828044 I0.3759207518415037 J0.6502413004826009
G3 X94.93522987045975 Y46.985013970027936 I0.19304038608077217 J0.7239014478028956
G1 Z-1.2496824993649986 F800
G3 X95.22225044450089 Y47.043434086868174 I0 J0.7493014986029972 F800
G3 X95.46355092710185 Y47.205994411988826 I-0.28702057404114806 J0.6934213868427737
G3 X95.6261112522225 Y47.44729489458979 I-0.5308610617221234 J0.5308610617221234
G3 X95.68453136906274 Y47.73431546863094 I-0.6934213868427737 J0.28702057404114806
G1 X95.68453136906274 Y47.73431546863094
G1 X95.68453136906274 Y47.736855473710946
G3 X95.6261112522225 Y48.02133604267208 I-0.7493014986029972 J0
G3 X95.46355092710185 Y48.26517653035306 I-0.6934213868427737 J-0.28702057404114806
G3 X95.22225044450089 Y48.42773685547371 I-0.5308610617221234 J-0.5308610617221234
G3 X94.93522987045975 Y48.48615697231394 I-0.28702057404114806 J-0.6934213868427737
G3 X94.73964947929895 Y48.46075692151384 I0 J-0.7493014986029972
G3 X94.55930911861824 Y48.384556769113544 I0.19304038608077217 J-0.7239014478028956
G3 X94.40436880873762 Y48.26517653035306 I0.3759207518415037 J-0.6502413004826009
G3 X94.28498856997714 Y48.110236220472444 I0.5308610617221234 J-0.5308610617221234
G3 X94.20878841757684 Y47.92989585979172 I0.6502413004826009 J-0.3759207518415037
G3 X94.18338836677674 Y47.736855473710946 I0.7239014478028956 J-0.19304038608077217
G1 X94.18338836677674 Y47.73431546863094
G1 X94.18338836677674 Y47.73431546863094
G3 X94.20878841757684 Y47.541275082550165 I0.7493014986029972 J0
G3 X94.28498856997714 Y47.36093472186944 I0.7239014478028956 J0.19304038608077217
G3 X94.40436880873762 Y47.205994411988826 I0.6502413004826009 J0.3759207518415037
G3 X94.55930911861824 Y47.08661417322834 I0.5308610617221234 J0.5308610617221234
G3 X94.73964947929895 Y47.010414020828044 I0.3759207518415037 J0.6502413004826009
G3 X94.93522987045975 Y46.985013970027936 I0.19304038608077217 J0.7239014478028956
G1 Z-1.4996189992379985 F800
G3 X95.22225044450089 Y47.043434086868174 I0 J0.7493014986029972 F800
G3 X95.46355092710185 Y47.205994411988826 I-0.28702057404114806 J0.6934213868427737
G3 X95.6261112522225 Y47.44729489458979 I-0.5308610617221234 J0.5308610617221234
G3 X95.68453136906274 Y47.73431546863094 I-0.6934213868427737 J0.28702057404114806
G1 X95.68453136906274 Y47.73431546863094
G1 X95.68453136906274 Y47.736855473710946
G3 X95.6261112522225 Y48.02133604267208 I-0.7493014986029972 J0
G3 X95.46355092710185 Y48.26517653035306 I-0.6934213868427737 J-0.28702057404114806
G3 X95.22225044450089 Y48.42773685547371 I-0.5308610617221234 J-0.5308610617221234
G3 X94.93522987045975 Y48.48615697231394 I-0.28702057404114806 J-0.6934213868427737
G3 X94.73964947929895 Y48.46075692151384 I0 J-0.7493014986029972
G3 X94.55930911861824 Y48.384556769113544 I0.19304038608077217 J-0.7239014478028956
G3 X94.40436880873762 Y48.26517653035306 I0.3759207518415037 J-0.6502413004826009
G3 X94.28498856997714 Y48.110236220472444 I0.5308610617221234 J-0.5308610617221234
G3 X94.20878841757684 Y47.92989585979172 I0.6502413004826009 J-0.3759207518415037
G3 X94.18338836677674 Y47.736855473710946 I0.7239014478028956 J-0.19304038608077217
G1 X94.18338836677674 Y47.73431546863094
G1 X94.18338836677674 Y47.73431546863094
G3 X94.20878841757684 Y47.541275082550165 I0.7493014986029972 J0
G3 X94.28498856997714 Y47.36093472186944 I0.7239014478028956 J0.19304038608077217
G3 X94.40436880873762 Y47.205994411988826 I0.6502413004826009 J0.3759207518415037
G3 X94.55930911861824 Y47.08661417322834 I0.5308610617221234 J0.5308610617221234
G3 X94.73964947929895 Y47.010414020828044 I0.3759207518415037 J0.6502413004826009
G3 X94.93522987045975 Y46.985013970027936 I0.19304038608077217 J0.7239014478028956
G1 Z-1.7495554991109983 F800
G3 X95.22225044450089 Y47.043434086868174 I0 J0.7493014986029972 F800
G3 X95.46355092710185 Y47.205994411988826 I-0.28702057404114806 J0.6934213868427737
G3 X95.6261112522225 Y47.44729489458979 I-0.5308610617221234 J0.5308610617221234
G3 X95.68453136906274 Y47.73431546863094 I-0.6934213868427737 J0.28702057404114806
G1 X95.68453136906274 Y47.73431546863094
G1 X95.68453136906274 Y47.736855473710946
G3 X95.6261112522225 Y48.02133604267208 I-0.7493014986029972 J0
G3 X95.46355092710185 Y48.26517653035306 I-0.6934213868427737 J-0.28702057404114806
G3 X95.22225044450089 Y48.42773685547371 I-0.5308610617221234 J-0.5308610617221234
G3 X94.93522987045975 Y48.48615697231394 I-0.28702057404114806 J-0.6934213868427737
G3 X94.73964947929895 Y48.46075692151384 I0 J-0.7493014986029972
G3 X94.55930911861824 Y48.384556769113544 I0.19304038608077217 J-0.7239014478028956
G3 X94.40436880873762 Y48.26517653035306 I0.3759207518415037 J-0.6502413004826009
G3 X94.28498856997714 Y48.110236220472444 I0.5308610617221234 J-0.5308610617221234
G3 X94.20878841757684 Y47.92989585979172 I0.6502413004826009 J-0.3759207518415037
G3 X94.18338836677674 Y47.736855473710946 I0.7239014478028956 J-0.19304038608077217
G1 X94.18338836677674 Y47.73431546863094
G1 X94.18338836677674 Y47.73431546863094
G3 X94.20878841757684 Y47.541275082550165 I0.7493014986029972 J0
G3 X94.28498856997714 Y47.36093472186944 I0.7239014478028956 J0.19304038608077217
G3 X94.40436880873762 Y47.205994411988826 I0.6502413004826009 J0.3759207518415037
G3 X94.55930911861824 Y47.08661417322834 I0.5308610617221234 J0.5308610617221234
G3 X94.73964947929895 Y47.010414020828044 I0.3759207518415037 J0.6502413004826009
G3 X94.93522987045975 Y46.985013970027936 I0.19304038608077217 J0.7239014478028956
G1 Z-1.9994919989839979 F800
G3 X95.22225044450089 Y47.043434086868174 I0 J0.7493014986029972 F800
G3 X95.46355092710185 Y47.205994411988826 I-0.28702057404114806 J0.6934213868427737
G3 X95.6261112522225 Y47.44729489458979 I-0.5308610617221234 J0.5308610617221234
G3 X95.68453136906274 Y47.73431546863094 I-0.6934213868427737 J0.28702057404114806
G1 X95.68453136906274 Y47.73431546863094
G1 X95.68453136906274 Y47.736855473710946
G3 X95.6261112522225 Y48.02133604267208 I-0.7493014986029972 J0
G3 X95.46355092710185 Y48.26517653035306 I-0.6934213868427737 J-0.28702057404114806
G3 X95.22225044450089 Y48.42773685547371 I-0.5308610617221234 J-0.5308610617221234
G3 X94.93522987045975 Y48.48615697231394 I-0.28702057404114806 J-0.6934213868427737
G3 X94.73964947929895 Y48.46075692151384 I0 J-0.7493014986029972
G3 X94.55930911861824 Y48.384556769113544 I0.19304038608077217 J-0.7239014478028956
G3 X94.40436880873762 Y48.26517653035306 I0.3759207518415037 J-0.6502413004826009
G3 X94.28498856997714 Y48.110236220472444 I0.5308610617221234 J-0.5308610617221234
G3 X94.20878841757684 Y47.92989585979172 I0.6502413004826009 J-0.3759207518415037
G3 X94.18338836677674 Y47.736855473710946 I0.7239014478028956 J-0.19304038608077217
G1 X94.18338836677674 Y47.73431546863094
G1 X94.18338836677674 Y47.73431546863094
G3 X94.20878841757684 Y47.541275082550165 I0.7493014986029972 J0
G3 X94.28498856997714 Y47.36093472186944 I0.7239014478028956 J0.19304038608077217
G3 X94.40436880873762 Y47.205994411988826 I0.6502413004826009 J0.3759207518415037
G3 X94.55930911861824 Y47.08661417322834 I0.5308610617221234 J0.5308610617221234
G3 X94.73964947929895 Y47.010414020828044 I0.3759207518415037 J0.6502413004826009
G3 X94.93522987045975 Y46.985013970027936 I0.19304038608077217 J0.7239014478028956
G1 Z-2.249428498856998 F800
G3 X95.22225044450089 Y47.043434086868174 I0 J0.7493014986029972 F800
G3 X95.46355092710185 Y47.205994411988826 I-0.28702057404114806 J0.6934213868427737
G3 X95.6261112522225 Y47.44729489458979 I-0.5308610617221234 J0.5308610617221234
G3 X95.68453136906274 Y47.73431546863094 I-0.6934213868427737 J0.28702057404114806
G1 X95.68453136906274 Y47.73431546863094
G1 X95.68453136906274 Y47.736855473710946
G3 X95.6261112522225 Y48.02133604267208 I-0.7493014986029972 J0
G3 X95.46355092710185 Y48.26517653035306 I-0.6934213868427737 J-0.28702057404114806
G3 X95.22225044450089 Y48.42773685547371 I-0.5308610617221234 J-0.5308610617221234
G3 X94.93522987045975 Y48.48615697231394 I-0.28702057404114806 J-0.6934213868427737
G3 X94.73964947929895 Y48.46075692151384 I0 J-0.7493014986029972
G3 X94.55930911861824 Y48.384556769113544 I0.19304038608077217 J-0.7239014478028956
G3 X94.40436880873762 Y48.26517653035306 I0.3759207518415037 J-0.6502413004826009
G3 X94.28498856997714 Y48.110236220472444 I0.5308610617221234 J-0.5308610617221234
G3 X94.20878841757684 Y47.92989585979172 I0.6502413004826009 J-0.3759207518415037
G3 X94.18338836677674 Y47.736855473710946 I0.7239014478028956 J-0.19304038608077217
G1 X94.18338836677674 Y47.73431546863094
G1 X94.18338836677674 Y47.73431546863094
G3 X94.20878841757684 Y47.541275082550165 I0.7493014986029972 J0
G3 X94.28498856997714 Y47.36093472186944 I0.7239014478028956 J0.19304038608077217
G3 X94.40436880873762 Y47.205994411988826 I0.6502413004826009 J0.3759207518415037
G3 X94.55930911861824 Y47.08661417322834 I0.5308610617221234 J0.5308610617221234
G3 X94.73964947929895 Y47.010414020828044 I0.3759207518415037 J0.6502413004826009
G3 X94.93522987045975 Y46.985013970027936 I0.19304038608077217 J0.7239014478028956
G1 Z-2.4993649987299973 F800
G3 X95.22225044450089 Y47.043434086868174 I0 J0.7493014986029972 F800
G3 X95.46355092710185 Y47.205994411988826 I-0.28702057404114806 J0.6934213868427737
G3 X95.6261112522225 Y47.44729489458979 I-0.5308610617221234 J0.5308610617221234
G3 X95.68453136906274 Y47.73431546863094 I-0.6934213868427737 J0.28702057404114806
G1 X95.68453136906274 Y47.73431546863094
G1 X95.68453136906274 Y47.736855473710946
G3 X95.6261112522225 Y48.02133604267208 I-0.7493014986029972 J0
G3 X95.46355092710185 Y48.26517653035306 I-0.6934213868427737 J-0.28702057404114806
G3 X95.22225044450089 Y48.42773685547371 I-0.5308610617221234 J-0.5308610617221234
G3 X94.93522987045975 Y48.48615697231394 I-0.28702057404114806 J-0.6934213868427737
G3 X94.73964947929895 Y48.46075692151384 I0 J-0.7493014986029972
G3 X94.55930911861824 Y48.384556769113544 I0.19304038608077217 J-0.7239014478028956
G3 X94.40436880873762 Y48.26517653035306 I0.3759207518415037 J-0.6502413004826009
G3 X94.28498856997714 Y48.110236220472444 I0.5308610617221234 J-0.5308610617221234
G3 X94.20878841757684 Y47.92989585979172 I0.6502413004826009 J-0.3759207518415037
G3 X94.18338836677674 Y47.736855473710946 I0.7239014478028956 J-0.19304038608077217
G1 X94.18338836677674 Y47.73431546863094
G1 X94.18338836677674 Y47.73431546863094
G3 X94.20878841757684 Y47.541275082550165 I0.7493014986029972 J0
G3 X94.28498856997714 Y47.36093472186944 I0.7239014478028956 J0.19304038608077217
G3 X94.40436880873762 Y47.205994411988826 I0.6502413004826009 J0.3759207518415037
G3 X94.55930911861824 Y47.08661417322834 I0.5308610617221234 J0.5308610617221234
G3 X94.73964947929895 Y47.010414020828044 I0.3759207518415037 J0.6502413004826009
G3 X94.93522987045975 Y46.985013970027936 I0.19304038608077217 J0.7239014478028956
G1 Z-2.749301498602997 F800
G3 X95.22225044450089 Y47.043434086868174 I0 J0.7493014986029972 F800
G3 X95.46355092710185 Y47.205994411988826 I-0.28702057404114806 J0.6934213868427737
G3 X95.6261112522225 Y47.44729489458979 I-0.5308610617221234 J0.5308610617221234
G3 X95.68453136906274 Y47.73431546863094 I-0.6934213868427737 J0.28702057404114806
G1 X95.68453136906274 Y47.73431546863094
G1 X95.68453136906274 Y47.736855473710946
G3 X95.6261112522225 Y48.02133604267208 I-0.7493014986029972 J0
G3 X95.46355092710185 Y48.26517653035306 I-0.6934213868427737 J-0.28702057404114806
G3 X95.22225044450089 Y48.42773685547371 I-0.5308610617221234 J-0.5308610617221234
G3 X94.93522987045975 Y48.48615697231394 I-0.28702057404114806 J-0.6934213868427737
G3 X94.73964947929895 Y48.46075692151384 I0 J-0.7493014986029972
G3 X94.55930911861824 Y48.384556769113544 I0.19304038608077217 J-0.7239014478028956
G3 X94.40436880873762 Y48.26517653035306 I0.3759207518415037 J-0.6502413004826009
G3 X94.28498856997714 Y48.110236220472444 I0.5308610617221234 J-0.5308610617221234
G3 X94.20878841757684 Y47.92989585979172 I0.6502413004826009 J-0.3759207518415037
G3 X94.18338836677674 Y47.736855473710946 I0.7239014478028956 J-0.19304038608077217
G1 X94.18338836677674 Y47.73431546863094
G1 X94.18338836677674 Y47.73431546863094
G3 X94.20878841757684 Y47.541275082550165 I0.7493014986029972 J0
G3 X94.28498856997714 Y47.36093472186944 I0.7239014478028956 J0.19304038608077217
G3 X94.40436880873762 Y47.205994411988826 I0.6502413004826009 J0.3759207518415037
G3 X94.55930911861824 Y47.08661417322834 I0.5308610617221234 J0.5308610617221234
G3 X94.73964947929895 Y47.010414020828044 I0.3759207518415037 J0.6502413004826009
G3 X94.93522987045975 Y46.985013970027936 I0.19304038608077217 J0.7239014478028956
G1 Z-2.999237998475997 F800
G3 X95.22225044450089 Y47.043434086868174 I0 J0.7493014986029972 F800
G3 X95.46355092710185 Y47.205994411988826 I-0.28702057404114806 J0.6934213868427737
G3 X95.6261112522225 Y47.44729489458979 I-0.5308610617221234 J0.5308610617221234
G3 X95.68453136906274 Y47.73431546863094 I-0.6934213868427737 J0.28702057404114806
G1 X95.68453136906274 Y47.73431546863094
G1 X95.68453136906274 Y47.736855473710946
G3 X95.6261112522225 Y48.02133604267208 I-0.7493014986029972 J0
G3 X95.46355092710185 Y48.26517653035306 I-0.6934213868427737 J-0.28702057404114806
G3 X95.22225044450089 Y48.42773685547371 I-0.5308610617221234 J-0.5308610617221234
G3 X94.93522987045975 Y48.48615697231394 I-0.28702057404114806 J-0.6934213868427737
G3 X94.73964947929895 Y48.46075692151384 I0 J-0.7493014986029972
G3 X94.55930911861824 Y48.384556769113544 I0.19304038608077217 J-0.7239014478028956
G3 X94.40436880873762 Y48.26517653035306 I0.3759207518415037 J-0.6502413004826009
G3 X94.28498856997714 Y48.110236220472444 I0.5308610617221234 J-0.5308610617221234
G3 X94.20878841757684 Y47.92989585979172 I0.6502413004826009 J-0.3759207518415037
G3 X94.18338836677674 Y47.736855473710946 I0.7239014478028956 J-0.19304038608077217
G1 X94.18338836677674 Y47.73431546863094
G1 X94.18338836677674 Y47.73431546863094
G3 X94.20878841757684 Y47.541275082550165 I0.7493014986029972 J0
G3 X94.28498856997714 Y47.36093472186944 I0.7239014478028956 J0.19304038608077217
G3 X94.40436880873762 Y47.205994411988826 I0.6502413004826009 J0.3759207518415037
G3 X94.55930911861824 Y47.08661417322834 I0.5308610617221234 J0.5308610617221234
G3 X94.73964947929895 Y47.010414020828044 I0.3759207518415037 J0.6502413004826009
G3 X94.93522987045975 Y46.985013970027936 I0.19304038608077217 J0.7239014478028956
G1 Z-3 F800
G3 X95.22225044450089 Y47.043434086868174 I0 J0.7493014986029972 F800
G3 X95.46355092710185 Y47.205994411988826 I-0.28702057404114806 J0.6934213868427737
G3 X95.6261112522225 Y47.44729489458979 I-0.5308610617221234 J0.5308610617221234
G3 X95.68453136906274 Y47.73431546863094 I-0.6934213868427737 J0.28702057404114806
G1 X95.68453136906274 Y47.73431546863094
G1 X95.68453136906274 Y47.736855473710946
G3 X95.6261112522225 Y48.02133604267208 I-0.7493014986029972 J0
G3 X95.46355092710185 Y48.26517653035306 I-0.6934213868427737 J-0.28702057404114806
G3 X95.22225044450089 Y48.42773685547371 I-0.5308610617221234 J-0.5308610617221234
G3 X94.93522987045975 Y48.48615697231394 I-0.28702057404114806 J-0.6934213868427737
G3 X94.73964947929895 Y48.46075692151384 I0 J-0.7493014986029972
G3 X94.55930911861824 Y48.384556769113544 I0.19304038608077217 J-0.7239014478028956
G3 X94.40436880873762 Y48.26517653035306 I0.3759207518415037 J-0.6502413004826009
G3 X94.28498856997714 Y48.110236220472444 I0.5308610617221234 J-0.5308610617221234
G3 X94.20878841757684 Y47.92989585979172 I0.6502413004826009 J-0.3759207518415037
G3 X94.18338836677674 Y47.736855473710946 I0.7239014478028956 J-0.19304038608077217
G1 X94.18338836677674 Y47.73431546863094
G1 X94.18338836677674 Y47.73431546863094
G3 X94.20878841757684 Y47.541275082550165 I0.7493014986029972 J0
G3 X94.28498856997714 Y47.36093472186944 I0.7239014478028956 J0.19304038608077217
G3 X94.40436880873762 Y47.205994411988826 I0.6502413004826009 J0.3759207518415037
G3 X94.55930911861824 Y47.08661417322834 I0.5308610617221234 J0.5308610617221234
G3 X94.73964947929895 Y47.010414020828044 I0.3759207518415037 J0.6502413004826009
G3 X94.93522987045975 Y46.985013970027936 I0.19304038608077217 J0.7239014478028956
G0 Z3
G0 X2.8595377190754383 Y3.4005588011176022
G1 Z-0.24993649987299973 F800
G3 X2.573025146050292 Y3.3426466852933707 I0 J-0.7493014986029972 F800
G3 X2.329184658369317 Y3.1800863601727203 I0.28702057404114806 J-0.6934213868427737
G3 X2.1666243332486665 Y2.938785877571755 I0.5308610617221234 J-0.5308610617221234
G3 X2.1082042164084327 Y2.651765303530607 I0.6934213868427737 J-0.28702057404114806
G1 X2.1082042164084327 Y2.651765303530607
G3 X2.1361442722885444 Y2.456184912369825 I0.7493014986029972 J0
G3 X2.2098044196088393 Y2.2758445516891035 I0.7239014478028956 J0.19304038608077217
G3 X2.329184658369317 Y2.120904241808484 I0.6502413004826009 J0.3759207518415037
G3 X2.4841249682499362 Y2.001524003048006 I0.5308610617221234 J0.5308610617221234
G3 X2.664465328930658 Y1.9253238506477013 I0.3759207518415037 J0.6502413004826009
G3 X2.86004572009144 Y1.8999237998475995 I0.19304038608077217 J0.7239014478028956
G3 X3.147066294132588 Y1.9583439166878334 I0 J0.7493014986029972
G3 X3.3883667767335535 Y2.120904241808484 I-0.28702057404114806 J0.6934213868427737
G3 X3.550927101854204 Y2.364744729489459 I-0.5308610617221234 J0.5308610617221234
G3 X3.6093472186944373 Y2.651765303530607 I-0.6934213868427737 J0.28702057404114806
G3 X3.550927101854204 Y2.938785877571755 I-0.7493014986029972 J0
G3 X3.3883667767335535 Y3.1800863601727203 I-0.6934213868427737 J-0.28702057404114806
G3 X3.147066294132588 Y3.3426466852933707 I-0.5308610617221234 J-0.5308610617221234
G3 X2.86004572009144 Y3.401066802133604 I-0.28702057404114806 J-0.6934213868427737
G1 Z-0.49987299974599947 F800
G3 X2.573025146050292 Y3.3426466852933707 I0 J-0.7493014986029972 F800
G3 X2.329184658369317 Y3.1800863601727203 I0.28702057404114806 J-0.6934213868427737
G3 X2.1666243332486665 Y2.938785877571755 I0.5308610617221234 J-0.5308610617221234
G3 X2.1082042164084327 Y2.651765303530607 I0.6934213868427737 J-0.28702057404114806
G1 X2.1082042164084327 Y2.651765303530607
G3 X2.1361442722885444 Y2.456184912369825 I0.7493014986029972 J0
G3 X2.2098044196088393 Y2.2758445516891035 I0.7239014478028956 J0.19304038608077217
G3 X2.329184658369317 Y2.120904241808484 I0.6502413004826009 J0.3759207518415037
G3 X2.4841249682499362 Y2.001524003048006 I0.5308610617221234 J0.5308610617221234
G3 X2.664465328930658 Y1.9253238506477013 I0.3759207518415037 J0.6502413004826009
G3 X2.86004572009144 Y1.8999237998475995 I0.19304038608077217 J0.7239014478028956
G3 X3.147066294132588 Y1.9583439166878334 I0 J0.7493014986029972
G3 X3.3883667767335535 Y2.120904241808484 I-0.28702057404114806 J0.6934213868427737
G3 X3.550927101854204 Y2.364744729489459 I-0.5308610617221234 J0.5308610617221234
G3 X3.6093472186944373 Y2.651765303530607 I-0.6934213868427737 J0.28702057404114806
G3 X3.550927101854204 Y2.938785877571755 I-0.7493014986029972 J0
G3 X3.3883667767335535 Y3.1800863601727203 I-0.6934213868427737 J-0.28702057404114806
G3 X3.147066294132588 Y3.3426466852933707 I-0.5308610617221234 J-0.5308610617221234
G3 X2.86004572009144 Y3.401066802133604 I-0.28702057404114806 J-0.6934213868427737
G1 Z-0.7498094996189992 F800
G3 X2.573025146050292 Y3.3426466852933707 I0 J-0.7493014986029972 F800
G3 X2.329184658369317 Y3.1800863601727203 I0.28702057404114806 J-0.6934213868427737
G3 X2.1666243332486665 Y2.938785877571755 I0.5308610617221234 J-0.5308610617221234
G3 X2.1082042164084327 Y2.651765303530607 I0.6934213868427737 J-0.28702057404114806
G1 X2.1082042164084327 Y2.651765303530607
G3 X2.1361442722885444 Y2.456184912369825 I0.7493014986029972 J0
G3 X2.2098044196088393 Y2.2758445516891035 I0.7239014478028956 J0.19304038608077217
G3 X2.329184658369317 Y2.120904241808484 I0.6502413004826009 J0.3759207518415037
G3 X2.4841249682499362 Y2.001524003048006 I0.5308610617221234 J0.5308610617221234
G3 X2.664465328930658 Y1.9253238506477013 I0.3759207518415037 J0.6502413004826009
G3 X2.86004572009144 Y1.8999237998475995 I0.19304038608077217 J0.7239014478028956
G3 X3.147066294132588 Y1.9583439166878334 I0 J0.7493014986029972
G3 X3.3883667767335535 Y2.120904241808484 I-0.28702057404114806 J0.6934213868427737
G3 X3.550927101854204 Y2.364744729489459 I-0.5308610617221234 J0.5308610617221234
G3 X3.6093472186944373 Y2.651765303530607 I-0.6934213868427737 J0.28702057404114806
G3 X3.550927101854204 Y2.938785877571755 I-0.7493014986029972 J0
G3 X3.3883667767335535 Y3.1800863601727203 I-0.6934213868427737 J-0.28702057404114806
G3 X3.147066294132588 Y3.3426466852933707 I-0.5308610617221234 J-0.5308610617221234
G3 X2.86004572009144 Y3.401066802133604 I-0.28702057404114806 J-0.6934213868427737
G1 Z-0.9997459994919989 F800
G3 X2.573025146050292 Y3.3426466852933707 I0 J-0.7493014986029972 F800
G3 X2.329184658369317 Y3.1800863601727203 I0.28702057404114806 J-0.6934213868427737
G3 X2.1666243332486665 Y2.938785877571755 I0.5308610617221234 J-0.5308610617221234
G3 X2.1082042164084327 Y2.651765303530607 I0.6934213868427737 J-0.28702057404114806
G1 X2.1082042164084327 Y2.651765303530607
G3 X2.1361442722885444 Y2.456184912369825 I0.7493014986029972 J0
G3 X2.2098044196088393 Y2.2758445516891035 I0.7239014478028956 J0.19304038608077217
G3 X2.329184658369317 Y2.120904241808484 I0.6502413004826009 J0.3759207518415037
G3 X2.4841249682499362 Y2.001524003048006 I0.5308610617221234 J0.5308610617221234
G3 X2.664465328930658 Y1.9253238506477013 I0.3759207518415037 J0.6502413004826009
G3 X2.86004572009144 Y1.8999237998475995 I0.19304038608077217 J0.7239014478028956
G3 X3.147066294132588 Y1.9583439166878334 I0 J0.7493014986029972
G3 X3.3883667767335535 Y2.120904241808484 I-0.28702057404114806 J0.6934213868427737
G3 X3.550927101854204 Y2.364744729489459 I-0.5308610617221234 J0.5308610617221234
G3 X3.6093472186944373 Y2.651765303530607 I-0.6934213868427737 J0.28702057404114806
G3 X3.550927101854204 Y2.938785877571755 I-0.7493014986029972 J0
G3 X3.3883667767335535 Y3.1800863601727203 I-0.6934213868427737 J-0.28702057404114806
G3 X3.147066294132588 Y3.3426466852933707 I-0.5308610617221234 J-0.5308610617221234
G3 X2.86004572009144 Y3.401066802133604 I-0.28702057404114806 J-0.6934213868427737
G1 Z-1.2496824993649986 F800
G3 X2.573025146050292 Y3.3426466852933707 I0 J-0.7493014986029972 F800
G3 X2.329184658369317 Y3.1800863601727203 I0.28702057404114806 J-0.6934213868427737
G3 X2.1666243332486665 Y2.938785877571755 I0.5308610617221234 J-0.5308610617221234
G3 X2.1082042164084327 Y2.651765303530607 I0.6934213868427737 J-0.28702057404114806
G1 X2.1082042164084327 Y2.651765303530607
G3 X2.1361442722885444 Y2.456184912369825 I0.7493014986029972 J0
G3 X2.2098044196088393 Y2.2758445516891035 I0.7239014478028956 J0.19304038608077217
G3 X2.329184658369317 Y2.120904241808484 I0.6502413004826009 J0.3759207518415037
G3 X2.4841249682499362 Y2.001524003048006 I0.5308610617221234 J0.5308610617221234
G3 X2.664465328930658 Y1.9253238506477013 I0.3759207518415037 J0.6502413004826009
G3 X2.86004572009144 Y1.8999237998475995 I0.19304038608077217 J0.7239014478028956
G3 X3.147066294132588 Y1.9583439166878334 I0 J0.7493014986029972
G3 X3.3883667767335535 Y2.120904241808484 I-0.28702057404114806 J0.6934213868427737
G3 X3.550927101854204 Y2.364744729489459 I-0.5308610617221234 J0.5308610617221234
G3 X3.6093472186944373 Y2.651765303530607 I-0.6934213868427737 J0.28702057404114806
G3 X3.550927101854204 Y2.938785877571755 I-0.7493014986029972 J0
G3 X3.3883667767335535 Y3.1800863601727203 I-0.6934213868427737 J-0.28702057404114806
G3 X3.147066294132588 Y3.3426466852933707 I-0.5308610617221234 J-0.5308610617221234
G3 X2.86004572009144 Y3.401066802133604 I-0.28702057404114806 J-0.6934213868427737
G1 Z-1.4996189992379985 F800
G3 X2.573025146050292 Y3.3426466852933707 I0 J-0.7493014986029972 F800
G3 X2.329184658369317 Y3.1800863601727203 I0.28702057404114806 J-0.6934213868427737
G3 X2.1666243332486665 Y2.938785877571755 I0.5308610617221234 J-0.5308610617221234
G3 X2.1082042164084327 Y2.651765303530607 I0.6934213868427737 J-0.28702057404114806
G1 X2.1082042164084327 Y2.651765303530607
G3 X2.1361442722885444 Y2.456184912369825 I0.7493014986029972 J0
G3 X2.2098044196088393 Y2.2758445516891035 I0.7239014478028956 J0.19304038608077217
G3 X2.329184658369317 Y2.120904241808484 I0.6502413004826009 J0.3759207518415037
G3 X2.4841249682499362 Y2.001524003048006 I0.5308610617221234 J0.5308610617221234
G3 X2.664465328930658 Y1.9253238506477013 I0.3759207518415037 J0.6502413004826009
G3 X2.86004572009144 Y1.8999237998475995 I0.19304038608077217 J0.7239014478028956
G3 X3.147066294132588 Y1.9583439166878334 I0 J0.7493014986029972
G3 X3.3883667767335535 Y2.120904241808484 I-0.28702057404114806 J0.6934213868427737
G3 X3.550927101854204 Y2.364744729489459 I-0.5308610617221234 J0.5308610617221234
G3 X3.6093472186944373 Y2.651765303530607 I-0.6934213868427737 J0.28702057404114806
G3 X3.550927101854204 Y2.938785877571755 I-0.7493014986029972 J0
G3 X3.3883667767335535 Y3.1800863601727203 I-0.6934213868427737 J-0.28702057404114806
G3 X3.147066294132588 Y3.3426466852933707 I-0.5308610617221234 J-0.5308610617221234
G3 X2.86004572009144 Y3.401066802133604 I-0.28702057404114806 J-0.6934213868427737
G1 Z-1.7495554991109983 F800
G3 X2.573025146050292 Y3.3426466852933707 I0 J-0.7493014986029972 F800
G3 X2.329184658369317 Y3.1800863601727203 I0.28702057404114806 J-0.6934213868427737
G3 X2.1666243332486665 Y2.938785877571755 I0.5308610617221234 J-0.5308610617221234
G3 X2.1082042164084327 Y2.651765303530607 I0.6934213868427737 J-0.28702057404114806
G1 X2.1082042164084327 Y2.651765303530607
G3 X2.1361442722885444 Y2.456184912369825 I0.7493014986029972 J0
G3 X2.2098044196088393 Y2.2758445516891035 I0.7239014478028956 J0.19304038608077217
G3 X2.329184658369317 Y2.120904241808484 I0.6502413004826009 J0.3759207518415037
G3 X2.4841249682499362 Y2.001524003048006 I0.5308610617221234 J0.5308610617221234
G3 X2.664465328930658 Y1.9253238506477013 I0.3759207518415037 J0.6502413004826009
G3 X2.86004572009144 Y1.8999237998475995 I0.19304038608077217 J0.7239014478028956
G3 X3.147066294132588 Y1.9583439166878334 I0 J0.7493014986029972
G3 X3.3883667767335535 Y2.120904241808484 I-0.28702057404114806 J0.6934213868427737
G3 X3.550927101854204 Y2.364744729489459 I-0.5308610617221234 J0.5308610617221234
G3 X3.6093472186944373 Y2.651765303530607 I-0.6934213868427737 J0.28702057404114806
G3 X3.550927101854204 Y2.938785877571755 I-0.7493014986029972 J0
G3 X3.3883667767335535 Y3.1800863601727203 I-0.6934213868427737 J-0.28702057404114806
G3 X3.147066294132588 Y3.3426466852933707 I-0.5308610617221234 J-0.5308610617221234
G3 X2.86004572009144 Y3.401066802133604 I-0.28702057404114806 J-0.6934213868427737
G1 Z-1.9994919989839979 F800
G3 X2.573025146050292 Y3.3426466852933707 I0 J-0.7493014986029972 F800
G3 X2.329184658369317 Y3.1800863601727203 I0.28702057404114806 J-0.6934213868427737
G3 X2.1666243332486665 Y2.938785877571755 I0.5308610617221234 J-0.5308610617221234
G3 X2.1082042164084327 Y2.651765303530607 I0.6934213868427737 J-0.28702057404114806
G1 X2.1082042164084327 Y2.651765303530607
G3 X2.1361442722885444 Y2.456184912369825 I0.7493014986029972 J0
G3 X2.2098044196088393 Y2.2758445516891035 I0.7239014478028956 J0.19304038608077217
G3 X2.329184658369317 Y2.120904241808484 I0.6502413004826009 J0.3759207518415037
G3 X2.4841249682499362 Y2.001524003048006 I0.5308610617221234 J0.5308610617221234
G3 X2.664465328930658 Y1.9253238506477013 I0.3759207518415037 J0.6502413004826009
G3 X2.86004572009144 Y1.8999237998475995 I0.19304038608077217 J0.7239014478028956
G3 X3.147066294132588 Y1.9583439166878334 I0 J0.7493014986029972
G3 X3.3883667767335535 Y2.120904241808484 I-0.28702057404114806 J0.6934213868427737
G3 X3.550927101854204 Y2.364744729489459 I-0.5308610617221234 J0.5308610617221234
G3 X3.6093472186944373 Y2.651765303530607 I-0.6934213868427737 J0.28702057404114806
G3 X3.550927101854204 Y2.938785877571755 I-0.7493014986029972 J0
G3 X3.3883667767335535 Y3.1800863601727203 I-0.6934213868427737 J-0.28702057404114806
G3 X3.147066294132588 Y3.3426466852933707 I-0.5308610617221234 J-0.5308610617221234
G3 X2.86004572009144 Y3.401066802133604 I-0.28702057404114806 J-0.6934213868427737
G1 Z-2.249428498856998 F800
G3 X2.573025146050292 Y3.3426466852933707 I0 J-0.7493014986029972 F800
G3 X2.329184658369317 Y3.1800863601727203 I0.28702057404114806 J-0.6934213868427737
G3 X2.1666243332486665 Y2.938785877571755 I0.5308610617221234 J-0.5308610617221234
G3 X2.1082042164084327 Y2.651765303530607 I0.6934213868427737 J-0.28702057404114806
G1 X2.1082042164084327 Y2.651765303530607
G3 X2.1361442722885444 Y2.456184912369825 I0.7493014986029972 J0
G3 X2.2098044196088393 Y2.2758445516891035 I0.7239014478028956 J0.19304038608077217
G3 X2.329184658369317 Y2.120904241808484 I0.6502413004826009 J0.3759207518415037
G3 X2.4841249682499362 Y2.001524003048006 I0.5308610617221234 J0.5308610617221234
G3 X2.664465328930658 Y1.9253238506477013 I0.3759207518415037 J0.6502413004826009
G3 X2.86004572009144 Y1.8999237998475995 I0.19304038608077217 J0.7239014478028956
G3 X3.147066294132588 Y1.9583439166878334 I0 J0.7493014986029972
G3 X3.3883667767335535 Y2.120904241808484 I-0.28702057404114806 J0.6934213868427737
G3 X3.550927101854204 Y2.364744729489459 I-0.5308610617221234 J0.5308610617221234
G3 X3.6093472186944373 Y2.651765303530607 I-0.6934213868427737 J0.28702057404114806
G3 X3.550927101854204 Y2.938785877571755 I-0.7493014986029972 J0
G3 X3.3883667767335535 Y3.1800863601727203 I-0.6934213868427737 J-0.28702057404114806
G3 X3.147066294132588 Y3.3426466852933707 I-0.5308610617221234 J-0.5308610617221234
G3 X2.86004572009144 Y3.401066802133604 I-0.28702057404114806 J-0.6934213868427737
G1 Z-2.4993649987299973 F800
G3 X2.573025146050292 Y3.3426466852933707 I0 J-0.7493014986029972 F800
G3 X2.329184658369317 Y3.1800863601727203 I0.28702057404114806 J-0.6934213868427737
G3 X2.1666243332486665 Y2.938785877571755 I0.5308610617221234 J-0.5308610617221234
G3 X2.1082042164084327 Y2.651765303530607 I0.6934213868427737 J-0.28702057404114806
G1 X2.1082042164084327 Y2.651765303530607
G3 X2.1361442722885444 Y2.456184912369825 I0.7493014986029972 J0
G3 X2.2098044196088393 Y2.2758445516891035 I0.7239014478028956 J0.19304038608077217
G3 X2.329184658369317 Y2.120904241808484 I0.6502413004826009 J0.3759207518415037
G3 X2.4841249682499362 Y2.001524003048006 I0.5308610617221234 J0.5308610617221234
G3 X2.664465328930658 Y1.9253238506477013 I0.3759207518415037 J0.6502413004826009
G3 X2.86004572009144 Y1.8999237998475995 I0.19304038608077217 J0.7239014478028956
G3 X3.147066294132588 Y1.9583439166878334 I0 J0.7493014986029972
G3 X3.3883667767335535 Y2.120904241808484 I-0.28702057404114806 J0.6934213868427737
G3 X3.550927101854204 Y2.364744729489459 I-0.5308610617221234 J0.5308610617221234
G3 X3.6093472186944373 Y2.651765303530607 I-0.6934213868427737 J0.28702057404114806
G3 X3.550927101854204 Y2.938785877571755 I-0.7493014986029972 J0
G3 X3.3883667767335535 Y3.1800863601727203 I-0.6934213868427737 J-0.28702057404114806
G3 X3.147066294132588 Y3.3426466852933707 I-0.5308610617221234 J-0.5308610617221234
G3 X2.86004572009144 Y3.401066802133604 I-0.28702057404114806 J-0.6934213868427737
G1 Z-2.749301498602997 F800
G3 X2.573025146050292 Y3.3426466852933707 I0 J-0.7493014986029972 F800
G3 X2.329184658369317 Y3.1800863601727203 I0.28702057404114806 J-0.6934213868427737
G3 X2.1666243332486665 Y2.938785877571755 I0.5308610617221234 J-0.5308610617221234
G3 X2.1082042164084327 Y2.651765303530607 I0.6934213868427737 J-0.28702057404114806
G1 X2.1082042164084327 Y2.651765303530607
G3 X2.1361442722885444 Y2.456184912369825 I0.7493014986029972 J0
G3 X2.2098044196088393 Y2.2758445516891035 I0.7239014478028956 J0.19304038608077217
G3 X2.329184658369317 Y2.120904241808484 I0.6502413004826009 J0.3759207518415037
G3 X2.4841249682499362 Y2.001524003048006 I0.5308610617221234 J0.5308610617221234
G3 X2.664465328930658 Y1.9253238506477013 I0.3759207518415037 J0.6502413004826009
G3 X2.86004572009144 Y1.8999237998475995 I0.19304038608077217 J0.7239014478028956
G3 X3.147066294132588 Y1.9583439166878334 I0 J0.7493014986029972
G3 X3.3883667767335535 Y2.120904241808484 I-0.28702057404114806 J0.6934213868427737
G3 X3.550927101854204 Y2.364744729489459 I-0.5308610617221234 J0.5308610617221234
G3 X3.6093472186944373 Y2.651765303530607 I-0.6934213868427737 J0.28702057404114806
G3 X3.550927101854204 Y2.938785877571755 I-0.7493014986029972 J0
G3 X3.3883667767335535 Y3.1800863601727203 I-0.6934213868427737 J-0.28702057404114806
G3 X3.147066294132588 Y3.3426466852933707 I-0.5308610617221234 J-0.5308610617221234
G3 X2.86004572009144 Y3.401066802133604 I-0.28702057404114806 J-0.6934213868427737
G1 Z-2.999237998475997 F800
G3 X2.573025146050292 Y3.3426466852933707 I0 J-0.7493014986029972 F800
G3 X2.329184658369317 Y3.1800863601727203 I0.28702057404114806 J-0.6934213868427737
G3 X2.1666243332486665 Y2.938785877571755 I0.5308610617221234 J-0.5308610617221234
G3 X2.1082042164084327 Y2.651765303530607 I0.6934213868427737 J-0.28702057404114806
G1 X2.1082042164084327 Y2.651765303530607
G3 X2.1361442722885444 Y2.456184912369825 I0.7493014986029972 J0
G3 X2.2098044196088393 Y2.2758445516891035 I0.7239014478028956 J0.19304038608077217
G3 X2.329184658369317 Y2.120904241808484 I0.6502413004826009 J0.3759207518415037
G3 X2.4841249682499362 Y2.001524003048006 I0.5308610617221234 J0.5308610617221234
G3 X2.664465328930658 Y1.9253238506477013 I0.3759207518415037 J0.6502413004826009
G3 X2.86004572009144 Y1.8999237998475995 I0.19304038608077217 J0.7239014478028956
G3 X3.147066294132588 Y1.9583439166878334 I0 J0.7493014986029972
G3 X3.3883667767335535 Y2.120904241808484 I-0.28702057404114806 J0.6934213868427737
G3 X3.550927101854204 Y2.364744729489459 I-0.5308610617221234 J0.5308610617221234
G3 X3.6093472186944373 Y2.651765303530607 I-0.6934213868427737 J0.28702057404114806
G3 X3.550927101854204 Y2.938785877571755 I-0.7493014986029972 J0
G3 X3.3883667767335535 Y3.1800863601727203 I-0.6934213868427737 J-0.28702057404114806
G3 X3.147066294132588 Y3.3426466852933707 I-0.5308610617221234 J-0.5308610617221234
G3 X2.86004572009144 Y3.401066802133604 I-0.28702057404114806 J-0.6934213868427737
G1 Z-3 F800
G3 X2.573025146050292 Y3.3426466852933707 I0 J-0.7493014986029972 F800
G3 X2.329184658369317 Y3.1800863601727203 I0.28702057404114806 J-0.6934213868427737
G3 X2.1666243332486665 Y2.938785877571755 I0.5308610617221234 J-0.5308610617221234
G3 X2.1082042164084327 Y2.651765303530607 I0.6934213868427737 J-0.28702057404114806
G1 X2.1082042164084327 Y2.651765303530607
G3 X2.1361442722885444 Y2.456184912369825 I0.7493014986029972 J0
G3 X2.2098044196088393 Y2.2758445516891035 I0.7239014478028956 J0.19304038608077217
G3 X2.329184658369317 Y2.120904241808484 I0.6502413004826009 J0.3759207518415037
G3 X2.4841249682499362 Y2.001524003048006 I0.5308610617221234 J0.5308610617221234
G3 X2.664465328930658 Y1.9253238506477013 I0.3759207518415037 J0.6502413004826009
G3 X2.86004572009144 Y1.8999237998475995 I0.19304038608077217 J0.7239014478028956
G3 X3.147066294132588 Y1.9583439166878334 I0 J0.7493014986029972
G3 X3.3883667767335535 Y2.120904241808484 I-0.28702057404114806 J0.6934213868427737
G3 X3.550927101854204 Y2.364744729489459 I-0.5308610617221234 J0.5308610617221234
G3 X3.6093472186944373 Y2.651765303530607 I-0.6934213868427737 J0.28702057404114806
G3 X3.550927101854204 Y2.938785877571755 I-0.7493014986029972 J0
G3 X3.3883667767335535 Y3.1800863601727203 I-0.6934213868427737 J-0.28702057404114806
G3 X3.147066294132588 Y3.3426466852933707 I-0.5308610617221234 J-0.5308610617221234
G3 X2.86004572009144 Y3.401066802133604 I-0.28702057404114806 J-0.6934213868427737
G0 Z3
G0 X2.859283718567437 Y46.98526797053594
G1 Z-0.24993649987299973 F800
G3 X3.147066294132588 Y47.043434086868174 I0 J0.7493014986029972 F800
G3 X3.3883667767335535 Y47.205994411988826 I-0.28702057404114806 J0.6934213868427737
G3 X3.550927101854204 Y47.44729489458979 I-0.5308610617221234 J0.5308610617221234
G3 X3.6093472186944373 Y47.73431546863094 I-0.6934213868427737 J0.28702057404114806
G1 X3.6093472186944373 Y47.73431546863094
G1 X3.6093472186944373 Y47.736855473710946
G3 X3.550927101854204 Y48.02133604267208 I-0.7493014986029972 J0
G3 X3.3883667767335535 Y48.26517653035306 I-0.6934213868427737 J-0.28702057404114806
G3 X3.147066294132588 Y48.42773685547371 I-0.5308610617221234 J-0.5308610617221234
G3 X2.86004572009144 Y48.48615697231394 I-0.28702057404114806 J-0.6934213868427737
G3 X2.664465328930658 Y48.46075692151384 I0 J-0.7493014986029972
G3 X2.4841249682499362 Y48.384556769113544 I0.19304038608077217 J-0.7239014478028956
G3 X2.329184658369317 Y48.26517653035306 I0.3759207518415037 J-0.6502413004826009
G3 X2.2098044196088393 Y48.110236220472444 I0.5308610617221234 J-0.5308610617221234
G3 X2.1361442722885444 Y47.92989585979172 I0.6502413004826009 J-0.3759207518415037
G3 X2.1082042164084327 Y47.736855473710946 I0.7239014478028956 J-0.19304038608077217
G1 X2.1082042164084327 Y47.73431546863094
G1 X2.1082042164084327 Y47.73431546863094
G3 X2.1361442722885444 Y47.541275082550165 I0.7493014986029972 J0
G3 X2.2098044196088393 Y47.36093472186944 I0.7239014478028956 J0.19304038608077217
G3 X2.329184658369317 Y47.205994411988826 I0.6502413004826009 J0.3759207518415037
G3 X2.4841249682499362 Y47.08661417322834 I0.5308610617221234 J0.5308610617221234
G3 X2.664465328930658 Y47.010414020828044 I0.3759207518415037 J0.6502413004826009
G3 X2.86004572009144 Y46.985013970027936 I0.19304038608077217 J0.7239014478028956
G1 Z-0.49987299974599947 F800
G3 X3.147066294132588 Y47.043434086868174 I0 J0.7493014986029972 F800
G3 X3.3883667767335535 Y47.205994411988826 I-0.28702057404114806 J0.6934213868427737
G3 X3.550927101854204 Y47.44729489458979 I-0.5308610617221234 J0.5308610617221234
G3 X3.6093472186944373 Y47.73431546863094 I-0.6934213868427737 J0.28702057404114806
G1 X3.6093472186944373 Y47.73431546863094
G1 X3.6093472186944373 Y47.736855473710946
G3 X3.550927101854204 Y48.02133604267208 I-0.7493014986029972 J0
G3 X3.3883667767335535 Y48.26517653035306 I-0.6934213868427737 J-0.28702057404114806
G3 X3.147066294132588 Y48.42773685547371 I-0.5308610617221234 J-0.5308610617221234
G3 X2.86004572009144 Y48.48615697231394 I-0.28702057404114806 J-0.6934213868427737
G3 X2.664465328930658 Y48.46075692151384 I0 J-0.7493014986029972
G3 X2.4841249682499362 Y48.384556769113544 I0.19304038608077217 J-0.7239014478028956
G3 X2.329184658369317 Y48.26517653035306 I0.3759207518415037 J-0.6502413004826009
G3 X2.2098044196088393 Y48.110236220472444 I0.5308610617221234 J-0.5308610617221234
G3 X2.1361442722885444 Y47.92989585979172 I0.6502413004826009 J-0.3759207518415037
G3 X2.1082042164084327 Y47.736855473710946 I0.7239014478028956 J-0.19304038608077217
G1 X2.1082042164084327 Y47.73431546863094
G1 X2.1082042164084327 Y47.73431546863094
G3 X2.1361442722885444 Y47.541275082550165 I0.7493014986029972 J0
G3 X2.2098044196088393 Y47.36093472186944 I0.7239014478028956 J0.19304038608077217
G3 X2.329184658369317 Y47.205994411988826 I0.6502413004826009 J0.3759207518415037
G3 X2.4841249682499362 Y47.08661417322834 I0.5308610617221234 J0.5308610617221234
G3 X2.664465328930658 Y47.010414020828044 I0.3759207518415037 J0.6502413004826009
G3 X2.86004572009144 Y46.985013970027936 I0.19304038608077217 J0.7239014478028956
G1 Z-0.7498094996189992 F800
G3 X3.147066294132588 Y47.043434086868174 I0 J0.7493014986029972 F800
G3 X3.3883667767335535 Y47.205994411988826 I-0.28702057404114806 J0.6934213868427737
G3 X3.550927101854204 Y47.44729489458979 I-0.5308610617221234 J0.5308610617221234
G3 X3.6093472186944373 Y47.73431546863094 I-0.6934213868427737 J0.28702057404114806
G1 X3.6093472186944373 Y47.73431546863094
G1 X3.6093472186944373 Y47.736855473710946
G3 X3.550927101854204 Y48.02133604267208 I-0.7493014986029972 J0
G3 X3.3883667767335535 Y48.26517653035306 I-0.6934213868427737 J-0.28702057404114806
G3 X3.147066294132588 Y48.42773685547371 I-0.5308610617221234 J-0.5308610617221234
G3 X2.86004572009144 Y48.48615697231394 I-0.28702057404114806 J-0.6934213868427737
G3 X2.664465328930658 Y48.46075692151384 I0 J-0.7493014986029972
G3 X2.4841249682499362 Y48.384556769113544 I0.19304038608077217 J-0.7239014478028956
G3 X2.329184658369317 Y48.26517653035306 I0.3759207518415037 J-0.6502413004826009
G3 X2.2098044196088393 Y48.110236220472444 I0.5308610617221234 J-0.5308610617221234
G3 X2.1361442722885444 Y47.92989585979172 I0.6502413004826009 J-0.3759207518415037
G3 X2.1082042164084327 Y47.736855473710946 I0.7239014478028956 J-0.19304038608077217
G1 X2.1082042164084327 Y47.73431546863094
G1 X2.1082042164084327 Y47.73431546863094
G3 X2.1361442722885444 Y47.541275082550165 I0.7493014986029972 J0
G3 X2.2098044196088393 Y47.36093472186944 I0.7239014478028956 J0.19304038608077217
G3 X2.329184658369317 Y47.205994411988826 I0.6502413004826009 J0.3759207518415037
G3 X2.4841249682499362 Y47.08661417322834 I0.5308610617221234 J0.5308610617221234
G3 X2.664465328930658 Y47.010414020828044 I0.3759207518415037 J0.6502413004826009
G3 X2.86004572009144 Y46.985013970027936 I0.19304038608077217 J0.7239014478028956
G1 Z-0.9997459994919989 F800
G3 X3.147066294132588 Y47.043434086868174 I0 J0.7493014986029972 F800
G3 X3.3883667767335535 Y47.205994411988826 I-0.28702057404114806 J0.6934213868427737
G3 X3.550927101854204 Y47.44729489458979 I-0.5308610617221234 J0.5308610617221234
G3 X3.6093472186944373 Y47.73431546863094 I-0.6934213868427737 J0.28702057404114806
G1 X3.6093472186944373 Y47.73431546863094
G1 X3.6093472186944373 Y47.736855473710946
G3 X3.550927101854204 Y48.02133604267208 I-0.7493014986029972 J0
G3 X3.3883667767335535 Y48.26517653035306 I-0.6934213868427737 J-0.28702057404114806
G3 X3.147066294132588 Y48.42773685547371 I-0.5308610617221234 J-0.5308610617221234
G3 X2.86004572009144 Y48.48615697231394 I-0.28702057404114806 J-0.6934213868427737
G3 X2.664465328930658 Y48.46075692151384 I0 J-0.7493014986029972
G3 X2.4841249682499362 Y48.384556769113544 I0.19304038608077217 J-0.7239014478028956
G3 X2.329184658369317 Y48.26517653035306 I0.3759207518415037 J-0.6502413004826009
G3 X2.2098044196088393 Y48.110236220472444 I0.5308610617221234 J-0.5308610617221234
G3 X2.1361442722885444 Y47.92989585979172 I0.6502413004826009 J-0.3759207518415037
G3 X2.1082042164084327 Y47.736855473710946 I0.7239014478028956 J-0.19304038608077217
G1 X2.1082042164084327 Y47.73431546863094
G1 X2.1082042164084327 Y47.73431546863094
G3 X2.1361442722885444 Y47.541275082550165 I0.7493014986029972 J0
G3 X2.2098044196088393 Y47.36093472186944 I0.7239014478028956 J0.19304038608077217
G3 X2.329184658369317 Y47.205994411988826 I0.6502413004826009 J0.3759207518415037
G3 X2.4841249682499362 Y47.08661417322834 I0.5308610617221234 J0.5308610617221234
G3 X2.664465328930658 Y47.010414020828044 I0.3759207518415037 J0.6502413004826009
G3 X2.86004572009144 Y46.985013970027936 I0.19304038608077217 J0.7239014478028956
G1 Z-1.2496824993649986 F800
G3 X3.147066294132588 Y47.043434086868174 I0 J0.7493014986029972 F800
G3 X3.3883667767335535 Y47.205994411988826 I-0.28702057404114806 J0.6934213868427737
G3 X3.550927101854204 Y47.44729489458979 I-0.5308610617221234 J0.5308610617221234
G3 X3.6093472186944373 Y47.73431546863094 I-0.6934213868427737 J0.28702057404114806
G1 X3.6093472186944373 Y47.73431546863094
G1 X3.6093472186944373 Y47.736855473710946
G3 X3.550927101854204 Y48.02133604267208 I-0.7493014986029972 J0
G3 X3.3883667767335535 Y48.26517653035306 I-0.6934213868427737 J-0.28702057404114806
G3 X3.147066294132588 Y48.42773685547371 I-0.5308610617221234 J-0.5308610617221234
G3 X2.86004572009144 Y48.48615697231394 I-0.28702057404114806 J-0.6934213868427737
G3 X2.664465328930658 Y48.46075692151384 I0 J-0.7493014986029972
G3 X2.4841249682499362 Y48.384556769113544 I0.19304038608077217 J-0.7239014478028956
G3 X2.329184658369317 Y48.26517653035306 I0.3759207518415037 J-0.6502413004826009
G3 X2.2098044196088393 Y48.110236220472444 I0.5308610617221234 J-0.5308610617221234
G3 X2.1361442722885444 Y47.92989585979172 I0.6502413004826009 J-0.3759207518415037
G3 X2.1082042164084327 Y47.736855473710946 I0.7239014478028956 J-0.19304038608077217
G1 X2.1082042164084327 Y47.73431546863094
G1 X2.1082042164084327 Y47.73431546863094
G3 X2.1361442722885444 Y47.541275082550165 I0.7493014986029972 J0
G3 X2.2098044196088393 Y47.36093472186944 I0.7239014478028956 J0.19304038608077217
G3 X2.329184658369317 Y47.205994411988826 I0.6502413004826009 J0.3759207518415037
G3 X2.4841249682499362 Y47.08661417322834 I0.5308610617221234 J0.5308610617221234
G3 X2.664465328930658 Y47.010414020828044 I0.3759207518415037 J0.6502413004826009
G3 X2.86004572009144 Y46.985013970027936 I0.19304038608077217 J0.7239014478028956
G1 Z-1.4996189992379985 F800
G3 X3.147066294132588 Y47.043434086868174 I0 J0.7493014986029972 F800
G3 X3.3883667767335535 Y47.205994411988826 I-0.28702057404114806 J0.6934213868427737
G3 X3.550927101854204 Y47.44729489458979 I-0.5308610617221234 J0.5308610617221234
G3 X3.6093472186944373 Y47.73431546863094 I-0.6934213868427737 J0.28702057404114806
G1 X3.6093472186944373 Y47.73431546863094
G1 X3.6093472186944373 Y47.736855473710946
G3 X3.550927101854204 Y48.02133604267208 I-0.7493014986029972 J0
G3 X3.3883667767335535 Y48.26517653035306 I-0.6934213868427737 J-0.28702057404114806
G3 X3.147066294132588 Y48.42773685547371 I-0.5308610617221234 J-0.5308610617221234
G3 X2.86004572009144 Y48.48615697231394 I-0.28702057404114806 J-0.6934213868427737
G3 X2.664465328930658 Y48.46075692151384 I0 J-0.7493014986029972
G3 X2.4841249682499362 Y48.384556769113544 I0.19304038608077217 J-0.7239014478028956
G3 X2.329184658369317 Y48.26517653035306 I0.3759207518415037 J-0.6502413004826009
G3 X2.2098044196088393 Y48.110236220472444 I0.5308610617221234 J-0.5308610617221234
G3 X2.1361442722885444 Y47.92989585979172 I0.6502413004826009 J-0.3759207518415037
G3 X2.1082042164084327 Y47.736855473710946 I0.7239014478028956 J-0.19304038608077217
G1 X2.1082042164084327 Y47.73431546863094
G1 X2.1082042164084327 Y47.73431546863094
G3 X2.1361442722885444 Y47.541275082550165 I0.7493014986029972 J0
G3 X2.2098044196088393 Y47.36093472186944 I0.7239014478028956 J0.19304038608077217
G3 X2.329184658369317 Y47.205994411988826 I0.6502413004826009 J0.3759207518415037
G3 X2.4841249682499362 Y47.08661417322834 I0.5308610617221234 J0.5308610617221234
G3 X2.664465328930658 Y47.010414020828044 I0.3759207518415037 J0.6502413004826009
G3 X2.86004572009144 Y46.985013970027936 I0.19304038608077217 J0.7239014478028956
G1 Z-1.7495554991109983 F800
G3 X3.147066294132588 Y47.043434086868174 I0 J0.7493014986029972 F800
G3 X3.3883667767335535 Y47.205994411988826 I-0.28702057404114806 J0.6934213868427737
G3 X3.550927101854204 Y47.44729489458979 I-0.5308610617221234 J0.5308610617221234
G3 X3.6093472186944373 Y47.73431546863094 I-0.6934213868427737 J0.28702057404114806
G1 X3.6093472186944373 Y47.73431546863094
G1 X3.6093472186944373 Y47.736855473710946
G3 X3.550927101854204 Y48.02133604267208 I-0.7493014986029972 J0
G3 X3.3883667767335535 Y48.26517653035306 I-0.6934213868427737 J-0.28702057404114806
G3 X3.147066294132588 Y48.42773685547371 I-0.5308610617221234 J-0.5308610617221234
G3 X2.86004572009144 Y48.48615697231394 I-0.28702057404114806 J-0.6934213868427737
G3 X2.664465328930658 Y48.46075692151384 I0 J-0.7493014986029972
G3 X2.4841249682499362 Y48.384556769113544 I0.19304038608077217 J-0.7239014478028956
G3 X2.329184658369317 Y48.26517653035306 I0.3759207518415037 J-0.6502413004826009
G3 X2.2098044196088393 Y48.110236220472444 I0.5308610617221234 J-0.5308610617221234
G3 X2.1361442722885444 Y47.92989585979172 I0.6502413004826009 J-0.3759207518415037
G3 X2.1082042164084327 Y47.736855473710946 I0.7239014478028956 J-0.19304038608077217
G1 X2.1082042164084327 Y47.73431546863094
G1 X2.1082042164084327 Y47.73431546863094
G3 X2.1361442722885444 Y47.541275082550165 I0.7493014986029972 J0
G3 X2.2098044196088393 Y47.36093472186944 I0.7239014478028956 J0.19304038608077217
G3 X2.329184658369317 Y47.205994411988826 I0.6502413004826009 J0.3759207518415037
G3 X2.4841249682499362 Y47.08661417322834 I0.5308610617221234 J0.5308610617221234
G3 X2.664465328930658 Y47.010414020828044 I0.3759207518415037 J0.6502413004826009
G3 X2.86004572009144 Y46.985013970027936 I0.19304038608077217 J0.7239014478028956
G1 Z-1.9994919989839979 F800
G3 X3.147066294132588 Y47.043434086868174 I0 J0.7493014986029972 F800
G3 X3.3883667767335535 Y47.205994411988826 I-0.28702057404114806 J0.6934213868427737
G3 X3.550927101854204 Y47.44729489458979 I-0.5308610617221234 J0.5308610617221234
G3 X3.6093472186944373 Y47.73431546863094 I-0.6934213868427737 J0.28702057404114806
G1 X3.6093472186944373 Y47.73431546863094
G1 X3.6093472186944373 Y47.736855473710946
G3 X3.550927101854204 Y48.02133604267208 I-0.7493014986029972 J0
G3 X3.3883667767335535 Y48.26517653035306 I-0.6934213868427737 J-0.28702057404114806
G3 X3.147066294132588 Y48.42773685547371 I-0.5308610617221234 J-0.5308610617221234
G3 X2.86004572009144 Y48.48615697231394 I-0.28702057404114806 J-0.6934213868427737
G3 X2.664465328930658 Y48.46075692151384 I0 J-0.7493014986029972
G3 X2.4841249682499362 Y48.384556769113544 I0.19304038608077217 J-0.7239014478028956
G3 X2.329184658369317 Y48.26517653035306 I0.3759207518415037 J-0.6502413004826009
G3 X2.2098044196088393 Y48.110236220472444 I0.5308610617221234 J-0.5308610617221234
G3 X2.1361442722885444 Y47.92989585979172 I0.6502413004826009 J-0.3759207518415037
G3 X2.1082042164084327 Y47.736855473710946 I0.7239014478028956 J-0.19304038608077217
G1 X2.1082042164084327 Y47.73431546863094
G1 X2.1082042164084327 Y47.73431546863094
G3 X2.1361442722885444 Y47.541275082550165 I0.7493014986029972 J0
G3 X2.2098044196088393 Y47.36093472186944 I0.7239014478028956 J0.19304038608077217
G3 X2.329184658369317 Y47.205994411988826 I0.6502413004826009 J0.3759207518415037
G3 X2.4841249682499362 Y47.08661417322834 I0.5308610617221234 J0.5308610617221234
G3 X2.664465328930658 Y47.010414020828044 I0.3759207518415037 J0.6502413004826009
G3 X2.86004572009144 Y46.985013970027936 I0.19304038608077217 J0.7239014478028956
G1 Z-2.249428498856998 F800
G3 X3.147066294132588 Y47.043434086868174 I0 J0.7493014986029972 F800
G3 X3.3883667767335535 Y47.205994411988826 I-0.28702057404114806 J0.6934213868427737
G3 X3.550927101854204 Y47.44729489458979 I-0.5308610617221234 J0.5308610617221234
G3 X3.6093472186944373 Y47.73431546863094 I-0.6934213868427737 J0.28702057404114806
G1 X3.6093472186944373 Y47.73431546863094
G1 X3.6093472186944373 Y47.736855473710946
G3 X3.550927101854204 Y48.02133604267208 I-0.7493014986029972 J0
G3 X3.3883667767335535 Y48.26517653035306 I-0.6934213868427737 J-0.28702057404114806
G3 X3.147066294132588 Y48.42773685547371 I-0.5308610617221234 J-0.5308610617221234
G3 X2.86004572009144 Y48.48615697231394 I-0.28702057404114806 J-0.6934213868427737
G3 X2.664465328930658 Y48.46075692151384 I0 J-0.7493014986029972
G3 X2.4841249682499362 Y48.384556769113544 I0.19304038608077217 J-0.7239014478028956
G3 X2.329184658369317 Y48.26517653035306 I0.3759207518415037 J-0.6502413004826009
G3 X2.2098044196088393 Y48.110236220472444 I0.5308610617221234 J-0.5308610617221234
G3 X2.1361442722885444 Y47.92989585979172 I0.6502413004826009 J-0.3759207518415037
G3 X2.1082042164084327 Y47.736855473710946 I0.7239014478028956 J-0.19304038608077217
G1 X2.1082042164084327 Y47.73431546863094
G1 X2.1082042164084327 Y47.73431546863094
G3 X2.1361442722885444 Y47.541275082550165 I0.7493014986029972 J0
G3 X2.2098044196088393 Y47.36093472186944 I0.7239014478028956 J0.19304038608077217
G3 X2.329184658369317 Y47.205994411988826 I0.6502413004826009 J0.3759207518415037
G3 X2.4841249682499362 Y47.08661417322834 I0.5308610617221234 J0.5308610617221234
G3 X2.664465328930658 Y47.010414020828044 I0.3759207518415037 J0.6502413004826009
G3 X2.86004572009144 Y46.985013970027936 I0.19304038608077217 J0.7239014478028956
G1 Z-2.4993649987299973 F800
G3 X3.147066294132588 Y47.043434086868174 I0 J0.7493014986029972 F800
G3 X3.3883667767335535 Y47.205994411988826 I-0.28702057404114806 J0.6934213868427737
G3 X3.550927101854204 Y47.44729489458979 I-0.5308610617221234 J0.5308610617221234
G3 X3.6093472186944373 Y47.73431546863094 I-0.6934213868427737 J0.28702057404114806
G1 X3.6093472186944373 Y47.73431546863094
G1 X3.6093472186944373 Y47.736855473710946
G3 X3.550927101854204 Y48.02133604267208 I-0.7493014986029972 J0
G3 X3.3883667767335535 Y48.26517653035306 I-0.6934213868427737 J-0.28702057404114806
G3 X3.147066294132588 Y48.42773685547371 I-0.5308610617221234 J-0.5308610617221234
G3 X2.86004572009144 Y48.48615697231394 I-0.28702057404114806 J-0.6934213868427737
G3 X2.664465328930658 Y48.46075692151384 I0 J-0.7493014986029972
G3 X2.4841249682499362 Y48.384556769113544 I0.19304038608077217 J-0.7239014478028956
G3 X2.329184658369317 Y48.26517653035306 I0.3759207518415037 J-0.6502413004826009
G3 X2.2098044196088393 Y48.110236220472444 I0.5308610617221234 J-0.5308610617221234
G3 X2.1361442722885444 Y47.92989585979172 I0.6502413004826009 J-0.3759207518415037
G3 X2.1082042164084327 Y47.736855473710946 I0.7239014478028956 J-0.19304038608077217
G1 X2.1082042164084327 Y47.73431546863094
G1 X2.1082042164084327 Y47.73431546863094
G3 X2.1361442722885444 Y47.541275082550165 I0.7493014986029972 J0
G3 X2.2098044196088393 Y47.36093472186944 I0.7239014478028956 J0.19304038608077217
G3 X2.329184658369317 Y47.205994411988826 I0.6502413004826009 J0.3759207518415037
G3 X2.4841249682499362 Y47.08661417322834 I0.5308610617221234 J0.5308610617221234
G3 X2.664465328930658 Y47.010414020828044 I0.3759207518415037 J0.6502413004826009
G3 X2.86004572009144 Y46.985013970027936 I0.19304038608077217 J0.7239014478028956
G1 Z-2.749301498602997 F800
G3 X3.147066294132588 Y47.043434086868174 I0 J0.7493014986029972 F800
G3 X3.3883667767335535 Y47.205994411988826 I-0.28702057404114806 J0.6934213868427737
G3 X3.550927101854204 Y47.44729489458979 I-0.5308610617221234 J0.5308610617221234
G3 X3.6093472186944373 Y47.73431546863094 I-0.6934213868427737 J0.28702057404114806
G1 X3.6093472186944373 Y47.73431546863094
G1 X3.6093472186944373 Y47.736855473710946
G3 X3.550927101854204 Y48.02133604267208 I-0.7493014986029972 J0
G3 X3.3883667767335535 Y48.26517653035306 I-0.6934213868427737 J-0.28702057404114806
G3 X3.147066294132588 Y48.42773685547371 I-0.5308610617221234 J-0.5308610617221234
G3 X2.86004572009144 Y48.48615697231394 I-0.28702057404114806 J-0.6934213868427737
G3 X2.664465328930658 Y48.46075692151384 I0 J-0.7493014986029972
G3 X2.4841249682499362 Y48.384556769113544 I0.19304038608077217 J-0.7239014478028956
G3 X2.329184658369317 Y48.26517653035306 I0.3759207518415037 J-0.6502413004826009
G3 X2.2098044196088393 Y48.110236220472444 I0.5308610617221234 J-0.5308610617221234
G3 X2.1361442722885444 Y47.92989585979172 I0.6502413004826009 J-0.3759207518415037
G3 X2.1082042164084327 Y47.736855473710946 I0.7239014478028956 J-0.19304038608077217
G1 X2.1082042164084327 Y47.73431546863094
G1 X2.1082042164084327 Y47.73431546863094
G3 X2.1361442722885444 Y47.541275082550165 I0.7493014986029972 J0
G3 X2.2098044196088393 Y47.36093472186944 I0.7239014478028956 J0.19304038608077217
G3 X2.329184658369317 Y47.205994411988826 I0.6502413004826009 J0.3759207518415037
G3 X2.4841249682499362 Y47.08661417322834 I0.5308610617221234 J0.5308610617221234
G3 X2.664465328930658 Y47.010414020828044 I0.3759207518415037 J0.6502413004826009
G3 X2.86004572009144 Y46.985013970027936 I0.19304038608077217 J0.7239014478028956
G1 Z-2.999237998475997 F800
G3 X3.147066294132588 Y47.043434086868174 I0 J0.7493014986029972 F800
G3 X3.3883667767335535 Y47.205994411988826 I-0.28702057404114806 J0.6934213868427737
G3 X3.550927101854204 Y47.44729489458979 I-0.5308610617221234 J0.5308610617221234
G3 X3.6093472186944373 Y47.73431546863094 I-0.6934213868427737 J0.28702057404114806
G1 X3.6093472186944373 Y47.73431546863094
G1 X3.6093472186944373 Y47.736855473710946
G3 X3.550927101854204 Y48.02133604267208 I-0.7493014986029972 J0
G3 X3.3883667767335535 Y48.26517653035306 I-0.6934213868427737 J-0.28702057404114806
G3 X3.147066294132588 Y48.42773685547371 I-0.5308610617221234 J-0.5308610617221234
G3 X2.86004572009144 Y48.48615697231394 I-0.28702057404114806 J-0.6934213868427737
G3 X2.664465328930658 Y48.46075692151384 I0 J-0.7493014986029972
G3 X2.4841249682499362 Y48.384556769113544 I0.19304038608077217 J-0.7239014478028956
G3 X2.329184658369317 Y48.26517653035306 I0.3759207518415037 J-0.6502413004826009
G3 X2.2098044196088393 Y48.110236220472444 I0.5308610617221234 J-0.5308610617221234
G3 X2.1361442722885444 Y47.92989585979172 I0.6502413004826009 J-0.3759207518415037
G3 X2.1082042164084327 Y47.736855473710946 I0.7239014478028956 J-0.19304038608077217
G1 X2.1082042164084327 Y47.73431546863094
G1 X2.1082042164084327 Y47.73431546863094
G3 X2.1361442722885444 Y47.541275082550165 I0.7493014986029972 J0
G3 X2.2098044196088393 Y47.36093472186944 I0.7239014478028956 J0.19304038608077217
G3 X2.329184658369317 Y47.205994411988826 I0.6502413004826009 J0.3759207518415037
G3 X2.4841249682499362 Y47.08661417322834 I0.5308610617221234 J0.5308610617221234
G3 X2.664465328930658 Y47.010414020828044 I0.3759207518415037 J0.6502413004826009
G3 X2.86004572009144 Y46.985013970027936 I0.19304038608077217 J0.7239014478028956
G1 Z-3 F800
G3 X3.147066294132588 Y47.043434086868174 I0 J0.7493014986029972 F800
G3 X3.3883667767335535 Y47.205994411988826 I-0.28702057404114806 J0.6934213868427737
G3 X3.550927101854204 Y47.44729489458979 I-0.5308610617221234 J0.5308610617221234
G3 X3.6093472186944373 Y47.73431546863094 I-0.6934213868427737 J0.28702057404114806
G1 X3.6093472186944373 Y47.73431546863094
G1 X3.6093472186944373 Y47.736855473710946
G3 X3.550927101854204 Y48.02133604267208 I-0.7493014986029972 J0
G3 X3.3883667767335535 Y48.26517653035306 I-0.6934213868427737 J-0.28702057404114806
G3 X3.147066294132588 Y48.42773685547371 I-0.5308610617221234 J-0.5308610617221234
G3 X2.86004572009144 Y48.48615697231394 I-0.28702057404114806 J-0.6934213868427737
G3 X2.664465328930658 Y48.46075692151384 I0 J-0.7493014986029972
G3 X2.4841249682499362 Y48.384556769113544 I0.19304038608077217 J-0.7239014478028956
G3 X2.329184658369317 Y48.26517653035306 I0.3759207518415037 J-0.6502413004826009
G3 X2.2098044196088393 Y48.110236220472444 I0.5308610617221234 J-0.5308610617221234
G3 X2.1361442722885444 Y47.92989585979172 I0.6502413004826009 J-0.3759207518415037
G3 X2.1082042164084327 Y47.736855473710946 I0.7239014478028956 J-0.19304038608077217
G1 X2.1082042164084327 Y47.73431546863094
G1 X2.1082042164084327 Y47.73431546863094
G3 X2.1361442722885444 Y47.541275082550165 I0.7493014986029972 J0
G3 X2.2098044196088393 Y47.36093472186944 I0.7239014478028956 J0.19304038608077217
G3 X2.329184658369317 Y47.205994411988826 I0.6502413004826009 J0.3759207518415037
G3 X2.4841249682499362 Y47.08661417322834 I0.5308610617221234 J0.5308610617221234
G3 X2.664465328930658 Y47.010414020828044 I0.3759207518415037 J0.6502413004826009
G3 X2.86004572009144 Y46.985013970027936 I0.19304038608077217 J0.7239014478028956
G0 Z3
G0 X94.93446786893574 Y3.4005588011176022
G1 Z-0.24993649987299973 F800
G3 X94.6482092964186 Y3.3426466852933707 I0 J-0.7493014986029972 F800
G3 X94.40436880873762 Y3.1800863601727203 I0.28702057404114806 J-0.6934213868427737
G3 X94.24180848361698 Y2.938785877571755 I0.5308610617221234 J-0.5308610617221234
G3 X94.18338836677674 Y2.651765303530607 I0.6934213868427737 J-0.28702057404114806
G1 X94.18338836677674 Y2.651765303530607
G3 X94.20878841757684 Y2.456184912369825 I0.7493014986029972 J0
G3 X94.28498856997714 Y2.2758445516891035 I0.7239014478028956 J0.19304038608077217
G3 X94.40436880873762 Y2.120904241808484 I0.6502413004826009 J0.3759207518415037
G3 X94.55930911861824 Y2.001524003048006 I0.5308610617221234 J0.5308610617221234
G3 X94.73964947929895 Y1.9253238506477013 I0.3759207518415037 J0.6502413004826009
G3 X94.93522987045975 Y1.8999237998475995 I0.19304038608077217 J0.7239014478028956
G3 X95.22225044450089 Y1.9583439166878334 I0 J0.7493014986029972
G3 X95.46355092710185 Y2.120904241808484 I-0.28702057404114806 J0.6934213868427737
G3 X95.6261112522225 Y2.364744729489459 I-0.5308610617221234 J0.5308610617221234
G3 X95.68453136906274 Y2.651765303530607 I-0.6934213868427737 J0.28702057404114806
G3 X95.6261112522225 Y2.938785877571755 I-0.7493014986029972 J0
G3 X95.46355092710185 Y3.1800863601727203 I-0.6934213868427737 J-0.28702057404114806
G3 X95.22225044450089 Y3.3426466852933707 I-0.5308610617221234 J-0.5308610617221234
G3 X94.93522987045975 Y3.401066802133604 I-0.28702057404114806 J-0.6934213868427737
G1 Z-0.49987299974599947 F800
G3 X94.6482092964186 Y3.3426466852933707 I0 J-0.7493014986029972 F800
G3 X94.40436880873762 Y3.1800863601727203 I0.28702057404114806 J-0.6934213868427737
G3 X94.24180848361698 Y2.938785877571755 I0.5308610617221234 J-0.5308610617221234
G3 X94.18338836677674 Y2.651765303530607 I0.6934213868427737 J-0.28702057404114806
G1 X94.18338836677674 Y2.651765303530607
G3 X94.20878841757684 Y2.456184912369825 I0.7493014986029972 J0
G3 X94.28498856997714 Y2.2758445516891035 I0.7239014478028956 J0.19304038608077217
G3 X94.40436880873762 Y2.120904241808484 I0.6502413004826009 J0.3759207518415037
G3 X94.55930911861824 Y2.001524003048006 I0.5308610617221234 J0.5308610617221234
G3 X94.73964947929895 Y1.9253238506477013 I0.3759207518415037 J0.6502413004826009
G3 X94.93522987045975 Y1.8999237998475995 I0.19304038608077217 J0.7239014478028956
G3 X95.22225044450089 Y1.9583439166878334 I0 J0.7493014986029972
G3 X95.46355092710185 Y2.120904241808484 I-0.28702057404114806 J0.6934213868427737
G3 X95.6261112522225 Y2.364744729489459 I-0.5308610617221234 J0.5308610617221234
G3 X95.68453136906274 Y2.651765303530607 I-0.6934213868427737 J0.28702057404114806
G3 X95.6261112522225 Y2.938785877571755 I-0.7493014986029972 J0
G3 X95.46355092710185 Y3.1800863601727203 I-0.6934213868427737 J-0.28702057404114806
G3 X95.22225044450089 Y3.3426466852933707 I-0.5308610617221234 J-0.5308610617221234
G3 X94.93522987045975 Y3.401066802133604 I-0.28702057404114806 J-0.6934213868427737
G1 Z-0.7498094996189992 F800
G3 X94.6482092964186 Y3.3426466852933707 I0 J-0.7493014986029972 F800
G3 X94.40436880873762 Y3.1800863601727203 I0.28702057404114806 J-0.6934213868427737
G3 X94.24180848361698 Y2.938785877571755 I0.5308610617221234 J-0.5308610617221234
G3 X94.18338836677674 Y2.651765303530607 I0.6934213868427737 J-0.28702057404114806
G1 X94.18338836677674 Y2.651765303530607
G3 X94.20878841757684 Y2.456184912369825 I0.7493014986029972 J0
G3 X94.28498856997714 Y2.2758445516891035 I0.7239014478028956 J0.19304038608077217
G3 X94.40436880873762 Y2.120904241808484 I0.6502413004826009 J0.3759207518415037
G3 X94.55930911861824 Y2.001524003048006 I0.5308610617221234 J0.5308610617221234
G3 X94.73964947929895 Y1.9253238506477013 I0.3759207518415037 J0.6502413004826009
G3 X94.93522987045975 Y1.8999237998475995 I0.19304038608077217 J0.7239014478028956
G3 X95.22225044450089 Y1.9583439166878334 I0 J0.7493014986029972
G3 X95.46355092710185 Y2.120904241808484 I-0.28702057404114806 J0.6934213868427737
G3 X95.6261112522225 Y2.364744729489459 I-0.5308610617221234 J0.5308610617221234
G3 X95.68453136906274 Y2.651765303530607 I-0.6934213868427737 J0.28702057404114806
G3 X95.6261112522225 Y2.938785877571755 I-0.7493014986029972 J0
G3 X95.46355092710185 Y3.1800863601727203 I-0.6934213868427737 J-0.28702057404114806
G3 X95.22225044450089 Y3.3426466852933707 I-0.5308610617221234 J-0.5308610617221234
G3 X94.93522987045975 Y3.401066802133604 I-0.28702057404114806 J-0.6934213868427737
G1 Z-0.9997459994919989 F800
G3 X94.6482092964186 Y3.3426466852933707 I0 J-0.7493014986029972 F800
G3 X94.40436880873762 Y3.1800863601727203 I0.28702057404114806 J-0.6934213868427737
G3 X94.24180848361698 Y2.938785877571755 I0.5308610617221234 J-0.5308610617221234
G3 X94.18338836677674 Y2.651765303530607 I0.6934213868427737 J-0.28702057404114806
G1 X94.18338836677674 Y2.651765303530607
G3 X94.20878841757684 Y2.456184912369825 I0.7493014986029972 J0
G3 X94.28498856997714 Y2.2758445516891035 I0.7239014478028956 J0.19304038608077217
G3 X94.40436880873762 Y2.120904241808484 I0.6502413004826009 J0.3759207518415037
G3 X94.55930911861824 Y2.001524003048006 I0.5308610617221234 J0.5308610617221234
G3 X94.73964947929895 Y1.9253238506477013 I0.3759207518415037 J0.6502413004826009
G3 X94.93522987045975 Y1.8999237998475995 I0.19304038608077217 J0.7239014478028956
G3 X95.22225044450089 Y1.9583439166878334 I0 J0.7493014986029972
G3 X95.46355092710185 Y2.120904241808484 I-0.28702057404114806 J0.6934213868427737
G3 X95.6261112522225 Y2.364744729489459 I-0.5308610617221234 J0.5308610617221234
G3 X95.68453136906274 Y2.651765303530607 I-0.6934213868427737 J0.28702057404114806
G3 X95.6261112522225 Y2.938785877571755 I-0.7493014986029972 J0
G3 X95.46355092710185 Y3.1800863601727203 I-0.6934213868427737 J-0.28702057404114806
G3 X95.22225044450089 Y3.3426466852933707 I-0.5308610617221234 J-0.5308610617221234
G3 X94.93522987045975 Y3.401066802133604 I-0.28702057404114806 J-0.6934213868427737
G1 Z-1.2496824993649986 F800
G3 X94.6482092964186 Y3.3426466852933707 I0 J-0.7493014986029972 F800
G3 X94.40436880873762 Y3.1800863601727203 I0.28702057404114806 J-0.6934213868427737
G3 X94.24180848361698 Y2.938785877571755 I0.5308610617221234 J-0.5308610617221234
G3 X94.18338836677674 Y2.651765303530607 I0.6934213868427737 J-0.28702057404114806
G1 X94.18338836677674 Y2.651765303530607
G3 X94.20878841757684 Y2.456184912369825 I0.7493014986029972 J0
G3 X94.28498856997714 Y2.2758445516891035 I0.7239014478028956 J0.19304038608077217
G3 X94.40436880873762 Y2.120904241808484 I0.6502413004826009 J0.3759207518415037
G3 X94.55930911861824 Y2.001524003048006 I0.5308610617221234 J0.5308610617221234
G3 X94.73964947929895 Y1.9253238506477013 I0.3759207518415037 J0.6502413004826009
G3 X94.93522987045975 Y1.8999237998475995 I0.19304038608077217 J0.7239014478028956
G3 X95.22225044450089 Y1.9583439166878334 I0 J0.7493014986029972
G3 X95.46355092710185 Y2.120904241808484 I-0.28702057404114806 J0.6934213868427737
G3 X95.6261112522225 Y2.364744729489459 I-0.5308610617221234 J0.5308610617221234
G3 X95.68453136906274 Y2.651765303530607 I-0.6934213868427737 J0.28702057404114806
G3 X95.6261112522225 Y2.938785877571755 I-0.7493014986029972 J0
G3 X95.46355092710185 Y3.1800863601727203 I-0.6934213868427737 J-0.28702057404114806
G3 X95.22225044450089 Y3.3426466852933707 I-0.5308610617221234 J-0.5308610617221234
G3 X94.93522987045975 Y3.401066802133604 I-0.28702057404114806 J-0.6934213868427737
G1 Z-1.4996189992379985 F800
G3 X94.6482092964186 Y3.3426466852933707 I0 J-0.7493014986029972 F800
G3 X94.40436880873762 Y3.1800863601727203 I0.28702057404114806 J-0.6934213868427737
G3 X94.24180848361698 Y2.938785877571755 I0.5308610617221234 J-0.5308610617221234
G3 X94.18338836677674 Y2.651765303530607 I0.6934213868427737 J-0.28702057404114806
G1 X94.18338836677674 Y2.651765303530607
G3 X94.20878841757684 Y2.456184912369825 I0.7493014986029972 J0
G3 X94.28498856997714 Y2.2758445516891035 I0.7239014478028956 J0.19304038608077217
G3 X94.40436880873762 Y2.120904241808484 I0.6502413004826009 J0.3759207518415037
G3 X94.55930911861824 Y2.001524003048006 I0.5308610617221234 J0.5308610617221234
G3 X94.73964947929895 Y1.9253238506477013 I0.3759207518415037 J0.6502413004826009
G3 X94.93522987045975 Y1.8999237998475995 I0.19304038608077217 J0.7239014478028956
G3 X95.22225044450089 Y1.9583439166878334 I0 J0.7493014986029972
G3 X95.46355092710185 Y2.120904241808484 I-0.28702057404114806 J0.6934213868427737
G3 X95.6261112522225 Y2.364744729489459 I-0.5308610617221234 J0.5308610617221234
G3 X95.68453136906274 Y2.651765303530607 I-0.6934213868427737 J0.28702057404114806
G3 X95.6261112522225 Y2.938785877571755 I-0.7493014986029972 J0
G3 X95.46355092710185 Y3.1800863601727203 I-0.6934213868427737 J-0.28702057404114806
G3 X95.22225044450089 Y3.3426466852933707 I-0.5308610617221234 J-0.5308610617221234
G3 X94.93522987045975 Y3.401066802133604 I-0.28702057404114806 J-0.6934213868427737
G1 Z-1.7495554991109983 F800
G3 X94.6482092964186 Y3.3426466852933707 I0 J-0.7493014986029972 F800
G3 X94.40436880873762 Y3.1800863601727203 I0.28702057404114806 J-0.6934213868427737
G3 X94.24180848361698 Y2.938785877571755 I0.5308610617221234 J-0.5308610617221234
G3 X94.18338836677674 Y2.651765303530607 I0.6934213868427737 J-0.28702057404114806
G1 X94.18338836677674 Y2.651765303530607
G3 X94.20878841757684 Y2.456184912369825 I0.7493014986029972 J0
G3 X94.28498856997714 Y2.2758445516891035 I0.7239014478028956 J0.19304038608077217
G3 X94.40436880873762 Y2.120904241808484 I0.6502413004826009 J0.3759207518415037
G3 X94.55930911861824 Y2.001524003048006 I0.5308610617221234 J0.5308610617221234
G3 X94.73964947929895 Y1.9253238506477013 I0.3759207518415037 J0.6502413004826009
G3 X94.93522987045975 Y1.8999237998475995 I0.19304038608077217 J0.7239014478028956
G3 X95.22225044450089 Y1.9583439166878334 I0 J0.7493014986029972
G3 X95.46355092710185 Y2.120904241808484 I-0.28702057404114806 J0.6934213868427737
G3 X95.6261112522225 Y2.364744729489459 I-0.5308610617221234 J0.5308610617221234
G3 X95.68453136906274 Y2.651765303530607 I-0.6934213868427737 J0.28702057404114806
G3 X95.6261112522225 Y2.938785877571755 I-0.7493014986029972 J0
G3 X95.46355092710185 Y3.1800863601727203 I-0.6934213868427737 J-0.28702057404114806
G3 X95.22225044450089 Y3.3426466852933707 I-0.5308610617221234 J-0.5308610617221234
G3 X94.93522987045975 Y3.401066802133604 I-0.28702057404114806 J-0.6934213868427737
G1 Z-1.9994919989839979 F800
G3 X94.6482092964186 Y3.3426466852933707 I0 J-0.7493014986029972 F800
G3 X94.40436880873762 Y3.1800863601727203 I0.28702057404114806 J-0.6934213868427737
G3 X94.24180848361698 Y2.938785877571755 I0.5308610617221234 J-0.5308610617221234
G3 X94.18338836677674 Y2.651765303530607 I0.6934213868427737 J-0.28702057404114806
G1 X94.18338836677674 Y2.651765303530607
G3 X94.20878841757684 Y2.456184912369825 I0.7493014986029972 J0
G3 X94.28498856997714 Y2.2758445516891035 I0.7239014478028956 J0.19304038608077217
G3 X94.40436880873762 Y2.120904241808484 I0.6502413004826009 J0.3759207518415037
G3 X94.55930911861824 Y2.001524003048006 I0.5308610617221234 J0.5308610617221234
G3 X94.73964947929895 Y1.9253238506477013 I0.3759207518415037 J0.6502413004826009
G3 X94.93522987045975 Y1.8999237998475995 I0.19304038608077217 J0.7239014478028956
G3 X95.22225044450089 Y1.9583439166878334 I0 J0.7493014986029972
G3 X95.46355092710185 Y2.120904241808484 I-0.28702057404114806 J0.6934213868427737
G3 X95.6261112522225 Y2.364744729489459 I-0.5308610617221234 J0.5308610617221234
G3 X95.68453136906274 Y2.651765303530607 I-0.6934213868427737 J0.28702057404114806
G3 X95.6261112522225 Y2.938785877571755 I-0.7493014986029972 J0
G3 X95.46355092710185 Y3.1800863601727203 I-0.6934213868427737 J-0.28702057404114806
G3 X95.22225044450089 Y3.3426466852933707 I-0.5308610617221234 J-0.5308610617221234
G3 X94.93522987045975 Y3.401066802133604 I-0.28702057404114806 J-0.6934213868427737
G1 Z-2.249428498856998 F800
G3 X94.6482092964186 Y3.3426466852933707 I0 J-0.7493014986029972 F800
G3 X94.40436880873762 Y3.1800863601727203 I0.28702057404114806 J-0.6934213868427737
G3 X94.24180848361698 Y2.938785877571755 I0.5308610617221234 J-0.5308610617221234
G3 X94.18338836677674 Y2.651765303530607 I0.6934213868427737 J-0.28702057404114806
G1 X94.18338836677674 Y2.651765303530607
G3 X94.20878841757684 Y2.456184912369825 I0.7493014986029972 J0
G3 X94.28498856997714 Y2.2758445516891035 I0.7239014478028956 J0.19304038608077217
G3 X94.40436880873762 Y2.120904241808484 I0.6502413004826009 J0.3759207518415037
G3 X94.55930911861824 Y2.001524003048006 I0.5308610617221234 J0.5308610617221234
G3 X94.73964947929895 Y1.9253238506477013 I0.3759207518415037 J0.6502413004826009
G3 X94.93522987045975 Y1.8999237998475995 I0.19304038608077217 J0.7239014478028956
G3 X95.22225044450089 Y1.9583439166878334 I0 J0.7493014986029972
G3 X95.46355092710185 Y2.120904241808484 I-0.28702057404114806 J0.6934213868427737
G3 X95.6261112522225 Y2.364744729489459 I-0.5308610617221234 J0.5308610617221234
G3 X95.68453136906274 Y2.651765303530607 I-0.6934213868427737 J0.28702057404114806
G3 X95.6261112522225 Y2.938785877571755 I-0.7493014986029972 J0
G3 X95.46355092710185 Y3.1800863601727203 I-0.6934213868427737 J-0.28702057404114806
G3 X95.22225044450089 Y3.3426466852933707 I-0.5308610617221234 J-0.5308610617221234
G3 X94.93522987045975 Y3.401066802133604 I-0.28702057404114806 J-0.6934213868427737
G1 Z-2.4993649987299973 F800
G3 X94.6482092964186 Y3.3426466852933707 I0 J-0.7493014986029972 F800
G3 X94.40436880873762 Y3.1800863601727203 I0.28702057404114806 J-0.6934213868427737
G3 X94.24180848361698 Y2.938785877571755 I0.5308610617221234 J-0.5308610617221234
G3 X94.18338836677674 Y2.651765303530607 I0.6934213868427737 J-0.28702057404114806
G1 X94.18338836677674 Y2.651765303530607
G3 X94.20878841757684 Y2.456184912369825 I0.7493014986029972 J0
G3 X94.28498856997714 Y2.2758445516891035 I0.7239014478028956 J0.19304038608077217
G3 X94.40436880873762 Y2.120904241808484 I0.6502413004826009 J0.3759207518415037
G3 X94.55930911861824 Y2.001524003048006 I0.5308610617221234 J0.5308610617221234
G3 X94.73964947929895 Y1.9253238506477013 I0.3759207518415037 J0.6502413004826009
G3 X94.93522987045975 Y1.8999237998475995 I0.19304038608077217 J0.7239014478028956
G3 X95.22225044450089 Y1.9583439166878334 I0 J0.7493014986029972
G3 X95.46355092710185 Y2.120904241808484 I-0.28702057404114806 J0.6934213868427737
G3 X95.6261112522225 Y2.364744729489459 I-0.5308610617221234 J0.5308610617221234
G3 X95.68453136906274 Y2.651765303530607 I-0.6934213868427737 J0.28702057404114806
G3 X95.6261112522225 Y2.938785877571755 I-0.7493014986029972 J0
G3 X95.46355092710185 Y3.1800863601727203 I-0.6934213868427737 J-0.28702057404114806
G3 X95.22225044450089 Y3.3426466852933707 I-0.5308610617221234 J-0.5308610617221234
G3 X94.93522987045975 Y3.401066802133604 I-0.28702057404114806 J-0.6934213868427737
G1 Z-2.749301498602997 F800
G3 X94.6482092964186 Y3.3426466852933707 I0 J-0.7493014986029972 F800
G3 X94.40436880873762 Y3.1800863601727203 I0.28702057404114806 J-0.6934213868427737
G3 X94.24180848361698 Y2.938785877571755 I0.5308610617221234 J-0.5308610617221234
G3 X94.18338836677674 Y2.651765303530607 I0.6934213868427737 J-0.28702057404114806
G1 X94.18338836677674 Y2.651765303530607
G3 X94.20878841757684 Y2.456184912369825 I0.7493014986029972 J0
G3 X94.28498856997714 Y2.2758445516891035 I0.7239014478028956 J0.19304038608077217
G3 X94.40436880873762 Y2.120904241808484 I0.6502413004826009 J0.3759207518415037
G3 X94.55930911861824 Y2.001524003048006 I0.5308610617221234 J0.5308610617221234
G3 X94.73964947929895 Y1.9253238506477013 I0.3759207518415037 J0.6502413004826009
G3 X94.93522987045975 Y1.8999237998475995 I0.19304038608077217 J0.7239014478028956
G3 X95.22225044450089 Y1.9583439166878334 I0 J0.7493014986029972
G3 X95.46355092710185 Y2.120904241808484 I-0.28702057404114806 J0.6934213868427737
G3 X95.6261112522225 Y2.364744729489459 I-0.5308610617221234 J0.5308610617221234
G3 X95.68453136906274 Y2.651765303530607 I-0.6934213868427737 J0.28702057404114806
G3 X95.6261112522225 Y2.938785877571755 I-0.7493014986029972 J0
G3 X95.46355092710185 Y3.1800863601727203 I-0.6934213868427737 J-0.28702057404114806
G3 X95.22225044450089 Y3.3426466852933707 I-0.5308610617221234 J-0.5308610617221234
G3 X94.93522987045975 Y3.401066802133604 I-0.28702057404114806 J-0.6934213868427737
G1 Z-2.999237998475997 F800
G3 X94.6482092964186 Y3.3426466852933707 I0 J-0.7493014986029972 F800
G3 X94.40436880873762 Y3.1800863601727203 I0.28702057404114806 J-0.6934213868427737
G3 X94.24180848361698 Y2.938785877571755 I0.5308610617221234 J-0.5308610617221234
G3 X94.18338836677674 Y2.651765303530607 I0.6934213868427737 J-0.28702057404114806
G1 X94.18338836677674 Y2.651765303530607
G3 X94.20878841757684 Y2.456184912369825 I0.7493014986029972 J0
G3 X94.28498856997714 Y2.2758445516891035 I0.7239014478028956 J0.19304038608077217
G3 X94.40436880873762 Y2.120904241808484 I0.6502413004826009 J0.3759207518415037
G3 X94.55930911861824 Y2.001524003048006 I0.5308610617221234 J0.5308610617221234
G3 X94.73964947929895 Y1.9253238506477013 I0.3759207518415037 J0.6502413004826009
G3 X94.93522987045975 Y1.8999237998475995 I0.19304038608077217 J0.7239014478028956
G3 X95.22225044450089 Y1.9583439166878334 I0 J0.7493014986029972
G3 X95.46355092710185 Y2.120904241808484 I-0.28702057404114806 J0.6934213868427737
G3 X95.6261112522225 Y2.364744729489459 I-0.5308610617221234 J0.5308610617221234
G3 X95.68453136906274 Y2.651765303530607 I-0.6934213868427737 J0.28702057404114806
G3 X95.6261112522225 Y2.938785877571755 I-0.7493014986029972 J0
G3 X95.46355092710185 Y3.1800863601727203 I-0.6934213868427737 J-0.28702057404114806
G3 X95.22225044450089 Y3.3426466852933707 I-0.5308610617221234 J-0.5308610617221234
G3 X94.93522987045975 Y3.401066802133604 I-0.28702057404114806 J-0.6934213868427737
G1 Z-3 F800
G3 X94.6482092964186 Y3.3426466852933707 I0 J-0.7493014986029972 F800
G3 X94.40436880873762 Y3.1800863601727203 I0.28702057404114806 J-0.6934213868427737
G3 X94.24180848361698 Y2.938785877571755 I0.5308610617221234 J-0.5308610617221234
G3 X94.18338836677674 Y2.651765303530607 I0.6934213868427737 J-0.28702057404114806
G1 X94.18338836677674 Y2.651765303530607
G3 X94.20878841757684 Y2.456184912369825 I0.7493014986029972 J0
G3 X94.28498856997714 Y2.2758445516891035 I0.7239014478028956 J0.19304038608077217
G3 X94.40436880873762 Y2.120904241808484 I0.6502413004826009 J0.3759207518415037
G3 X94.55930911861824 Y2.001524003048006 I0.5308610617221234 J0.5308610617221234
G3 X94.73964947929895 Y1.9253238506477013 I0.3759207518415037 J0.6502413004826009
G3 X94.93522987045975 Y1.8999237998475995 I0.19304038608077217 J0.7239014478028956
G3 X95.22225044450089 Y1.9583439166878334 I0 J0.7493014986029972
G3 X95.46355092710185 Y2.120904241808484 I-0.28702057404114806 J0.6934213868427737
G3 X95.6261112522225 Y2.364744729489459 I-0.5308610617221234 J0.5308610617221234
G3 X95.68453136906274 Y2.651765303530607 I-0.6934213868427737 J0.28702057404114806
G3 X95.6261112522225 Y2.938785877571755 I-0.7493014986029972 J0
G3 X95.46355092710185 Y3.1800863601727203 I-0.6934213868427737 J-0.28702057404114806
G3 X95.22225044450089 Y3.3426466852933707 I-0.5308610617221234 J-0.5308610617221234
G3 X94.93522987045975 Y3.401066802133604 I-0.28702057404114806 J-0.6934213868427737
G0 Z3
M5
M30
