(Generated by PartKam Version 0.05)

G21 G90 G40

(cutout)
G0 Z3
T0 M6
G17
M3
G0 X0 Y-0.7500635001270003
G1 Z-0.24993649987299973 F500
G1 X98.11785623571247 Y-0.7493014986029972 F500
G3 X98.86969773939548 Y0 I0 J0.7493014986029972
G1 X98.86969773939548 Y50.91948183896368
G3 X98.11785623571247 Y51.66878333756667 I-0.7493014986029972 J0
G1 X0 Y51.66878333756667
G3 X-0.7493014986029972 Y50.91948183896368 I0 J-0.7493014986029972
G1 X-0.7493014986029972 Y50.83058166116332
G1 X-0.7493014986029972 Y0
G3 X0 Y-0.7493014986029972 I0.7493014986029972 J0
G1 Z-0.49987299974599947 F500
G1 X98.11785623571247 Y-0.7493014986029972 F500
G3 X98.86969773939548 Y0 I0 J0.7493014986029972
G1 X98.86969773939548 Y50.91948183896368
G3 X98.11785623571247 Y51.66878333756667 I-0.7493014986029972 J0
G1 X0 Y51.66878333756667
G3 X-0.7493014986029972 Y50.91948183896368 I0 J-0.7493014986029972
G1 X-0.7493014986029972 Y50.83058166116332
G1 X-0.7493014986029972 Y0
G3 X0 Y-0.7493014986029972 I0.7493014986029972 J0
G1 Z-0.7498094996189992 F500
G1 X98.11785623571247 Y-0.7493014986029972 F500
G3 X98.86969773939548 Y0 I0 J0.7493014986029972
G1 X98.86969773939548 Y50.91948183896368
G3 X98.11785623571247 Y51.66878333756667 I-0.7493014986029972 J0
G1 X0 Y51.66878333756667
G3 X-0.7493014986029972 Y50.91948183896368 I0 J-0.7493014986029972
G1 X-0.7493014986029972 Y50.83058166116332
G1 X-0.7493014986029972 Y0
G3 X0 Y-0.7493014986029972 I0.7493014986029972 J0
G1 Z-0.9997459994919989 F500
G1 X98.11785623571247 Y-0.7493014986029972 F500
G3 X98.86969773939548 Y0 I0 J0.7493014986029972
G1 X98.86969773939548 Y50.91948183896368
G3 X98.11785623571247 Y51.66878333756667 I-0.7493014986029972 J0
G1 X0 Y51.66878333756667
G3 X-0.7493014986029972 Y50.91948183896368 I0 J-0.7493014986029972
G1 X-0.7493014986029972 Y50.83058166116332
G1 X-0.7493014986029972 Y0
G3 X0 Y-0.7493014986029972 I0.7493014986029972 J0
G1 Z-1.2496824993649986 F500
G1 X98.11785623571247 Y-0.7493014986029972 F500
G3 X98.86969773939548 Y0 I0 J0.7493014986029972
G1 X98.86969773939548 Y50.91948183896368
G3 X98.11785623571247 Y51.66878333756667 I-0.7493014986029972 J0
G1 X0 Y51.66878333756667
G3 X-0.7493014986029972 Y50.91948183896368 I0 J-0.7493014986029972
G1 X-0.7493014986029972 Y50.83058166116332
G1 X-0.7493014986029972 Y0
G3 X0 Y-0.7493014986029972 I0.7493014986029972 J0
G1 Z-1.4996189992379985 F500
G1 X98.11785623571247 Y-0.7493014986029972 F500
G3 X98.86969773939548 Y0 I0 J0.7493014986029972
G1 X98.86969773939548 Y50.91948183896368
G3 X98.11785623571247 Y51.66878333756667 I-0.7493014986029972 J0
G1 X0 Y51.66878333756667
G3 X-0.7493014986029972 Y50.91948183896368 I0 J-0.7493014986029972
G1 X-0.7493014986029972 Y50.83058166116332
G1 X-0.7493014986029972 Y0
G3 X0 Y-0.7493014986029972 I0.7493014986029972 J0
G1 Z-1.7495554991109983 F500
G1 X98.11785623571247 Y-0.7493014986029972 F500
G3 X98.86969773939548 Y0 I0 J0.7493014986029972
G1 X98.86969773939548 Y50.91948183896368
G3 X98.11785623571247 Y51.66878333756667 I-0.7493014986029972 J0
G1 X0 Y51.66878333756667
G3 X-0.7493014986029972 Y50.91948183896368 I0 J-0.7493014986029972
G1 X-0.7493014986029972 Y50.83058166116332
G1 X-0.7493014986029972 Y0
G3 X0 Y-0.7493014986029972 I0.7493014986029972 J0
G1 Z-1.9994919989839979 F500
G1 X98.11785623571247 Y-0.7493014986029972 F500
G3 X98.86969773939548 Y0 I0 J0.7493014986029972
G1 X98.86969773939548 Y50.91948183896368
G3 X98.11785623571247 Y51.66878333756667 I-0.7493014986029972 J0
G1 X0 Y51.66878333756667
G3 X-0.7493014986029972 Y50.91948183896368 I0 J-0.7493014986029972
G1 X-0.7493014986029972 Y50.83058166116332
G1 X-0.7493014986029972 Y0
G3 X0 Y-0.7493014986029972 I0.7493014986029972 J0
G1 Z-2.249428498856998 F500
G1 X98.11785623571247 Y-0.7493014986029972 F500
G3 X98.86969773939548 Y0 I0 J0.7493014986029972
G1 X98.86969773939548 Y50.91948183896368
G3 X98.11785623571247 Y51.66878333756667 I-0.7493014986029972 J0
G1 X0 Y51.66878333756667
G3 X-0.7493014986029972 Y50.91948183896368 I0 J-0.7493014986029972
G1 X-0.7493014986029972 Y50.83058166116332
G1 X-0.7493014986029972 Y0
G3 X0 Y-0.7493014986029972 I0.7493014986029972 J0
G1 Z-2.4993649987299973 F500
G1 X98.11785623571247 Y-0.7493014986029972 F500
G3 X98.86969773939548 Y0 I0 J0.7493014986029972
G1 X98.86969773939548 Y50.91948183896368
G3 X98.11785623571247 Y51.66878333756667 I-0.7493014986029972 J0
G1 X0 Y51.66878333756667
G3 X-0.7493014986029972 Y50.91948183896368 I0 J-0.7493014986029972
G1 X-0.7493014986029972 Y50.83058166116332
G1 X-0.7493014986029972 Y0
G3 X0 Y-0.7493014986029972 I0.7493014986029972 J0
G1 Z-2.749301498602997 F500
G1 X98.11785623571247 Y-0.7493014986029972 F500
G3 X98.86969773939548 Y0 I0 J0.7493014986029972
G1 X98.86969773939548 Y50.91948183896368
G3 X98.11785623571247 Y51.66878333756667 I-0.7493014986029972 J0
G1 X0 Y51.66878333756667
G3 X-0.7493014986029972 Y50.91948183896368 I0 J-0.7493014986029972
G1 X-0.7493014986029972 Y50.83058166116332
G1 X-0.7493014986029972 Y0
G3 X0 Y-0.7493014986029972 I0.7493014986029972 J0
G1 Z-2.999237998475997 F500
G1 X98.11785623571247 Y-0.7493014986029972 F500
G3 X98.86969773939548 Y0 I0 J0.7493014986029972
G1 X98.86969773939548 Y50.91948183896368
G3 X98.11785623571247 Y51.66878333756667 I-0.7493014986029972 J0
G1 X0 Y51.66878333756667
G3 X-0.7493014986029972 Y50.91948183896368 I0 J-0.7493014986029972
G1 X-0.7493014986029972 Y50.83058166116332
G1 X-0.7493014986029972 Y0
G3 X0 Y-0.7493014986029972 I0.7493014986029972 J0
G1 Z-3 F500
G1 X98.11785623571247 Y-0.7493014986029972 F500
G3 X98.86969773939548 Y0 I0 J0.7493014986029972
G1 X98.86969773939548 Y50.91948183896368
G3 X98.11785623571247 Y51.66878333756667 I-0.7493014986029972 J0
G1 X0 Y51.66878333756667
G3 X-0.7493014986029972 Y50.91948183896368 I0 J-0.7493014986029972
G1 X-0.7493014986029972 Y50.83058166116332
G1 X-0.7493014986029972 Y0
G3 X0 Y-0.7493014986029972 I0.7493014986029972 J0
G0 Z3
M5
M30
