(Generated by PartKam Version 0.05)

G21 G90 G40

(througholes_0.9mm)
G0 Z3
T0 M6
G17
M3
G0 X14.858013716027433 Y47.73253746507493
G1 Z-3 F400
G1 Z0 F400
G0 Z3
G0 X17.398018796037594 Y47.73253746507493
G1 Z-3 F400
G1 Z0 F400
G0 Z3
G0 X19.938277876555752 Y47.73253746507493
G1 Z-3 F400
G1 Z0 F400
G0 Z3
G0 X22.478282956565913 Y47.73253746507493
G1 Z-3 F400
G1 Z0 F400
G0 Z3
G0 X25.018288036576074 Y47.73253746507493
G1 Z-3 F400
G1 Z0 F400
G0 Z3
G0 X27.55803911607823 Y47.73253746507493
G1 Z-3 F400
G1 Z0 F400
G0 Z3
G0 X30.09804419608839 Y47.73253746507493
G1 Z-3 F400
G1 Z0 F400
G0 Z3
G0 X32.63830327660655 Y47.73253746507493
G1 Z-3 F400
G1 Z0 F400
G0 Z3
G0 X35.17830835661671 Y47.73253746507493
G1 Z-3 F400
G1 Z0 F400
G0 Z3
G0 X37.71805943611887 Y47.73253746507493
G1 Z-3 F400
G1 Z0 F400
G0 Z3
G0 X40.25806451612903 Y47.73253746507493
G1 Z-3 F400
G1 Z0 F400
G0 Z3
G0 X42.79806959613919 Y47.73253746507493
G1 Z-3 F400
G1 Z0 F400
G0 Z3
G0 X45.338328676657355 Y47.73253746507493
G1 Z-3 F400
G1 Z0 F400
G0 Z3
G0 X47.878333756667516 Y47.73253746507493
G1 Z-3 F400
G1 Z0 F400
G0 Z3
G0 X50.41808483616967 Y47.732791465582935
G1 Z-3 F400
G1 Z0 F400
G0 Z3
G0 X62.549403098806195 Y38.21513843027686
G1 Z-3 F400
G1 Z0 F400
G0 Z3
G0 X62.549403098806195 Y35.670561341122685
G1 Z-3 F400
G1 Z0 F400
G0 Z3
G0 X14.858013716027433 Y32.49225298450597
G1 Z-3 F400
G1 Z0 F400
G0 Z3
G0 X17.398018796037594 Y32.49225298450597
G1 Z-3 F400
G1 Z0 F400
G0 Z3
G0 X19.938277876555752 Y32.49225298450597
G1 Z-3 F400
G1 Z0 F400
G0 Z3
G0 X22.478282956565913 Y32.49225298450597
G1 Z-3 F400
G1 Z0 F400
G0 Z3
G0 X25.018288036576074 Y32.49225298450597
G1 Z-3 F400
G1 Z0 F400
G0 Z3
G0 X27.55803911607823 Y32.49225298450597
G1 Z-3 F400
G1 Z0 F400
G0 Z3
G0 X30.09804419608839 Y32.49225298450597
G1 Z-3 F400
G1 Z0 F400
G0 Z3
G0 X32.63830327660655 Y32.49225298450597
G1 Z-3 F400
G1 Z0 F400
G0 Z3
G0 X35.17830835661671 Y32.49225298450597
G1 Z-3 F400
G1 Z0 F400
G0 Z3
G0 X37.71805943611887 Y32.49225298450597
G1 Z-3 F400
G1 Z0 F400
G0 Z3
G0 X40.25806451612903 Y32.49225298450597
G1 Z-3 F400
G1 Z0 F400
G0 Z3
G0 X42.79806959613919 Y32.49225298450597
G1 Z-3 F400
G1 Z0 F400
G0 Z3
G0 X45.338328676657355 Y32.49225298450597
G1 Z-3 F400
G1 Z0 F400
G0 Z3
G0 X47.878333756667516 Y32.49225298450597
G1 Z-3 F400
G1 Z0 F400
G0 Z3
G0 X50.41808483616967 Y32.49225298450597
G1 Z-3 F400
G1 Z0 F400
G0 Z3
G0 X65.6492252984506 Y31.860807721615444
G1 Z-3 F400
G1 Z0 F400
G0 Z3
G0 X73.26924053848107 Y31.860807721615444
G1 Z-3 F400
G1 Z0 F400
G0 Z3
G0 X65.6492252984506 Y29.320548641097282
G1 Z-3 F400
G1 Z0 F400
G0 Z3
G0 X73.26924053848107 Y29.320548641097282
G1 Z-3 F400
G1 Z0 F400
G0 Z3
G0 X65.6492252984506 Y26.78054356108712
G1 Z-3 F400
G1 Z0 F400
G0 Z3
G0 X73.26924053848107 Y26.78054356108712
G1 Z-3 F400
G1 Z0 F400
G0 Z3
G0 X65.6492252984506 Y24.24053848107696
G1 Z-3 F400
G1 Z0 F400
G0 Z3
G0 X73.26924053848107 Y24.24053848107696
G1 Z-3 F400
G1 Z0 F400
G0 Z3
G0 X65.6492252984506 Y21.700533401066803
G1 Z-3 F400
G1 Z0 F400
G0 Z3
G0 X73.26924053848107 Y21.700533401066803
G1 Z-3 F400
G1 Z0 F400
G0 Z3
G0 X65.6492252984506 Y19.160782321564643
G1 Z-3 F400
G1 Z0 F400
G0 Z3
G0 X73.26924053848107 Y19.160782321564643
G1 Z-3 F400
G1 Z0 F400
G0 Z3
G0 X9.134366268732537 Y16.62052324104648
G1 Z-3 F400
G1 Z0 F400
G0 Z3
G0 X11.674371348742698 Y16.62052324104648
G1 Z-3 F400
G1 Z0 F400
G0 Z3
G0 X14.214122428244856 Y16.62052324104648
G1 Z-3 F400
G1 Z0 F400
G0 Z3
G0 X16.754381508763018 Y16.62052324104648
G1 Z-3 F400
G1 Z0 F400
G0 Z3
G0 X19.294132588265178 Y16.62052324104648
G1 Z-3 F400
G1 Z0 F400
G0 Z3
G0 X21.834391668783336 Y16.62052324104648
G1 Z-3 F400
G1 Z0 F400
G0 Z3
G0 X24.374396748793497 Y16.62052324104648
G1 Z-3 F400
G1 Z0 F400
G0 Z3
G0 X26.914147828295658 Y16.62052324104648
G1 Z-3 F400
G1 Z0 F400
G0 Z3
G0 X33.26416052832106 Y16.62052324104648
G1 Z-3 F400
G1 Z0 F400
G0 Z3
G0 X35.80441960883922 Y16.62052324104648
G1 Z-3 F400
G1 Z0 F400
G0 Z3
G0 X38.34417068834138 Y16.62052324104648
G1 Z-3 F400
G1 Z0 F400
G0 Z3
G0 X40.88442976885954 Y16.62052324104648
G1 Z-3 F400
G1 Z0 F400
G0 Z3
G0 X43.424180848361694 Y16.62052324104648
G1 Z-3 F400
G1 Z0 F400
G0 Z3
G0 X45.964185928371855 Y16.62052324104648
G1 Z-3 F400
G1 Z0 F400
G0 Z3
G0 X48.504445008890016 Y16.62052324104648
G1 Z-3 F400
G1 Z0 F400
G0 Z3
G0 X51.04419608839218 Y16.62052324104648
G1 Z-3 F400
G1 Z0 F400
G0 Z3
G0 X65.6492252984506 Y16.62052324104648
G1 Z-3 F400
G1 Z0 F400
G0 Z3
G0 X73.26924053848107 Y16.62052324104648
G1 Z-3 F400
G1 Z0 F400
G0 Z3
G0 X65.6492252984506 Y14.080518161036322
G1 Z-3 F400
G1 Z0 F400
G0 Z3
G0 X73.26924053848107 Y14.080518161036322
G1 Z-3 F400
G1 Z0 F400
G0 Z3
G0 X6.669291338582677 Y14.08534417068834
G1 Z-3 F400
G1 Z0 F400
G0 Z3
G0 X30.08458216916434 Y14.08534417068834
G1 Z-3 F400
G1 Z0 F400
G0 Z3
G0 X54.21920243840488 Y14.080264160528321
G1 Z-3 F400
G1 Z0 F400
G0 Z3
G0 X6.669291338582677 Y11.540513081026162
G1 Z-3 F400
G1 Z0 F400
G0 Z3
G0 X30.08458216916434 Y11.540513081026162
G1 Z-3 F400
G1 Z0 F400
G0 Z3
G0 X54.21920243840488 Y11.535687071374143
G1 Z-3 F400
G1 Z0 F400
G0 Z3
G0 X9.134366268732537 Y9.000508001016001
G1 Z-3 F400
G1 Z0 F400
G0 Z3
G0 X11.674371348742698 Y9.000508001016001
G1 Z-3 F400
G1 Z0 F400
G0 Z3
G0 X14.214122428244856 Y9.000508001016001
G1 Z-3 F400
G1 Z0 F400
G0 Z3
G0 X16.754381508763018 Y9.000508001016001
G1 Z-3 F400
G1 Z0 F400
G0 Z3
G0 X19.294132588265178 Y9.000508001016001
G1 Z-3 F400
G1 Z0 F400
G0 Z3
G0 X21.834391668783336 Y9.000508001016001
G1 Z-3 F400
G1 Z0 F400
G0 Z3
G0 X24.374396748793497 Y9.000508001016001
G1 Z-3 F400
G1 Z0 F400
G0 Z3
G0 X26.914147828295658 Y9.000508001016001
G1 Z-3 F400
G1 Z0 F400
G0 Z3
G0 X33.26416052832106 Y9.000508001016001
G1 Z-3 F400
G1 Z0 F400
G0 Z3
G0 X35.80441960883922 Y9.000508001016001
G1 Z-3 F400
G1 Z0 F400
G0 Z3
G0 X38.34417068834138 Y9.000508001016001
G1 Z-3 F400
G1 Z0 F400
G0 Z3
G0 X40.88442976885954 Y9.000508001016001
G1 Z-3 F400
G1 Z0 F400
G0 Z3
G0 X43.424180848361694 Y9.000508001016001
G1 Z-3 F400
G1 Z0 F400
G0 Z3
G0 X45.964185928371855 Y9.000508001016001
G1 Z-3 F400
G1 Z0 F400
G0 Z3
G0 X48.504445008890016 Y9.000508001016001
G1 Z-3 F400
G1 Z0 F400
G0 Z3
G0 X51.04419608839218 Y9.000508001016001
G1 Z-3 F400
G1 Z0 F400
G0 Z3
G0 X9.209296418592837 Y2.015494030988062
G1 Z-3 F400
G1 Z0 F400
G0 Z3
G0 X11.749301498602998 Y2.015494030988062
G1 Z-3 F400
G1 Z0 F400
G0 Z3
G0 X14.289306578613157 Y2.015494030988062
G1 Z-3 F400
G1 Z0 F400
G0 Z3
G0 X16.82956565913132 Y2.015494030988062
G1 Z-3 F400
G1 Z0 F400
G0 Z3
G0 X19.369316738633476 Y2.015494030988062
G1 Z-3 F400
G1 Z0 F400
G0 Z3
G0 X21.909321818643637 Y2.015494030988062
G1 Z-3 F400
G1 Z0 F400
G0 Z3
G0 X24.449326898653798 Y2.015494030988062
G1 Z-3 F400
G1 Z0 F400
G0 Z3
G0 X26.98933197866396 Y2.015494030988062
G1 Z-3 F400
G1 Z0 F400
G0 Z3
G0 X29.529591059182117 Y2.015494030988062
G1 Z-3 F400
G1 Z0 F400
G0 Z3
G0 X32.06934213868428 Y2.015494030988062
G1 Z-3 F400
G1 Z0 F400
G0 Z3
G0 X34.60934721869444 Y2.015494030988062
G1 Z-3 F400
G1 Z0 F400
G0 Z3
G0 X37.1490982981966 Y2.015494030988062
G1 Z-3 F400
G1 Z0 F400
G0 Z3
G0 X42.15443230886462 Y2.015494030988062
G1 Z-3 F400
G1 Z0 F400
G0 Z3
G0 X47.234442468884936 Y2.015494030988062
G1 Z-3 F400
G1 Z0 F400
G0 Z3
G0 X52.38963677927356 Y2.015494030988062
G1 Z-3 F400
G1 Z0 F400
G0 Z3
G0 X72.07442214884429 Y2.015494030988062
G1 Z-3 F400
G1 Z0 F400
G0 Z3
G0 X74.61468122936246 Y2.015494030988062
G1 Z-3 F400
G1 Z0 F400
G0 Z3
G0 X77.15468630937262 Y2.015494030988062
G1 Z-3 F400
G1 Z0 F400
G0 Z3
G0 X79.69443738887477 Y2.015494030988062
G1 Z-3 F400
G1 Z0 F400
G0 Z3
G0 X82.23444246888494 Y2.015494030988062
G1 Z-3 F400
G1 Z0 F400
G0 Z3
G0 X84.7744475488951 Y2.015494030988062
G1 Z-3 F400
G1 Z0 F400
G0 Z3
G0 X87.31470662941327 Y2.015494030988062
G1 Z-3 F400
G1 Z0 F400
G0 Z3
G0 X89.85471170942341 Y2.015494030988062
G1 Z-3 F400
G1 Z0 F400
G0 Z3
M5
M30
