(Generated by PartKam Version 0.05)

G21 G90 G40

(vias_0.6mm)
G0 Z3
T0 M6
G17
M3
G0 X37.70916941833884 Y45.83032766065532
G1 Z-3 F300
G1 Z0 F300
G0 Z3
G0 X35.16916433832868 Y44.56032512065024
G1 Z-3 F300
G1 Z0 F300
G0 Z3
G0 X32.62941325882652 Y43.29032258064516
G1 Z-3 F300
G1 Z0 F300
G0 Z3
G0 X30.089408178816356 Y42.02057404114808
G1 Z-3 F300
G1 Z0 F300
G0 Z3
G0 X70.72948945897892 Y36.305308610617224
G1 Z-3 F300
G1 Z0 F300
G0 Z3
G0 X68.18948437896876 Y35.670561341122685
G1 Z-3 F300
G1 Z0 F300
G0 Z3
G0 X33.8996697993396 Y35.035306070612144
G1 Z-3 F300
G1 Z0 F300
G0 Z3
G0 X30.089408178816356 Y34.400304800609604
G1 Z-3 F300
G1 Z0 F300
G0 Z3
G0 X47.869189738379475 Y28.685547371094742
G1 Z-3 F300
G1 Z0 F300
G0 Z3
G0 X60.644653289306575 Y25.51054102108204
G1 Z-3 F300
G1 Z0 F300
G0 Z3
G0 X37.0746761493523 Y24.8752857505715
G1 Z-3 F300
G1 Z0 F300
G0 Z3
G0 X39.61442722885446 Y22.970535941071883
G1 Z-3 F300
G1 Z0 F300
G0 Z3
G0 X63.184658369316736 Y22.970535941071883
G1 Z-3 F300
G1 Z0 F300
G0 Z3
G0 X7.304292608585217 Y19.795529591059182
G1 Z-3 F300
G1 Z0 F300
G0 Z3
G0 X40.88417576835154 Y18.5252730505461
G1 Z-3 F300
G1 Z0 F300
G0 Z3
G0 X43.424434848869694 Y18.5252730505461
G1 Z-3 F300
G1 Z0 F300
G0 Z3
G0 X4.129286258572517 Y8.365760731521464
G1 Z-3 F300
G1 Z0 F300
G0 Z3
G0 X42.229362458724914 Y4.555753111506223
G1 Z-3 F300
G1 Z0 F300
G0 Z3
G0 X49.21437642875286 Y4.555753111506223
G1 Z-3 F300
G1 Z0 F300
G0 Z3
M5
M30
